(.../administrador/eagle/pcb-gcode/pcb-gcode.ulp)
(Copyright 2005 - 2012 by John Johnson)
(See readme.txt for licensing terms.)
(This file generated from the board:)
(.../administrador/eagle/Arduino_reduced.brd)
(Current profile is .../eagle/pcb-gcode/profiles/emc.pp  )
(This file generated 15/09/15 12:23)
(Settings from pcb-machine.h)
(  Tool Size)
(0.1397 )
(Z Axis Settings)
(  High     Up        Down     Drill)
(12.7000 	2.5400 	-0.2000 	-2.0000 )
(spindle on time = 3.0000)
(milling depth = -0.2540)
(text depth = -0.1270)
(tool change at 0.0000 0.0000 0.0000 )
(feed rate xy = F300.00 )
(feed rate z  = F180.00 )
(Settings from pcb-defaults.h)
(isolate min = 0.0578)
(isolate max = 0.3556)
(isolate step = 0.1270)
(Generated top outlines, bottom outlines, bottom drill, )
(Unit of measure: mm)
( Tool|       Size       |  Min Sub |  Max Sub |   Count )
( T01 | 3.200mm 0.1260in | 0.0000in | 0.0000in |       0 )
( T02 | 0.500mm 0.0197in | 0.0000in | 0.0000in |       0 )
( T03 | 0.600mm 0.0236in | 0.0000in | 0.0000in |       0 )
( T04 | 0.813mm 0.0320in | 0.0000in | 0.0000in |       0 )
( T05 | 1.016mm 0.0400in | 0.0000in | 0.0000in |       0 )
(Metric Mode)
G21
(Absolute Coordinates)
G90
M05
G00 Z0.0000 
G00 X25.0000 Y-25.0000 
M06 T01 (3.2000 )
G01 Z0.0000 F180.00 
M06 T01 (3.2000 )
G00 Z2.5400 
M03
G04 P3.000000
G82 X10.7950 Y-20.9550 Z-2.0000 F180.00 R2.5400 P1.000000
G82 X13.3350 Y-33.0200 
G82 X15.2400 Y-28.5750 
G82 X17.7800 Y-28.5750 
G82 X20.3200 Y-26.6700 
M05
G00 Z0.0000 
M06 T03 (0.6000 )
G01 Z0.0000 F180.00 
M06 T03 (0.6000 )
G00 Z2.5400 
M03
G04 P3.000000
G82 X60.3250 Y-26.6700 Z-2.0000 F180.00 R2.5400 P1.000000
M05
G00 Z0.0000 
M06 T04 (0.8128 )
G01 Z0.0000 F180.00 
M06 T04 (0.8128 )
G00 Z2.5400 
M03
G04 P3.000000
G82 X31.7500 Y-19.0500 Z-2.0000 F180.00 R2.5400 P1.000000
G82 X31.7500 Y-26.6700 
G82 X34.2900 Y-19.0500 
G82 X34.2900 Y-26.6700 
G82 X36.8300 Y-19.0500 
G82 X36.8300 Y-26.6700 
G82 X39.3700 Y-19.0500 
G82 X39.3700 Y-26.6700 
G82 X41.9100 Y-15.2400 
G82 X41.9100 Y-19.0500 
G82 X41.9100 Y-26.6700 
G82 X44.4500 Y-15.2400 
G82 X44.4500 Y-19.0500 
G82 X44.4500 Y-26.6700 
G82 X46.9900 Y-15.2400 
G82 X46.9900 Y-19.0500 
G82 X46.9900 Y-26.6700 
G82 X49.5300 Y-19.0500 
G82 X49.5300 Y-26.6700 
G82 X52.0700 Y-19.0500 
G82 X52.0700 Y-26.6700 
G82 X54.6100 Y-19.0500 
G82 X54.6100 Y-26.6700 
G82 X57.1500 Y-19.0500 
G82 X57.1500 Y-26.6700 
G82 X20.3200 Y-19.0500 
G82 X20.3200 Y-26.6700 
G82 X24.1300 Y-19.0500 
G82 X24.1300 Y-26.6700 
G82 X26.6700 Y-19.0500 
G82 X26.6700 Y-26.6700 
G82 X29.2100 Y-19.0500 
G82 X29.2100 Y-26.6700 
M05
G00 Z0.0000 
M06 T05 (1.0160 )
G01 Z0.0000 F180.00 
M06 T05 (1.0160 )
G00 Z2.5400 
M03
G04 P3.000000
G82 X62.8650 Y-31.7500 Z-2.0000 F180.00 R2.5400 P1.000000
G82 X62.8650 Y-34.2900 
G82 X62.8650 Y-36.8300 
G82 X62.8650 Y-3.8100 
G82 X62.8650 Y-39.3700 
G82 X62.8650 Y-41.9100 
G82 X62.8650 Y-6.3500 
G82 X62.8650 Y-8.8900 
G82 X62.8650 Y-11.4300 
G82 X62.8650 Y-13.9700 
G82 X62.8650 Y-16.5100 
G82 X62.8650 Y-19.0500 
G82 X62.8650 Y-21.5900 
G82 X62.8650 Y-24.1300 
G82 X62.8650 Y-26.6700 
G82 X62.8650 Y-29.2100 
G82 X10.7950 Y-35.5600 
G82 X10.7950 Y-38.1000 
G82 X10.7950 Y-6.9850 
G82 X10.7950 Y-9.5250 
G82 X10.7950 Y-12.0650 
G82 X13.3350 Y-35.5600 
G82 X13.3350 Y-38.1000 
G82 X13.3350 Y-6.9850 
G82 X13.3350 Y-9.5250 
G82 X13.3350 Y-12.0650 
T01 
G00 Z12.7000 
M05
M02
