(.../administrador/eagle/pcb-gcode/pcb-gcode.ulp)
(Copyright 2005 - 2012 by John Johnson)
(See readme.txt for licensing terms.)
(This file generated from the board:)
(.../administrador/eagle/Arduino_reduced.brd)
(Current profile is .../eagle/pcb-gcode/profiles/emc.pp  )
(This file generated 21/09/15 11:16)
(Settings from pcb-machine.h)
(  Tool Size)
(0.1270 )
(Z Axis Settings)
(  High     Up        Down     Drill)
(12.7000 	5.0000 	-0.1500 	-2.0000 )
(spindle on time = 3.0000)
(milling depth = -0.2540)
(text depth = -0.1270)
(tool change at 0.0000 0.0000 0.0000 )
(feed rate xy = F200.00 )
(feed rate z  = F250.00 )
(Settings from pcb-defaults.h)
(isolate min = 0.0578)
(isolate max = 0.3556)
(isolate step = 0.1270)
(Generated top drill, )
(Unit of measure: mm)
( Tool|       Size       |  Min Sub |  Max Sub |   Count )
( T01 | 3.200mm 0.1260in | 0.0000in | 0.0000in |       0 )
( T02 | 0.500mm 0.0197in | 0.0000in | 0.0000in |       0 )
( T03 | 0.600mm 0.0236in | 0.0000in | 0.0000in |       0 )
( T04 | 0.813mm 0.0320in | 0.0000in | 0.0000in |       0 )
( T05 | 1.016mm 0.0400in | 0.0000in | 0.0000in |       0 )
(Metric Mode)
G21
(Absolute Coordinates)
G90
M05
G00 Z5.0000 
G00 X25.0000 Y25.0000 
M06 T01 (3.2000 )
G01 Z0.0000 F250.00 
M06 T01 (3.2000 )
G00 Z5.0000 
M03
G04 P3.000000
M05
G00 Z0.0000 
M06 T02 (0.5000 )
G01 Z0.0000 F250.00 
M06 T02 (0.5000 )
G00 Z5.0000 
M03
G04 P3.000000
G82 X10.7950 Y20.9550 Z-2.0000 F250.00 R5.0000 P1.000000
G82 X13.3350 Y33.0200 
G82 X15.2400 Y28.5750 
G82 X17.7800 Y28.5750 
G82 X20.3200 Y26.6700 
M05
G00 Z0.0000 
M06 T03 (0.6000 )
G01 Z0.0000 F250.00 
M06 T03 (0.6000 )
G00 Z5.0000 
M03
G04 P3.000000
G82 X60.3250 Y26.6700 Z-2.0000 F250.00 R5.0000 P1.000000
M05
G00 Z0.0000 
M06 T04 (0.8128 )
G01 Z0.0000 F250.00 
M06 T04 (0.8128 )
G00 Z5.0000 
M03
G04 P3.000000
G82 X31.7500 Y19.0500 Z-2.0000 F250.00 R5.0000 P1.000000
G82 X31.7500 Y26.6700 
G82 X34.2900 Y19.0500 
G82 X34.2900 Y26.6700 
G82 X36.8300 Y19.0500 
G82 X36.8300 Y26.6700 
G82 X39.3700 Y19.0500 
G82 X39.3700 Y26.6700 
G82 X41.9100 Y15.2400 
G82 X41.9100 Y19.0500 
G82 X41.9100 Y26.6700 
G82 X44.4500 Y15.2400 
G82 X44.4500 Y19.0500 
G82 X44.4500 Y26.6700 
G82 X46.9900 Y15.2400 
G82 X46.9900 Y19.0500 
G82 X46.9900 Y26.6700 
G82 X49.5300 Y19.0500 
G82 X49.5300 Y26.6700 
G82 X52.0700 Y19.0500 
G82 X52.0700 Y26.6700 
G82 X54.6100 Y19.0500 
G82 X54.6100 Y26.6700 
G82 X57.1500 Y19.0500 
G82 X57.1500 Y26.6700 
G82 X20.3200 Y19.0500 
G82 X20.3200 Y26.6700 
G82 X24.1300 Y19.0500 
G82 X24.1300 Y26.6700 
G82 X26.6700 Y19.0500 
G82 X26.6700 Y26.6700 
G82 X29.2100 Y19.0500 
G82 X29.2100 Y26.6700 
M05
G00 Z0.0000 
M06 T05 (1.0160 )
G01 Z0.0000 F250.00 
M06 T05 (1.0160 )
G00 Z5.0000 
M03
G04 P3.000000
G82 X62.8650 Y31.7500 Z-2.0000 F250.00 R5.0000 P1.000000
G82 X62.8650 Y34.2900 
G82 X62.8650 Y36.8300 
G82 X62.8650 Y3.8100 
G82 X62.8650 Y39.3700 
G82 X62.8650 Y41.9100 
G82 X62.8650 Y6.3500 
G82 X62.8650 Y8.8900 
G82 X62.8650 Y11.4300 
G82 X62.8650 Y13.9700 
G82 X62.8650 Y16.5100 
G82 X62.8650 Y19.0500 
G82 X62.8650 Y21.5900 
G82 X62.8650 Y24.1300 
G82 X62.8650 Y26.6700 
G82 X62.8650 Y29.2100 
G82 X10.7950 Y35.5600 
G82 X10.7950 Y38.1000 
G82 X10.7950 Y6.9850 
G82 X10.7950 Y9.5250 
G82 X10.7950 Y12.0650 
G82 X13.3350 Y35.5600 
G82 X13.3350 Y38.1000 
G82 X13.3350 Y6.9850 
G82 X13.3350 Y9.5250 
G82 X13.3350 Y12.0650 
T01 
G00 Z12.7000 
M05
M02
