(.../administrador/eagle/pcb-gcode/pcb-gcode.ulp)
(Copyright 2005 - 2012 by John Johnson)
(See readme.txt for licensing terms.)
(This file generated from the board:)
(.../eagle/EtherCard3_corregido.brd)
(Current profile is .../eagle/pcb-gcode/profiles/emc.pp  )
(This file generated 16/09/15 13:48)
(Settings from pcb-machine.h)
(  Tool Size)
(0.1270 )
(Z Axis Settings)
(  High     Up        Down     Drill)
(12.7000 	5.0000 	-0.1500 	-2.0000 )
(spindle on time = 3.0000)
(milling depth = -0.2540)
(text depth = -0.1270)
(tool change at 0.0000 0.0000 0.0000 )
(feed rate xy = F200.00 )
(feed rate z  = F250.00 )
(Settings from pcb-defaults.h)
(isolate min = 0.0578)
(isolate max = 0.3556)
(isolate step = 0.1270)
(Generated bottom outlines, bottom drill, )
(Unit of measure: mm)
( Tool|       Size       |  Min Sub |  Max Sub |   Count )
( T01 | 3.251mm 0.1280in | 0.0000in | 0.0000in |       0 )
( T02 | 0.500mm 0.0197in | 0.0000in | 0.0000in |       0 )
( T03 | 0.600mm 0.0236in | 0.0000in | 0.0000in |       0 )
( T04 | 0.813mm 0.0320in | 0.0000in | 0.0000in |       0 )
( T05 | 1.016mm 0.0400in | 0.0000in | 0.0000in |       0 )
(Metric Mode)
G21
(Absolute Coordinates)
G90
M05
G00 Z0.0000 
G00 X0.0000 Y0.0000 
M06 T01 (3.2512 )
G01 Z0.0000 F250.00 
M06 T01 (3.2512 )
G00 Z5.0000 
M03
G04 P3.000000
G82 X-10.2870 Y9.5250 Z-2.0000 F250.00 R5.0000 P1.000000
G82 X-10.2870 Y20.9550 
M05
G00 Z0.0000 
M06 T02 (0.5000 )
G01 Z0.0000 F250.00 
M06 T02 (0.5000 )
G00 Z5.0000 
M03
G04 P3.000000
G82 X-33.0200 Y14.6050 Z-2.0000 F250.00 R5.0000 P1.000000
G82 X-33.0200 Y27.3050 
M05
G00 Z0.0000 
M06 T03 (0.6000 )
G01 Z0.0000 F250.00 
M06 T03 (0.6000 )
G00 Z5.0000 
M03
G04 P3.000000
G82 X-34.9250 Y14.6050 Z-2.0000 F250.00 R5.0000 P1.000000
G82 X-34.9250 Y25.4000 
G82 X-39.3700 Y14.6050 
G82 X-40.0050 Y26.0350 
G82 X-5.9055 Y8.5090 
G82 X-5.9055 Y11.0490 
G82 X-5.9055 Y19.4310 
G82 X-5.9055 Y21.9710 
G82 X-13.3350 Y7.4930 
G82 X-13.3350 Y22.9870 
G82 X-16.6370 Y12.0650 
G82 X-16.6370 Y14.6050 
G82 X-16.6370 Y17.1450 
G82 X-16.6370 Y19.6850 
G82 X-19.1770 Y10.7950 
G82 X-19.1770 Y13.3350 
G82 X-19.1770 Y15.8750 
G82 X-19.1770 Y18.4150 
M05
G00 Z0.0000 
M06 T04 (0.8128 )
G01 Z0.0000 F250.00 
M06 T04 (0.8128 )
G00 Z5.0000 
M03
G04 P3.000000
G82 X-36.1950 Y31.3690 Z-2.0000 F250.00 R5.0000 P1.000000
G82 X-36.1950 Y33.4010 
G82 X-37.4650 Y28.5750 
G82 X-40.0050 Y28.5750 
G82 X-41.9100 Y12.7000 
G82 X-41.9100 Y20.3200 
G82 X-42.5450 Y36.1950 
G82 X-42.5450 Y31.1150 
G82 X-44.4500 Y12.7000 
G82 X-44.4500 Y20.3200 
G82 X-46.9900 Y12.7000 
G82 X-46.9900 Y20.3200 
G82 X-46.9900 Y28.5750 
G82 X-47.6250 Y31.3690 
G82 X-47.6250 Y33.4010 
G82 X-49.5300 Y12.7000 
G82 X-49.5300 Y20.3200 
G82 X-49.5300 Y26.0350 
G82 X-52.0700 Y5.7150 
G82 X-52.0700 Y8.2550 
G82 X-52.0700 Y12.7000 
G82 X-52.0700 Y20.3200 
G82 X-54.6100 Y12.7000 
G82 X-54.6100 Y20.3200 
G82 X-54.6100 Y28.5750 
G82 X-57.1500 Y5.7150 
G82 X-57.1500 Y8.2550 
G82 X-57.1500 Y12.7000 
G82 X-57.1500 Y20.3200 
G82 X-57.1500 Y26.0350 
G82 X-59.6900 Y12.7000 
G82 X-59.6900 Y20.3200 
G82 X-62.2300 Y12.7000 
G82 X-62.2300 Y20.3200 
G82 X-62.3570 Y8.2550 
G82 X-64.7700 Y12.7000 
G82 X-64.7700 Y20.3200 
G82 X-67.1830 Y8.2550 
G82 X-67.3100 Y12.7000 
G82 X-67.3100 Y20.3200 
G82 X-69.8500 Y12.7000 
G82 X-69.8500 Y20.3200 
G82 X-72.3900 Y7.6200 
G82 X-72.3900 Y10.1600 
G82 X-72.3900 Y12.7000 
G82 X-72.3900 Y20.3200 
G82 X-74.9300 Y7.6200 
G82 X-74.9300 Y10.1600 
G82 X-74.9300 Y12.7000 
G82 X-74.9300 Y20.3200 
G82 X-75.1840 Y24.7650 
G82 X-77.2160 Y24.7650 
G82 X-77.4700 Y12.7000 
G82 X-77.4700 Y20.3200 
G82 X-80.6450 Y12.7000 
G82 X-80.6450 Y17.7800 
G82 X-22.8600 Y5.0800 
G82 X-22.8600 Y12.7000 
G82 X-22.8600 Y14.6050 
G82 X-22.8600 Y17.1450 
G82 X-22.8600 Y19.6850 
G82 X-22.8600 Y27.3050 
G82 X-25.4000 Y6.9850 
G82 X-25.4000 Y9.5250 
G82 X-26.6700 Y22.8600 
G82 X-26.6700 Y25.4000 
G82 X-27.9400 Y14.6050 
G82 X-27.9400 Y17.1450 
M05
G00 Z0.0000 
M06 T05 (1.0160 )
G01 Z0.0000 F250.00 
M06 T05 (1.0160 )
G00 Z5.0000 
M03
G04 P3.000000
G82 X-8.2550 Y38.1000 Z-2.0000 F250.00 R5.0000 P1.000000
G82 X-8.2550 Y40.6400 
G82 X-8.2550 Y43.1800 
G82 X-86.9950 Y35.5600 
G82 X-86.9950 Y38.1000 
G82 X-86.9950 Y6.9850 
G82 X-86.9950 Y9.5250 
G82 X-86.9950 Y12.0650 
G82 X-89.5350 Y35.5600 
G82 X-89.5350 Y38.1000 
G82 X-89.5350 Y6.9850 
G82 X-89.5350 Y9.5250 
G82 X-89.5350 Y12.0650 
G82 X-26.0350 Y33.6550 
G82 X-28.5750 Y33.6550 
G82 X-31.1150 Y33.6550 
T01 
G00 Z12.7000 
M05
M02
