(.../administrador/eagle/pcb-gcode/pcb-gcode.ulp)
(Copyright 2005 - 2012 by John Johnson)
(See readme.txt for licensing terms.)
(This file generated from the board:)
(.../eagle/EtherCard3_corregido.brd)
(Current profile is .../eagle/pcb-gcode/profiles/emc.pp  )
(This file generated 16/09/15 13:48)
(Settings from pcb-machine.h)
(  Tool Size)
(0.1270 )
(Z Axis Settings)
(  High     Up        Down     Drill)
(12.7000 	5.0000 	-0.1500 	-2.0000 )
(spindle on time = 3.0000)
(milling depth = -0.2540)
(text depth = -0.1270)
(tool change at 0.0000 0.0000 0.0000 )
(feed rate xy = F200.00 )
(feed rate z  = F250.00 )
(Settings from pcb-defaults.h)
(isolate min = 0.0578)
(isolate max = 0.3556)
(isolate step = 0.1270)
(Generated bottom outlines, bottom drill, )
(Unit of measure: mm)
(Metric Mode)
G21
(Absolute Coordinates)
G90
G00 X0.0000 Y0.0000 
M03
G04 P3.000000
G00 Z5.0000 
G00 Z5.0000 
G00 X-70.8349 Y11.7394 
G01 Z-0.1500 F250.00 
G01 X-70.8349 Y13.6606 F200.00 
G01 X-70.7971 Y13.8509 
G01 X-70.7228 Y14.0301 
G01 X-70.6150 Y14.1914 
G01 X-70.4778 Y14.3286 
G01 X-70.3777 Y14.3955 
G01 X-70.3777 Y15.3473 
G01 X-76.9423 Y15.3473 
G01 X-76.9423 Y14.3955 
G01 X-76.8422 Y14.3286 
G01 X-76.7050 Y14.1914 
G01 X-76.5972 Y14.0301 
G01 X-76.5229 Y13.8509 
G01 X-76.4851 Y13.6606 
G01 X-76.4851 Y11.7394 
G01 X-76.5229 Y11.5491 
G01 X-76.5972 Y11.3699 
G01 X-76.7050 Y11.2086 
G01 X-76.8422 Y11.0714 
G01 X-77.0035 Y10.9636 
G01 X-77.1827 Y10.8893 
G01 X-77.3730 Y10.8515 
G01 X-77.5670 Y10.8515 
G01 X-77.7573 Y10.8893 
G01 X-77.9365 Y10.9636 
G01 X-78.0978 Y11.0714 
G01 X-78.2350 Y11.2086 
G01 X-78.3428 Y11.3699 
G01 X-78.4171 Y11.5491 
G01 X-78.4549 Y11.7394 
G01 X-78.4549 Y12.1723 
G01 X-79.7798 Y12.1723 
G01 X-80.2370 Y11.7151 
G01 X-81.0530 Y11.7151 
G01 X-81.6299 Y12.2920 
G01 X-81.6299 Y13.1080 
G01 X-81.0530 Y13.6849 
G01 X-80.7663 Y13.6849 
G01 X-80.7663 Y14.6291 
G01 X-80.7478 Y14.6737 
G01 X-80.7137 Y14.7078 
G01 X-80.6691 Y14.7263 
G01 X-77.9977 Y14.7263 
G01 X-77.9977 Y15.9445 
G01 X-77.9617 Y16.0787 
G01 X-77.8923 Y16.1990 
G01 X-77.7940 Y16.2973 
G01 X-77.6737 Y16.3667 
G01 X-77.5395 Y16.4027 
G01 X-54.6628 Y16.4027 
G01 X-54.6464 Y16.4060 
G01 X-54.5935 Y16.4027 
G01 X-54.5405 Y16.4027 
G01 X-54.5244 Y16.3984 
G01 X-44.2874 Y15.7427 
G01 X-44.2463 Y15.7317 
G01 X-44.2319 Y15.7234 
G01 X-44.2160 Y15.7181 
G01 X-44.1718 Y15.6888 
G01 X-44.1260 Y15.6623 
G01 X-44.1142 Y15.6505 
G01 X-44.1003 Y15.6412 
G01 X-44.0652 Y15.6015 
G01 X-44.0277 Y15.5640 
G01 X-44.0194 Y15.5496 
G01 X-44.0083 Y15.5370 
G01 X-43.9848 Y15.4896 
G01 X-43.9583 Y15.4437 
G01 X-43.9539 Y15.4276 
G01 X-43.9465 Y15.4126 
G01 X-43.9360 Y15.3607 
G01 X-43.9223 Y15.3095 
G01 X-43.9223 Y15.2928 
G01 X-43.9190 Y15.2764 
G01 X-43.9223 Y15.2235 
G01 X-43.9223 Y14.3955 
G01 X-43.8222 Y14.3286 
G01 X-43.6850 Y14.1914 
G01 X-43.5772 Y14.0301 
G01 X-43.5029 Y13.8509 
G01 X-43.4651 Y13.6606 
G01 X-43.4651 Y11.8264 
G01 X-42.9614 Y11.3227 
G01 X-40.8586 Y11.3227 
G01 X-39.8977 Y12.2836 
G01 X-39.8977 Y13.9564 
G01 X-39.9007 Y13.9583 
G01 X-40.0166 Y14.0743 
G01 X-40.1078 Y14.2107 
G01 X-40.1705 Y14.3622 
G01 X-40.2025 Y14.5230 
G01 X-40.2025 Y14.6870 
G01 X-40.1705 Y14.8478 
G01 X-40.1078 Y14.9993 
G01 X-40.0166 Y15.1357 
G01 X-39.9007 Y15.2517 
G01 X-39.7643 Y15.3428 
G01 X-39.6128 Y15.4055 
G01 X-39.4520 Y15.4375 
G01 X-39.2880 Y15.4375 
G01 X-39.1272 Y15.4055 
G01 X-38.9757 Y15.3428 
G01 X-38.8393 Y15.2517 
G01 X-38.7233 Y15.1357 
G01 X-38.6322 Y14.9993 
G01 X-38.5695 Y14.8478 
G01 X-38.5375 Y14.6870 
G01 X-38.5375 Y14.5230 
G01 X-38.5695 Y14.3622 
G01 X-38.6322 Y14.2107 
G01 X-38.7233 Y14.0743 
G01 X-38.8393 Y13.9583 
G01 X-38.8423 Y13.9564 
G01 X-38.8423 Y11.9955 
G01 X-38.8783 Y11.8613 
G01 X-38.9477 Y11.7410 
G01 X-40.2177 Y10.4710 
G01 X-40.3160 Y10.3727 
G01 X-40.4363 Y10.3033 
G01 X-40.5705 Y10.2673 
G01 X-43.2495 Y10.2673 
G01 X-43.3837 Y10.3033 
G01 X-43.5040 Y10.3727 
G01 X-44.0622 Y10.9310 
G01 X-44.1627 Y10.8893 
G01 X-44.3530 Y10.8515 
G01 X-44.5470 Y10.8515 
G01 X-44.7373 Y10.8893 
G01 X-44.9165 Y10.9636 
G01 X-45.0778 Y11.0714 
G01 X-45.2150 Y11.2086 
G01 X-45.3228 Y11.3699 
G01 X-45.3971 Y11.5491 
G01 X-45.4349 Y11.7394 
G01 X-45.4349 Y13.6606 
G01 X-45.3971 Y13.8509 
G01 X-45.3228 Y14.0301 
G01 X-45.2150 Y14.1914 
G01 X-45.0778 Y14.3286 
G01 X-44.9777 Y14.3955 
G01 X-44.9777 Y14.7442 
G01 X-54.0823 Y15.3133 
G01 X-54.0823 Y14.3955 
G01 X-53.9822 Y14.3286 
G01 X-53.8450 Y14.1914 
G01 X-53.7372 Y14.0301 
G01 X-53.6629 Y13.8509 
G01 X-53.6251 Y13.6606 
G01 X-53.6251 Y11.7394 
G01 X-53.6629 Y11.5491 
G01 X-53.7372 Y11.3699 
G01 X-53.8450 Y11.2086 
G01 X-53.9822 Y11.0714 
G01 X-54.1435 Y10.9636 
G01 X-54.3227 Y10.8893 
G01 X-54.5130 Y10.8515 
G01 X-54.7070 Y10.8515 
G01 X-54.8973 Y10.8893 
G01 X-55.0765 Y10.9636 
G01 X-55.2378 Y11.0714 
G01 X-55.3750 Y11.2086 
G01 X-55.4828 Y11.3699 
G01 X-55.5571 Y11.5491 
G01 X-55.5949 Y11.7394 
G01 X-55.5949 Y13.6606 
G01 X-55.5571 Y13.8509 
G01 X-55.4828 Y14.0301 
G01 X-55.3750 Y14.1914 
G01 X-55.2378 Y14.3286 
G01 X-55.1377 Y14.3955 
G01 X-55.1377 Y15.3473 
G01 X-56.6223 Y15.3473 
G01 X-56.6223 Y14.3955 
G01 X-56.5222 Y14.3286 
G01 X-56.3850 Y14.1914 
G01 X-56.2772 Y14.0301 
G01 X-56.2029 Y13.8509 
G01 X-56.1651 Y13.6606 
G01 X-56.1651 Y11.7394 
G01 X-56.2029 Y11.5491 
G01 X-56.2772 Y11.3699 
G01 X-56.3850 Y11.2086 
G01 X-56.5222 Y11.0714 
G01 X-56.6835 Y10.9636 
G01 X-56.8627 Y10.8893 
G01 X-57.0530 Y10.8515 
G01 X-57.2470 Y10.8515 
G01 X-57.4373 Y10.8893 
G01 X-57.6165 Y10.9636 
G01 X-57.7778 Y11.0714 
G01 X-57.9150 Y11.2086 
G01 X-58.0228 Y11.3699 
G01 X-58.0971 Y11.5491 
G01 X-58.1349 Y11.7394 
G01 X-58.1349 Y13.6606 
G01 X-58.0971 Y13.8509 
G01 X-58.0228 Y14.0301 
G01 X-57.9150 Y14.1914 
G01 X-57.7778 Y14.3286 
G01 X-57.6777 Y14.3955 
G01 X-57.6777 Y15.3473 
G01 X-69.3223 Y15.3473 
G01 X-69.3223 Y14.3955 
G01 X-69.2222 Y14.3286 
G01 X-69.0850 Y14.1914 
G01 X-68.9772 Y14.0301 
G01 X-68.9029 Y13.8509 
G01 X-68.8651 Y13.6606 
G01 X-68.8651 Y11.7394 
G01 X-68.9029 Y11.5491 
G01 X-68.9772 Y11.3699 
G01 X-69.0850 Y11.2086 
G01 X-69.2222 Y11.0714 
G01 X-69.3835 Y10.9636 
G01 X-69.5627 Y10.8893 
G01 X-69.7530 Y10.8515 
G01 X-69.9470 Y10.8515 
G01 X-70.1373 Y10.8893 
G01 X-70.3165 Y10.9636 
G01 X-70.4778 Y11.0714 
G01 X-70.6150 Y11.2086 
G01 X-70.7228 Y11.3699 
G01 X-70.7971 Y11.5491 
G01 X-70.8349 Y11.7394 
G00 Z5.0000 
G00 X-33.7763 Y14.5305 
G01 Z-0.1500 F250.00 
G01 X-33.7763 Y14.6795 F200.00 
G01 X-33.7472 Y14.8256 
G01 X-33.6902 Y14.9632 
G01 X-33.6075 Y15.0871 
G01 X-33.5021 Y15.1925 
G01 X-33.3782 Y15.2752 
G01 X-33.2406 Y15.3322 
G01 X-33.0945 Y15.3613 
G01 X-32.9455 Y15.3613 
G01 X-32.7994 Y15.3322 
G01 X-32.6618 Y15.2752 
G01 X-32.5379 Y15.1925 
G01 X-32.4325 Y15.0871 
G01 X-32.3498 Y14.9632 
G01 X-32.2928 Y14.8256 
G01 X-32.2637 Y14.6795 
G01 X-32.2637 Y10.7205 
G01 X-32.2928 Y10.5744 
G01 X-32.3498 Y10.4367 
G01 X-32.4325 Y10.3129 
G01 X-32.5379 Y10.2075 
G01 X-36.3479 Y6.3975 
G01 X-36.4718 Y6.3148 
G01 X-36.6094 Y6.2578 
G01 X-36.7555 Y6.2287 
G01 X-45.7945 Y6.2287 
G01 X-45.9406 Y6.2578 
G01 X-46.0782 Y6.3148 
G01 X-46.2021 Y6.3975 
G01 X-50.1175 Y10.3129 
G01 X-50.2002 Y10.4367 
G01 X-50.2572 Y10.5744 
G01 X-50.2863 Y10.7205 
G01 X-50.2863 Y11.1998 
G01 X-50.2950 Y11.2086 
G01 X-50.4028 Y11.3699 
G01 X-50.4771 Y11.5491 
G01 X-50.5149 Y11.7394 
G01 X-50.5149 Y13.6606 
G01 X-50.4771 Y13.8509 
G01 X-50.4028 Y14.0301 
G01 X-50.2950 Y14.1914 
G01 X-50.1578 Y14.3286 
G01 X-49.9965 Y14.4364 
G01 X-49.8173 Y14.5107 
G01 X-49.6270 Y14.5485 
G01 X-49.4330 Y14.5485 
G01 X-49.2427 Y14.5107 
G01 X-49.0635 Y14.4364 
G01 X-48.9022 Y14.3286 
G01 X-48.7650 Y14.1914 
G01 X-48.6572 Y14.0301 
G01 X-48.5829 Y13.8509 
G01 X-48.5451 Y13.6606 
G01 X-48.5451 Y11.7394 
G01 X-48.5829 Y11.5491 
G01 X-48.6572 Y11.3699 
G01 X-48.7650 Y11.2086 
G01 X-48.7737 Y11.1998 
G01 X-48.7737 Y11.1083 
G01 X-45.4067 Y7.7413 
G01 X-37.1433 Y7.7413 
G01 X-33.7763 Y11.1083 
G01 X-33.7763 Y14.5305 
G00 Z5.0000 
G00 X-35.7575 Y14.5230 
G01 Z-0.1500 F250.00 
G01 X-35.7575 Y14.6870 F200.00 
G01 X-35.7255 Y14.8478 
G01 X-35.6628 Y14.9993 
G01 X-35.5716 Y15.1357 
G01 X-35.4557 Y15.2517 
G01 X-35.3193 Y15.3428 
G01 X-35.1678 Y15.4055 
G01 X-35.0070 Y15.4375 
G01 X-34.8430 Y15.4375 
G01 X-34.6822 Y15.4055 
G01 X-34.5307 Y15.3428 
G01 X-34.3943 Y15.2517 
G01 X-34.2783 Y15.1357 
G01 X-34.1872 Y14.9993 
G01 X-34.1245 Y14.8478 
G01 X-34.0925 Y14.6870 
G01 X-34.0925 Y14.5230 
G01 X-34.1245 Y14.3622 
G01 X-34.1687 Y14.2554 
G01 X-34.1687 Y11.3555 
G01 X-34.1978 Y11.2094 
G01 X-34.2548 Y11.0717 
G01 X-34.3375 Y10.9479 
G01 X-36.8775 Y8.4079 
G01 X-36.9829 Y8.3025 
G01 X-37.1068 Y8.2198 
G01 X-37.2444 Y8.1628 
G01 X-37.3905 Y8.1337 
G01 X-45.1595 Y8.1337 
G01 X-45.3056 Y8.1628 
G01 X-45.4432 Y8.2198 
G01 X-45.5671 Y8.3025 
G01 X-47.4721 Y10.2075 
G01 X-47.5775 Y10.3129 
G01 X-47.6602 Y10.4367 
G01 X-47.7172 Y10.5744 
G01 X-47.7463 Y10.7205 
G01 X-47.7463 Y11.1998 
G01 X-47.7550 Y11.2086 
G01 X-47.8628 Y11.3699 
G01 X-47.9371 Y11.5491 
G01 X-47.9749 Y11.7394 
G01 X-47.9749 Y13.6606 
G01 X-47.9371 Y13.8509 
G01 X-47.8628 Y14.0301 
G01 X-47.7550 Y14.1914 
G01 X-47.6178 Y14.3286 
G01 X-47.4565 Y14.4364 
G01 X-47.2773 Y14.5107 
G01 X-47.0870 Y14.5485 
G01 X-46.8930 Y14.5485 
G01 X-46.7027 Y14.5107 
G01 X-46.5235 Y14.4364 
G01 X-46.3622 Y14.3286 
G01 X-46.2250 Y14.1914 
G01 X-46.1172 Y14.0301 
G01 X-46.0429 Y13.8509 
G01 X-46.0051 Y13.6606 
G01 X-46.0051 Y11.7394 
G01 X-46.0429 Y11.5491 
G01 X-46.1172 Y11.3699 
G01 X-46.2250 Y11.2086 
G01 X-46.2337 Y11.1998 
G01 X-46.2337 Y11.1083 
G01 X-44.7717 Y9.6463 
G01 X-37.7783 Y9.6463 
G01 X-35.6813 Y11.7433 
G01 X-35.6813 Y14.2554 
G01 X-35.7255 Y14.3622 
G01 X-35.7575 Y14.5230 
G00 Z5.0000 
G00 X-73.3749 Y7.2120 
G01 Z-0.1500 F250.00 
G01 X-73.3749 Y8.0280 F200.00 
G01 X-72.7980 Y8.6049 
G01 X-71.9820 Y8.6049 
G01 X-71.4051 Y8.0280 
G01 X-71.4051 Y7.2120 
G01 X-71.8623 Y6.7548 
G01 X-71.8623 Y5.2986 
G01 X-69.6314 Y3.0677 
G01 X-9.1086 Y3.0677 
G01 X-4.3377 Y7.8386 
G01 X-4.3377 Y9.9414 
G01 X-4.6636 Y10.2673 
G01 X-4.9735 Y10.2673 
G01 X-4.9799 Y10.2584 
G01 X-5.1150 Y10.1234 
G01 X-5.2695 Y10.0111 
G01 X-5.4397 Y9.9244 
G01 X-5.6213 Y9.8654 
G01 X-5.8100 Y9.8355 
G01 X-6.0010 Y9.8355 
G01 X-6.1897 Y9.8654 
G01 X-6.3713 Y9.9244 
G01 X-6.5415 Y10.0111 
G01 X-6.6960 Y10.1234 
G01 X-6.8311 Y10.2584 
G01 X-6.9434 Y10.4130 
G01 X-7.0301 Y10.5832 
G01 X-7.0891 Y10.7648 
G01 X-7.1190 Y10.9535 
G01 X-7.1190 Y11.1445 
G01 X-7.0891 Y11.3332 
G01 X-7.0301 Y11.5148 
G01 X-6.9434 Y11.6850 
G01 X-6.8311 Y11.8395 
G01 X-6.6960 Y11.9746 
G01 X-6.5415 Y12.0869 
G01 X-6.3713 Y12.1736 
G01 X-6.1897 Y12.2326 
G01 X-6.0010 Y12.2625 
G01 X-5.8100 Y12.2625 
G01 X-5.6213 Y12.2326 
G01 X-5.4397 Y12.1736 
G01 X-5.2695 Y12.0869 
G01 X-5.1150 Y11.9746 
G01 X-4.9799 Y11.8395 
G01 X-4.8676 Y11.6850 
G01 X-4.7809 Y11.5148 
G01 X-4.7686 Y11.4771 
G01 X-4.5040 Y11.3227 
G01 X-4.3755 Y11.3227 
G01 X-4.2413 Y11.2867 
G01 X-4.1210 Y11.2173 
G01 X-4.0227 Y11.1190 
G01 X-3.3877 Y10.4840 
G01 X-3.3183 Y10.3637 
G01 X-3.2823 Y10.2295 
G01 X-3.2823 Y7.5505 
G01 X-3.3183 Y7.4163 
G01 X-3.3877 Y7.2960 
G01 X-3.4860 Y7.1977 
G01 X-8.5660 Y2.1177 
G01 X-8.6863 Y2.0483 
G01 X-8.8205 Y2.0123 
G01 X-69.9195 Y2.0123 
G01 X-70.0537 Y2.0483 
G01 X-70.1740 Y2.1177 
G01 X-70.2723 Y2.2160 
G01 X-72.8123 Y4.7560 
G01 X-72.8817 Y4.8763 
G01 X-72.9177 Y5.0105 
G01 X-72.9177 Y6.7548 
G01 X-73.3749 Y7.2120 
G00 Z5.0000 
G00 X-65.7549 Y11.7394 
G01 Z-0.1500 F250.00 
G01 X-65.7549 Y13.6606 F200.00 
G01 X-65.7171 Y13.8509 
G01 X-65.6428 Y14.0301 
G01 X-65.5350 Y14.1914 
G01 X-65.3978 Y14.3286 
G01 X-65.2365 Y14.4364 
G01 X-65.0573 Y14.5107 
G01 X-64.8670 Y14.5485 
G01 X-64.6730 Y14.5485 
G01 X-64.4827 Y14.5107 
G01 X-64.3035 Y14.4364 
G01 X-64.1422 Y14.3286 
G01 X-64.0050 Y14.1914 
G01 X-63.8972 Y14.0301 
G01 X-63.8229 Y13.8509 
G01 X-63.7851 Y13.6606 
G01 X-63.7851 Y11.7394 
G01 X-63.8229 Y11.5491 
G01 X-63.8972 Y11.3699 
G01 X-64.0050 Y11.2086 
G01 X-64.0137 Y11.1998 
G01 X-64.0137 Y10.4733 
G01 X-62.7137 Y9.1733 
G01 X-62.6443 Y9.2021 
G01 X-62.4540 Y9.2399 
G01 X-62.2600 Y9.2399 
G01 X-62.0697 Y9.2021 
G01 X-61.8905 Y9.1278 
G01 X-61.7292 Y9.0200 
G01 X-61.7204 Y9.0113 
G01 X-57.7866 Y9.0113 
G01 X-57.5580 Y9.2399 
G01 X-56.7420 Y9.2399 
G01 X-56.1651 Y8.6630 
G01 X-56.1651 Y7.8470 
G01 X-56.7420 Y7.2701 
G01 X-57.5580 Y7.2701 
G01 X-57.7866 Y7.4987 
G01 X-61.7204 Y7.4987 
G01 X-61.7292 Y7.4900 
G01 X-61.8905 Y7.3822 
G01 X-62.0697 Y7.3079 
G01 X-62.2600 Y7.2701 
G01 X-62.4540 Y7.2701 
G01 X-62.6443 Y7.3079 
G01 X-62.8235 Y7.3822 
G01 X-62.9848 Y7.4900 
G01 X-63.0070 Y7.5121 
G01 X-63.0856 Y7.5278 
G01 X-63.2232 Y7.5848 
G01 X-63.3471 Y7.6675 
G01 X-65.2521 Y9.5725 
G01 X-65.3575 Y9.6779 
G01 X-65.4402 Y9.8018 
G01 X-65.4972 Y9.9394 
G01 X-65.5263 Y10.0855 
G01 X-65.5263 Y11.1998 
G01 X-65.5350 Y11.2086 
G01 X-65.6428 Y11.3699 
G01 X-65.7171 Y11.5491 
G01 X-65.7549 Y11.7394 
G00 Z5.0000 
G00 X-68.2949 Y11.7394 
G01 Z-0.1500 F250.00 
G01 X-68.2949 Y13.6606 F200.00 
G01 X-68.2571 Y13.8509 
G01 X-68.1828 Y14.0301 
G01 X-68.0750 Y14.1914 
G01 X-67.9378 Y14.3286 
G01 X-67.7765 Y14.4364 
G01 X-67.5973 Y14.5107 
G01 X-67.4070 Y14.5485 
G01 X-67.2130 Y14.5485 
G01 X-67.0227 Y14.5107 
G01 X-66.8435 Y14.4364 
G01 X-66.6822 Y14.3286 
G01 X-66.5450 Y14.1914 
G01 X-66.4372 Y14.0301 
G01 X-66.3629 Y13.8509 
G01 X-66.3251 Y13.6606 
G01 X-66.3251 Y11.7394 
G01 X-66.3629 Y11.5491 
G01 X-66.4372 Y11.3699 
G01 X-66.5450 Y11.2086 
G01 X-66.5537 Y11.1998 
G01 X-66.5537 Y9.0186 
G01 X-66.4180 Y8.8828 
G01 X-66.3102 Y8.7215 
G01 X-66.2359 Y8.5423 
G01 X-66.1981 Y8.3520 
G01 X-66.1981 Y8.2127 
G01 X-64.4567 Y6.4713 
G01 X-57.7866 Y6.4713 
G01 X-57.5580 Y6.6999 
G01 X-56.7420 Y6.6999 
G01 X-56.1651 Y6.1230 
G01 X-56.1651 Y5.3070 
G01 X-56.7420 Y4.7301 
G01 X-57.5580 Y4.7301 
G01 X-57.7866 Y4.9587 
G01 X-64.8445 Y4.9587 
G01 X-64.9906 Y4.9878 
G01 X-65.1282 Y5.0448 
G01 X-65.2521 Y5.1275 
G01 X-67.4231 Y7.2986 
G01 X-67.4703 Y7.3079 
G01 X-67.6495 Y7.3822 
G01 X-67.8108 Y7.4900 
G01 X-67.9480 Y7.6272 
G01 X-68.0558 Y7.7885 
G01 X-68.1301 Y7.9677 
G01 X-68.1679 Y8.1580 
G01 X-68.1679 Y8.3520 
G01 X-68.1301 Y8.5423 
G01 X-68.0663 Y8.6962 
G01 X-68.0663 Y11.1998 
G01 X-68.0750 Y11.2086 
G01 X-68.1828 Y11.3699 
G01 X-68.2571 Y11.5491 
G01 X-68.2949 Y11.7394 
G00 Z5.0000 
G00 X-73.3749 Y11.7394 
G01 Z-0.1500 F250.00 
G01 X-73.3749 Y13.6606 F200.00 
G01 X-73.3371 Y13.8509 
G01 X-73.2628 Y14.0301 
G01 X-73.1550 Y14.1914 
G01 X-73.0178 Y14.3286 
G01 X-72.8565 Y14.4364 
G01 X-72.6773 Y14.5107 
G01 X-72.4870 Y14.5485 
G01 X-72.2930 Y14.5485 
G01 X-72.1027 Y14.5107 
G01 X-71.9235 Y14.4364 
G01 X-71.7622 Y14.3286 
G01 X-71.6250 Y14.1914 
G01 X-71.5172 Y14.0301 
G01 X-71.4429 Y13.8509 
G01 X-71.4051 Y13.6606 
G01 X-71.4051 Y11.7394 
G01 X-71.4429 Y11.5491 
G01 X-71.5172 Y11.3699 
G01 X-71.6250 Y11.2086 
G01 X-71.6337 Y11.1998 
G01 X-71.6337 Y10.7966 
G01 X-71.4051 Y10.5680 
G01 X-71.4051 Y9.7520 
G01 X-71.9820 Y9.1751 
G01 X-72.7980 Y9.1751 
G01 X-73.3749 Y9.7520 
G01 X-73.3749 Y10.5680 
G01 X-73.1463 Y10.7966 
G01 X-73.1463 Y11.1998 
G01 X-73.1550 Y11.2086 
G01 X-73.2628 Y11.3699 
G01 X-73.3371 Y11.5491 
G01 X-73.3749 Y11.7394 
G00 Z5.0000 
G00 X-75.9149 Y11.7394 
G01 Z-0.1500 F250.00 
G01 X-75.9149 Y13.6606 F200.00 
G01 X-75.8771 Y13.8509 
G01 X-75.8028 Y14.0301 
G01 X-75.6950 Y14.1914 
G01 X-75.5578 Y14.3286 
G01 X-75.3965 Y14.4364 
G01 X-75.2173 Y14.5107 
G01 X-75.0270 Y14.5485 
G01 X-74.8330 Y14.5485 
G01 X-74.6427 Y14.5107 
G01 X-74.4635 Y14.4364 
G01 X-74.3022 Y14.3286 
G01 X-74.1650 Y14.1914 
G01 X-74.0572 Y14.0301 
G01 X-73.9829 Y13.8509 
G01 X-73.9451 Y13.6606 
G01 X-73.9451 Y11.7394 
G01 X-73.9829 Y11.5491 
G01 X-74.0572 Y11.3699 
G01 X-74.1650 Y11.2086 
G01 X-74.1737 Y11.1998 
G01 X-74.1737 Y10.7966 
G01 X-73.9451 Y10.5680 
G01 X-73.9451 Y9.7520 
G01 X-74.5220 Y9.1751 
G01 X-75.3380 Y9.1751 
G01 X-75.9149 Y9.7520 
G01 X-75.9149 Y10.5680 
G01 X-75.6863 Y10.7966 
G01 X-75.6863 Y11.1998 
G01 X-75.6950 Y11.2086 
G01 X-75.8028 Y11.3699 
G01 X-75.8771 Y11.5491 
G01 X-75.9149 Y11.7394 
G00 Z5.0000 
G00 X-75.9149 Y7.2120 
G01 Z-0.1500 F250.00 
G01 X-75.9149 Y8.0280 F200.00 
G01 X-75.3380 Y8.6049 
G01 X-74.5220 Y8.6049 
G01 X-73.9451 Y8.0280 
G01 X-73.9451 Y7.2120 
G01 X-74.4023 Y6.7548 
G01 X-74.4023 Y5.2986 
G01 X-70.9014 Y1.7977 
G01 X-8.4736 Y1.7977 
G01 X-3.0677 Y7.2036 
G01 X-3.0677 Y19.5994 
G01 X-3.5554 Y21.0623 
G01 X-5.0980 Y21.0623 
G01 X-5.1150 Y21.0454 
G01 X-5.2695 Y20.9331 
G01 X-5.4397 Y20.8464 
G01 X-5.6213 Y20.7874 
G01 X-5.8100 Y20.7575 
G01 X-6.0010 Y20.7575 
G01 X-6.1897 Y20.7874 
G01 X-6.3713 Y20.8464 
G01 X-6.5415 Y20.9331 
G01 X-6.6960 Y21.0454 
G01 X-6.8311 Y21.1805 
G01 X-6.9434 Y21.3350 
G01 X-7.0301 Y21.5052 
G01 X-7.0891 Y21.6868 
G01 X-7.1190 Y21.8755 
G01 X-7.1190 Y22.0665 
G01 X-7.0891 Y22.2552 
G01 X-7.0301 Y22.4368 
G01 X-6.9434 Y22.6070 
G01 X-6.8311 Y22.7615 
G01 X-6.6960 Y22.8966 
G01 X-6.5415 Y23.0089 
G01 X-6.3713 Y23.0956 
G01 X-6.1897 Y23.1546 
G01 X-6.0010 Y23.1845 
G01 X-5.8100 Y23.1845 
G01 X-5.6213 Y23.1546 
G01 X-5.4397 Y23.0956 
G01 X-5.2695 Y23.0089 
G01 X-5.1150 Y22.8966 
G01 X-4.9799 Y22.7615 
G01 X-4.8676 Y22.6070 
G01 X-4.7809 Y22.4368 
G01 X-4.7219 Y22.2552 
G01 X-4.7001 Y22.1177 
G01 X-3.1908 Y22.1177 
G01 X-3.1373 Y22.1209 
G01 X-3.1216 Y22.1177 
G01 X-3.1055 Y22.1177 
G01 X-3.0537 Y22.1038 
G01 X-3.0011 Y22.0931 
G01 X-2.9868 Y22.0859 
G01 X-2.9713 Y22.0817 
G01 X-2.9249 Y22.0549 
G01 X-2.8769 Y22.0309 
G01 X-2.8649 Y22.0203 
G01 X-2.8510 Y22.0123 
G01 X-2.8131 Y21.9743 
G01 X-2.7729 Y21.9387 
G01 X-2.7641 Y21.9254 
G01 X-2.7527 Y21.9140 
G01 X-2.7259 Y21.8676 
G01 X-2.6963 Y21.8228 
G01 X-2.6913 Y21.8076 
G01 X-2.6833 Y21.7937 
G01 X-2.6694 Y21.7419 
G01 X-2.0563 Y19.9026 
G01 X-2.0483 Y19.8887 
G01 X-2.0344 Y19.8369 
G01 X-2.0174 Y19.7860 
G01 X-2.0164 Y19.7700 
G01 X-2.0123 Y19.7545 
G01 X-2.0123 Y19.7008 
G01 X-2.0091 Y19.6473 
G01 X-2.0123 Y19.6316 
G01 X-2.0123 Y6.9155 
G01 X-2.0483 Y6.7813 
G01 X-2.1177 Y6.6610 
G01 X-2.2160 Y6.5627 
G01 X-7.9310 Y0.8477 
G01 X-8.0513 Y0.7783 
G01 X-8.1855 Y0.7423 
G01 X-71.1895 Y0.7423 
G01 X-71.3237 Y0.7783 
G01 X-71.4440 Y0.8477 
G01 X-71.5423 Y0.9460 
G01 X-75.3523 Y4.7560 
G01 X-75.4217 Y4.8763 
G01 X-75.4577 Y5.0105 
G01 X-75.4577 Y6.7548 
G01 X-75.9149 Y7.2120 
G00 Z5.0000 
G00 X-27.8672 Y35.4489 
G01 Z-0.1500 F250.00 
G01 X-27.7463 Y35.3280 F200.00 
G01 X-27.6457 Y35.1897 
G01 X-27.5681 Y35.0373 
G01 X-27.5152 Y34.8746 
G01 X-27.4885 Y34.7057 
G01 X-27.4885 Y32.6043 
G01 X-27.5152 Y32.4354 
G01 X-27.5681 Y32.2727 
G01 X-27.6457 Y32.1203 
G01 X-27.7463 Y31.9820 
G01 X-27.8672 Y31.8611 
G01 X-28.0055 Y31.7605 
G01 X-28.1579 Y31.6829 
G01 X-28.2816 Y31.6427 
G01 X-27.8539 Y31.6427 
G01 X-27.5150 Y31.9816 
G01 X-27.3368 Y32.4119 
G01 X-27.3364 Y32.4168 
G01 X-27.3276 Y32.4341 
G01 X-27.3202 Y32.4520 
G01 X-27.3167 Y32.4554 
G01 X-27.3145 Y32.4598 
G01 X-27.2998 Y32.4724 
G01 X-27.2861 Y32.4861 
G01 X-27.2815 Y32.4880 
G01 X-27.2778 Y32.4912 
G01 X-27.2594 Y32.4971 
G01 X-27.2415 Y32.5046 
G01 X-27.2366 Y32.5046 
G01 X-27.2319 Y32.5061 
G01 X-27.2126 Y32.5046 
G01 X-27.1932 Y32.5046 
G01 X-27.1887 Y32.5027 
G01 X-27.1838 Y32.5023 
G01 X-27.1665 Y32.4935 
G01 X-27.1486 Y32.4861 
G01 X-27.1452 Y32.4826 
G01 X-27.1408 Y32.4804 
G01 X-27.1282 Y32.4657 
G01 X-27.1145 Y32.4520 
G01 X-27.1126 Y32.4474 
G01 X-27.1094 Y32.4437 
G01 X-27.1035 Y32.4253 
G01 X-27.0960 Y32.4074 
G01 X-27.0960 Y32.4025 
G01 X-27.0525 Y32.2684 
G01 X-27.0453 Y32.2543 
G01 X-27.0453 Y32.2832 
G01 X-27.0948 Y32.4354 
G01 X-27.1215 Y32.6043 
G01 X-27.1215 Y34.7057 
G01 X-27.0948 Y34.8746 
G01 X-27.0419 Y35.0373 
G01 X-26.9643 Y35.1897 
G01 X-26.8637 Y35.3280 
G01 X-26.7428 Y35.4489 
G01 X-26.6045 Y35.5495 
G01 X-26.5726 Y35.5657 
G01 X-27.9457 Y35.5657 
G01 X-27.9457 Y35.5060 
G01 X-27.8672 Y35.4489 
G00 Z5.0000 
G00 X-30.5455 Y35.5495 
G01 Z-0.1500 F250.00 
G01 X-30.4072 Y35.4489 F200.00 
G01 X-30.2863 Y35.3280 
G01 X-30.1857 Y35.1897 
G01 X-30.1081 Y35.0373 
G01 X-30.0552 Y34.8746 
G01 X-30.0285 Y34.7057 
G01 X-30.0285 Y32.6043 
G01 X-30.0552 Y32.4354 
G01 X-30.1081 Y32.2727 
G01 X-30.1857 Y32.1203 
G01 X-30.2863 Y31.9820 
G01 X-30.4072 Y31.8611 
G01 X-30.5455 Y31.7605 
G01 X-30.6979 Y31.6829 
G01 X-30.8216 Y31.6427 
G01 X-30.3939 Y31.6427 
G01 X-30.0550 Y31.9816 
G01 X-29.9663 Y32.1958 
G01 X-29.9483 Y32.2392 
G01 X-29.9137 Y32.2745 
G01 X-29.8881 Y32.2851 
G01 X-29.8691 Y32.2930 
G01 X-29.8209 Y32.2930 
G01 X-29.7776 Y32.2750 
G01 X-29.7422 Y32.2404 
G01 X-29.7270 Y32.2037 
G01 X-29.7237 Y32.1958 
G01 X-29.6350 Y31.9816 
G01 X-29.2961 Y31.6427 
G01 X-28.8684 Y31.6427 
G01 X-28.9921 Y31.6829 
G01 X-29.1445 Y31.7605 
G01 X-29.2828 Y31.8611 
G01 X-29.4037 Y31.9820 
G01 X-29.5043 Y32.1203 
G01 X-29.5819 Y32.2727 
G01 X-29.6348 Y32.4354 
G01 X-29.6615 Y32.6043 
G01 X-29.6615 Y34.7057 
G01 X-29.6348 Y34.8746 
G01 X-29.5819 Y35.0373 
G01 X-29.5043 Y35.1897 
G01 X-29.4037 Y35.3280 
G01 X-29.2828 Y35.4489 
G01 X-29.2043 Y35.5060 
G01 X-29.2043 Y35.5657 
G01 X-30.5774 Y35.5657 
G01 X-30.5455 Y35.5495 
G00 Z5.0000 
G00 X-52.8263 Y33.6309 
G01 Z-0.1500 F250.00 
G01 X-52.8263 Y35.0323 F200.00 
G01 X-83.3619 Y35.0323 
G01 X-83.4171 Y34.9240 
G01 X-83.5294 Y34.7694 
G01 X-83.6645 Y34.6344 
G01 X-83.8190 Y34.5221 
G01 X-83.9892 Y34.4354 
G01 X-84.1708 Y34.3764 
G01 X-84.3595 Y34.3465 
G01 X-87.0905 Y34.3465 
G01 X-87.2792 Y34.3764 
G01 X-87.4608 Y34.4354 
G01 X-87.6310 Y34.5221 
G01 X-87.7855 Y34.6344 
G01 X-87.9206 Y34.7694 
G01 X-88.0329 Y34.9240 
G01 X-88.1196 Y35.0942 
G01 X-88.1786 Y35.2758 
G01 X-88.2085 Y35.4645 
G01 X-88.2085 Y35.6555 
G01 X-88.1786 Y35.8442 
G01 X-88.1196 Y36.0258 
G01 X-88.0329 Y36.1960 
G01 X-87.9206 Y36.3505 
G01 X-87.7855 Y36.4856 
G01 X-87.6310 Y36.5979 
G01 X-87.4608 Y36.6846 
G01 X-87.2792 Y36.7436 
G01 X-87.0905 Y36.7735 
G01 X-84.7028 Y36.7735 
G01 X-84.6386 Y36.8001 
G01 X-84.5170 Y36.8243 
G01 X-83.3446 Y36.8243 
G01 X-83.3348 Y36.8390 
G01 X-83.1940 Y36.9798 
G01 X-83.0286 Y37.0903 
G01 X-83.0029 Y37.1009 
G01 X-82.9723 Y37.1540 
G01 X-82.8740 Y37.2523 
G01 X-82.7537 Y37.3217 
G01 X-82.6195 Y37.3577 
G01 X-24.6955 Y37.3577 
G01 X-24.5613 Y37.3217 
G01 X-24.4410 Y37.2523 
G01 X-24.3427 Y37.1540 
G01 X-23.9994 Y36.8107 
G01 X-23.9464 Y36.8001 
G01 X-23.8319 Y36.7527 
G01 X-23.7288 Y36.6838 
G01 X-23.6412 Y36.5962 
G01 X-15.6143 Y28.5693 
G01 X-8.0461 Y28.5693 
G01 X-8.0461 Y29.0011 
G00 Z5.0000 
G00 X-4.3394 Y29.4651
G01 Z-0.1500 F250.00  
G01 X-4.2769 Y29.4290 F200.00 
G01 X-4.2260 Y29.3781 
G01 X-4.1899 Y29.3156 
G01 X-4.1713 Y29.2460 
G01 X-4.1713 Y27.2690 
G01 X-4.1899 Y27.1994 
G01 X-4.2260 Y27.1369 
G01 X-4.2769 Y27.0860 
G01 X-4.3394 Y27.0499 
G01 X-4.4090 Y27.0313 
G01 X-8.2910 Y27.0313 
G01 X-8.3606 Y27.0499 
G01 X-8.4231 Y27.0860 
G01 X-8.4740 Y27.1369 
G01 X-8.5101 Y27.1994 
G01 X-8.5287 Y27.2690 
G01 X-8.5287 Y27.3107 
G01 X-15.9370 Y27.3107 
G01 X-16.0586 Y27.3349 
G01 X-16.1731 Y27.3823 
G01 X-16.2762 Y27.4512 
G01 X-24.3907 Y35.5657 
G01 X-25.4974 Y35.5657 
G01 X-25.4655 Y35.5495 
G01 X-25.3272 Y35.4489 
G01 X-25.2063 Y35.3280 
G01 X-25.1352 Y35.2302 
G01 X-25.1218 Y35.2358 
G01 X-25.1235 Y35.2430 
G01 X-25.1291 Y35.2565 
G01 X-25.1291 Y35.2662 
G01 X-25.1314 Y35.2757 
G01 X-25.1291 Y35.2901 
G01 X-25.1291 Y35.3047 
G01 X-25.1253 Y35.3137 
G01 X-25.1238 Y35.3234 
G01 X-25.1162 Y35.3358 
G01 X-25.1106 Y35.3493 
G01 X-25.1037 Y35.3562 
G01 X-25.0986 Y35.3645 
G01 X-25.0868 Y35.3731 
G01 X-25.0765 Y35.3834 
G01 X-25.0675 Y35.3872 
G01 X-25.0596 Y35.3929 
G01 X-25.0454 Y35.3963 
G01 X-25.0319 Y35.4019 
G01 X-25.0221 Y35.4019 
G01 X-25.0126 Y35.4042 
G01 X-24.9982 Y35.4019 
G01 X-24.4846 Y35.4019 
G01 X-24.4400 Y35.3834 
G01 X-24.4059 Y35.3493 
G01 X-24.1524 Y35.0957 
G01 X-24.1210 Y35.0748 
G01 X-23.9802 Y34.9340 
G01 X-23.9593 Y34.9026 
G01 X-16.3243 Y27.2676 
G01 X-16.0328 Y27.1469 
G01 X-8.7417 Y27.1469 
G01 X-8.6984 Y27.1289 
G01 X-8.6630 Y27.0943 
G01 X-8.4362 Y26.8675 
G01 X-4.2638 Y26.8675 
G01 X-4.0075 Y27.1238 
G01 X-4.0075 Y29.3912 
G01 X-4.2638 Y29.6475 
G01 X-4.3077 Y29.6475 
G01 X-4.3523 Y29.6660 
G01 X-4.3864 Y29.7001 
G01 X-4.4049 Y29.7447 
G01 X-4.4049 Y31.4481 
G01 X-4.5047 Y31.5479 
G01 X-4.5359 Y31.5791 
G01 X-4.5388 Y31.5820 
G01 X-4.5463 Y31.6001 
G01 X-4.5573 Y31.6266 
G01 X-4.5573 Y31.6587 
G01 X-4.5687 Y31.6587 
G01 X-4.5687 Y31.5559 
G01 X-4.5872 Y31.5113 
G01 X-4.6213 Y31.4772 
G01 X-4.6659 Y31.4587 
G01 X-5.3353 Y31.4587 
G01 X-5.3473 Y31.4555 
G01 X-6.3677 Y31.4555 
G01 X-6.3751 Y31.4481 
G01 X-6.3751 Y31.0147 
G01 X-6.3936 Y30.9701 
G01 X-6.4277 Y30.9360 
G01 X-6.4723 Y30.9175 
G01 X-6.7058 Y30.9175 
G01 X-6.7504 Y30.9360 
G01 X-7.4093 Y31.5949 
G01 X-7.4327 Y31.6183 
G01 X-7.4434 Y31.6290 
G01 X-7.4619 Y31.6736 
G01 X-7.4619 Y31.9078 
G01 X-7.5826 Y32.1993 
G01 X-7.8057 Y32.4224 
G01 X-8.0972 Y32.5431 
G01 X-14.2504 Y32.5431 
G01 X-14.2950 Y32.5616 
G01 X-14.3291 Y32.5957 
G01 X-22.1268 Y40.3935 
G01 X-22.1453 Y40.4381 
G01 X-22.1453 Y40.4863 
G01 X-22.1268 Y40.5309 
G01 X-22.0927 Y40.5650 
G01 X-22.0481 Y40.5835 
G01 X-19.6858 Y40.5835 
G01 X-19.6412 Y40.5650 
G01 X-19.6071 Y40.5309 
G01 X-16.3962 Y37.3200 
G01 X-16.0580 Y37.1799 
G01 X-10.0944 Y37.1799 
G01 X-10.0511 Y37.1619 
G01 X-10.0157 Y37.1273 
G01 X-9.9284 Y37.0400 
G01 X-9.4689 Y36.8497 
G01 X-7.0411 Y36.8497 
G01 X-6.5816 Y37.0400 
G01 X-6.2298 Y37.3918 
G01 X-6.0395 Y37.8513 
G01 X-6.0395 Y38.3487 
G01 X-6.2298 Y38.8082 
G01 X-6.5816 Y39.1600 
G01 X-6.7958 Y39.2487 
G01 X-6.8022 Y39.2513 
G01 X-6.8404 Y39.2672 
G01 X-6.8745 Y39.3013 
G01 X-6.8929 Y39.3459 
G01 X-6.8929 Y39.3941 
G01 X-6.8855 Y39.4121 
G01 X-6.8745 Y39.4387 
G01 X-6.8404 Y39.4728 
G01 X-6.7958 Y39.4913 
G01 X-6.5816 Y39.5800 
G01 X-6.2298 Y39.9318 
G01 X-6.0395 Y40.3913 
G01 X-6.0395 Y40.8887 
G01 X-6.2298 Y41.3482 
G01 X-6.5816 Y41.7000 
G01 X-7.0119 Y41.8782 
G01 X-7.0168 Y41.8786 
G01 X-7.0341 Y41.8874 
G01 X-7.0520 Y41.8948 
G01 X-7.0554 Y41.8983 
G01 X-7.0598 Y41.9005 
G01 X-7.0724 Y41.9152 
G01 X-7.0861 Y41.9289 
G01 X-7.0880 Y41.9335 
G01 X-7.0912 Y41.9372 
G01 X-7.0971 Y41.9556 
G01 X-7.1046 Y41.9735 
G01 X-7.1046 Y41.9784 
G01 X-7.1061 Y41.9831 
G01 X-7.1046 Y42.0024 
G01 X-7.1046 Y42.0218 
G01 X-7.1027 Y42.0263 
G01 X-7.1023 Y42.0312 
G01 X-7.0935 Y42.0485 
G01 X-7.0861 Y42.0664 
G01 X-7.0826 Y42.0698 
G01 X-7.0804 Y42.0742 
G01 X-7.0657 Y42.0868 
G01 X-7.0520 Y42.1005 
G01 X-7.0474 Y42.1024 
G01 X-7.0437 Y42.1056 
G01 X-7.0253 Y42.1115 
G01 X-7.0074 Y42.1190 
G01 X-7.0025 Y42.1190 
G01 X-6.8684 Y42.1625 
G01 X-6.7144 Y42.2410 
G01 X-6.5746 Y42.3426 
G01 X-6.4524 Y42.4648 
G01 X-6.3508 Y42.6046 
G01 X-6.2723 Y42.7586 
G01 X-6.2189 Y42.9229 
G01 X-6.1974 Y43.0587 
G01 X-6.2090 Y43.0587 
G01 X-6.2300 Y42.9256 
G01 X-6.2829 Y42.7629 
G01 X-6.3605 Y42.6105 
G01 X-6.4611 Y42.4722 
G01 X-6.5820 Y42.3513 
G01 X-6.7203 Y42.2507 
G01 X-6.8727 Y42.1731 
G01 X-7.0354 Y42.1202 
G01 X-7.2043 Y42.0935 
G01 X-9.3057 Y42.0935 
G01 X-9.4746 Y42.1202 
G01 X-9.6373 Y42.1731 
G01 X-9.7897 Y42.2507 
G01 X-9.9280 Y42.3513 
G01 X-10.0489 Y42.4722 
G01 X-10.1495 Y42.6105 
G01 X-10.2271 Y42.7629 
G01 X-10.2572 Y42.8555 
G01 X-10.2692 Y42.8555 
G01 X-10.2377 Y42.7586 
G01 X-10.1592 Y42.6046 
G01 X-10.0576 Y42.4648 
G01 X-9.9354 Y42.3426 
G01 X-9.7956 Y42.2410 
G01 X-9.6416 Y42.1625 
G01 X-9.5075 Y42.1190 
G01 X-9.5026 Y42.1190 
G01 X-9.4847 Y42.1115 
G01 X-9.4663 Y42.1056 
G01 X-9.4626 Y42.1024 
G01 X-9.4580 Y42.1005 
G01 X-9.4443 Y42.0868 
G01 X-9.4296 Y42.0742 
G01 X-9.4274 Y42.0698 
G01 X-9.4239 Y42.0664 
G01 X-9.4165 Y42.0485 
G01 X-9.4077 Y42.0312 
G01 X-9.4073 Y42.0263 
G01 X-9.4054 Y42.0218 
G01 X-9.4054 Y42.0024 
G01 X-9.4039 Y41.9831 
G01 X-9.4054 Y41.9784 
G01 X-9.4054 Y41.9735 
G01 X-9.4129 Y41.9556 
G01 X-9.4188 Y41.9372 
G01 X-9.4220 Y41.9335 
G01 X-9.4239 Y41.9289 
G01 X-9.4376 Y41.9152 
G01 X-9.4502 Y41.9005 
G01 X-9.4546 Y41.8983 
G01 X-9.4580 Y41.8948 
G01 X-9.4759 Y41.8874 
G01 X-9.4932 Y41.8786 
G01 X-9.4981 Y41.8782 
G01 X-9.9284 Y41.7000 
G01 X-10.2802 Y41.3482 
G01 X-10.4705 Y40.8887 
G01 X-10.4705 Y40.3913 
G01 X-10.2802 Y39.9318 
G01 X-9.9284 Y39.5800 
G01 X-9.7142 Y39.4913 
G01 X-9.6708 Y39.4733 
G01 X-9.6355 Y39.4387 
G01 X-9.6249 Y39.4131 
G01 X-9.6170 Y39.3941 
G01 X-9.6170 Y39.3459 
G01 X-9.6350 Y39.3026 
G01 X-9.6696 Y39.2672 
G01 X-9.7063 Y39.2520 
G01 X-9.7142 Y39.2487 
G01 X-9.9284 Y39.1600 
G01 X-10.0157 Y39.0727 
G01 X-10.0474 Y39.0410 
G01 X-10.0944 Y39.0201 
G01 X-15.4678 Y39.0201 
G01 X-15.5123 Y39.0386 
G01 X-15.5465 Y39.0727 
G01 X-18.5288 Y42.0550 
G01 X-18.8670 Y42.1951 
G01 X-19.2330 Y42.1951 
G01 X-19.5712 Y42.0550 
G01 X-19.6412 Y41.9850 
G01 X-19.6858 Y41.9665 
G01 X-90.3075 Y41.9665 
G01 X-90.5617 Y41.8612 
G01 X-91.8317 Y40.5912 
G01 X-92.0262 Y40.3967 
G01 X-92.1315 Y40.1425 
G01 X-92.1315 Y11.2924 
G01 X-92.0262 Y11.0383 
G01 X-91.3990 Y10.4110 
G01 X-91.3756 Y10.3876 
G01 X-91.3648 Y10.3769 
G01 X-91.3464 Y10.3323 
G01 X-91.3464 Y10.2841 
G01 X-91.5473 Y9.7990 
G01 X-91.5473 Y9.2510 
G01 X-91.3376 Y8.7448 
G01 X-90.9502 Y8.3574 
G01 X-90.4440 Y8.1477 
G01 X-90.1937 Y8.1477 
G01 X-90.1491 Y8.1292 
G01 X-90.1150 Y8.0951 
G01 X-90.0965 Y8.0505 
G01 X-90.0965 Y8.0023 
G01 X-90.1150 Y7.9577 
G01 X-90.1491 Y7.9235 
G01 X-90.5600 Y7.5127 
G01 X-90.5438 Y7.5127 
G01 X-89.9850 Y8.0715 
G01 X-89.0850 Y8.0715 
G01 X-88.4485 Y7.4350 
G01 X-88.4485 Y6.5350 
G01 X-89.0073 Y5.9762 
G01 X-89.0073 Y5.9600 
G01 X-88.4496 Y6.5177 
G01 X-88.4051 Y6.5361 
G01 X-88.3568 Y6.5361 
G01 X-88.3135 Y6.5182 
G01 X-88.2781 Y6.4836 
G01 X-88.2596 Y6.4390 
G01 X-88.1626 Y6.2048 
G01 X-87.7752 Y5.8174 
G01 X-87.2690 Y5.6077 
G01 X-85.4510 Y5.6077 
G01 X-84.9448 Y5.8174 
G01 X-84.5574 Y6.2048 
G01 X-84.3477 Y6.7110 
G01 X-84.3477 Y6.7232 
G01 X-84.3292 Y6.7678 
G01 X-84.2951 Y6.8020 
G01 X-83.2338 Y7.8633 
G01 X-83.1285 Y8.1174 
G01 X-83.1285 Y21.9124 
G01 X-83.1100 Y21.9570 
G01 X-83.0759 Y21.9912 
G01 X-79.1070 Y25.9600 
G01 X-79.0624 Y25.9785 
G01 X-77.8738 Y25.9785 
G01 X-77.8305 Y25.9605 
G01 X-77.7951 Y25.9259 
G01 X-77.7845 Y25.9003 
G01 X-77.7766 Y25.8813 
G01 X-77.7766 Y25.8330 
G01 X-77.7946 Y25.7897 
G01 X-77.8292 Y25.7543 
G01 X-77.8641 Y25.7399 
G01 X-77.8667 Y25.7388 
G01 X-78.1898 Y25.4157 
G01 X-78.3647 Y24.9935 
G01 X-78.3647 Y24.5365 
G01 X-78.2631 Y24.2912 
G01 X-78.2631 Y22.0411 
G01 X-78.2816 Y21.9965 
G01 X-78.3157 Y21.9624 
G01 X-78.4438 Y21.8343 
G01 X-78.6187 Y21.4121 
G01 X-78.6187 Y19.2279 
G01 X-78.4438 Y18.8057 
G01 X-78.1207 Y18.4826 
G01 X-77.6985 Y18.3077 
G01 X-77.2415 Y18.3077 
G01 X-76.8193 Y18.4826 
G01 X-76.4962 Y18.8057 
G01 X-76.3213 Y19.2279 
G01 X-76.3213 Y21.4121 
G01 X-76.4962 Y21.8343 
G01 X-76.6584 Y21.9965 
G01 X-76.6769 Y22.0411 
G01 X-76.6769 Y23.6880 
G01 X-76.6589 Y23.7313 
G01 X-76.6243 Y23.7667 
G01 X-76.5797 Y23.7852 
G01 X-76.5653 Y23.7912 
G01 X-76.2687 Y24.0878 
G01 X-76.2241 Y24.1062 
G01 X-76.1759 Y24.1062 
G01 X-76.1313 Y24.0878 
G01 X-76.0972 Y24.0536 
G01 X-75.6598 Y23.6163 
G01 X-75.3561 Y23.6163 
G01 X-75.3561 Y23.7801 
G01 X-75.5920 Y23.7801 
G01 X-76.1689 Y24.3570 
G01 X-76.1689 Y25.1730 
G01 X-75.5920 Y25.7499 
G01 X-74.7760 Y25.7499 
G01 X-74.1991 Y25.1730 
G01 X-74.1991 Y24.3570 
G01 X-74.5039 Y24.0522 
G01 X-74.5039 Y23.8206 
G01 X-74.0353 Y24.2892 
G01 X-74.0353 Y25.2408 
G01 X-74.5488 Y25.7543 
G01 X-74.5737 Y25.7792 
G01 X-74.5829 Y25.7885 
G01 X-74.6014 Y25.8331 
G01 X-74.6014 Y25.8813 
G01 X-74.5829 Y25.9259 
G01 X-74.5488 Y25.9600 
G01 X-74.5042 Y25.9785 
G01 X-68.8925 Y25.9785 
G01 X-68.8480 Y25.9600 
G01 X-68.8138 Y25.9259 
G01 X-65.4800 Y22.5920 
G01 X-65.4615 Y22.5474 
G01 X-65.4615 Y22.1427 
G01 X-65.4800 Y22.0981 
G01 X-65.5141 Y22.0640 
G01 X-65.7438 Y21.8343 
G01 X-65.9372 Y21.3675 
G01 X-65.9713 Y21.3334 
G01 X-66.0159 Y21.3149 
G01 X-66.0641 Y21.3149 
G01 X-66.1087 Y21.3334 
G01 X-66.1428 Y21.3675 
G01 X-66.1613 Y21.4121 
G01 X-66.3362 Y21.8343 
G01 X-66.6593 Y22.1574 
G01 X-67.0815 Y22.3323 
G01 X-67.5385 Y22.3323 
G01 X-67.9607 Y22.1574 
G01 X-68.2838 Y21.8343 
G01 X-68.4587 Y21.4121 
G01 X-68.4767 Y21.3687 
G01 X-68.5113 Y21.3334 
G01 X-68.5550 Y21.3153 
G01 X-68.6041 Y21.3149 
G01 X-68.6474 Y21.3329 
G01 X-68.6828 Y21.3675 
G01 X-68.8762 Y21.8343 
G01 X-69.1993 Y22.1574 
G01 X-69.6215 Y22.3323 
G01 X-70.0785 Y22.3323 
G01 X-70.5007 Y22.1574 
G01 X-70.8238 Y21.8343 
G01 X-70.9987 Y21.4121 
G01 X-71.0167 Y21.3687 
G01 X-71.0513 Y21.3334 
G01 X-71.0950 Y21.3153 
G01 X-71.1441 Y21.3149 
G01 X-71.1874 Y21.3329 
G01 X-71.2228 Y21.3675 
G01 X-71.4162 Y21.8343 
G01 X-71.7393 Y22.1574 
G01 X-72.1615 Y22.3323 
G01 X-72.6185 Y22.3323 
G01 X-73.0407 Y22.1574 
G01 X-73.3638 Y21.8343 
G01 X-73.5387 Y21.4121 
G01 X-73.5387 Y19.2279 
G01 X-73.3638 Y18.8057 
G01 X-73.0407 Y18.4826 
G01 X-72.6185 Y18.3077 
G01 X-72.1615 Y18.3077 
G01 X-71.7393 Y18.4826 
G01 X-71.4162 Y18.8057 
G01 X-71.2228 Y19.2724 
G01 X-71.1887 Y19.3066 
G01 X-71.1441 Y19.3250 
G01 X-71.0959 Y19.3250 
G01 X-71.0513 Y19.3066 
G01 X-71.0172 Y19.2725 
G01 X-70.9987 Y19.2279 
G01 X-70.8238 Y18.8057 
G01 X-70.5007 Y18.4826 
G01 X-70.0785 Y18.3077 
G01 X-69.6215 Y18.3077 
G01 X-69.1993 Y18.4826 
G01 X-68.8762 Y18.8057 
G01 X-68.6828 Y19.2724 
G01 X-68.6487 Y19.3066 
G01 X-68.6041 Y19.3250 
G01 X-68.5559 Y19.3250 
G01 X-68.5113 Y19.3066 
G01 X-68.4772 Y19.2725 
G01 X-68.4587 Y19.2279 
G01 X-68.2838 Y18.8057 
G01 X-67.9607 Y18.4826 
G01 X-67.5385 Y18.3077 
G01 X-67.0815 Y18.3077 
G01 X-66.6593 Y18.4826 
G01 X-66.3362 Y18.8057 
G01 X-66.1613 Y19.2279 
G01 X-66.1433 Y19.2713 
G01 X-66.1087 Y19.3066 
G01 X-66.0650 Y19.3247 
G01 X-66.0159 Y19.3250 
G01 X-65.9725 Y19.3071 
G01 X-65.9372 Y19.2725 
G01 X-65.7438 Y18.8057 
G01 X-65.4207 Y18.4826 
G01 X-64.9985 Y18.3077 
G01 X-64.5415 Y18.3077 
G01 X-64.1193 Y18.4826 
G01 X-63.7962 Y18.8057 
G01 X-63.6213 Y19.2279 
G01 X-63.6033 Y19.2713 
G01 X-63.5687 Y19.3066 
G01 X-63.5250 Y19.3247 
G01 X-63.4759 Y19.3250 
G01 X-63.4326 Y19.3071 
G01 X-63.3972 Y19.2725 
G01 X-63.2038 Y18.8057 
G01 X-62.8807 Y18.4826 
G01 X-62.4585 Y18.3077 
G01 X-62.0015 Y18.3077 
G01 X-61.5793 Y18.4826 
G01 X-61.2562 Y18.8057 
G01 X-61.0628 Y19.2724 
G01 X-61.0287 Y19.3066 
G01 X-60.9841 Y19.3250 
G01 X-60.9359 Y19.3250 
G01 X-60.8913 Y19.3066 
G01 X-60.8572 Y19.2725 
G01 X-60.8387 Y19.2279 
G01 X-60.6638 Y18.8057 
G01 X-60.3407 Y18.4826 
G01 X-59.9185 Y18.3077 
G01 X-59.4615 Y18.3077 
G01 X-59.0393 Y18.4826 
G01 X-58.7162 Y18.8057 
G01 X-58.5228 Y19.2724 
G01 X-58.4887 Y19.3066 
G01 X-58.4441 Y19.3250 
G01 X-58.3959 Y19.3250 
G01 X-58.3513 Y19.3066 
G01 X-58.3172 Y19.2725 
G01 X-58.2987 Y19.2279 
G01 X-58.1238 Y18.8057 
G01 X-57.8007 Y18.4826 
G01 X-57.3785 Y18.3077 
G01 X-56.9215 Y18.3077 
G01 X-56.4993 Y18.4826 
G01 X-56.1762 Y18.8057 
G01 X-55.9828 Y19.2724 
G01 X-55.9487 Y19.3066 
G01 X-55.9041 Y19.3250 
G01 X-55.8559 Y19.3250 
G01 X-55.8113 Y19.3066 
G01 X-55.7772 Y19.2725 
G01 X-55.7587 Y19.2279 
G01 X-55.5838 Y18.8057 
G01 X-55.2607 Y18.4826 
G01 X-54.8385 Y18.3077 
G01 X-54.3815 Y18.3077 
G01 X-53.9593 Y18.4826 
G01 X-53.6362 Y18.8057 
G01 X-53.4613 Y19.2279 
G01 X-53.4613 Y21.4121 
G01 X-53.6362 Y21.8343 
G01 X-53.9000 Y22.0981 
G01 X-53.9185 Y22.1427 
G01 X-53.9185 Y27.6159 
G01 X-53.9000 Y27.6605 
G01 X-53.8659 Y27.6946 
G01 X-53.4613 Y28.0992 
G01 X-53.4613 Y29.0508 
G01 X-54.1342 Y29.7237 
G01 X-54.7546 Y29.7237 
G01 X-54.7992 Y29.7422 
G01 X-54.8334 Y29.7763 
G01 X-57.1988 Y32.1417 
G01 X-57.3933 Y32.3362 
G01 X-57.6474 Y32.4415 
G01 X-82.0525 Y32.4415 
G01 X-82.3067 Y32.3362 
G01 X-90.5585 Y24.0845 
G01 X-90.6031 Y24.0660 
G01 X-90.6513 Y24.0660 
G01 X-90.6959 Y24.0845 
G01 X-90.7300 Y24.1186 
G01 X-90.7485 Y24.1632 
G01 X-90.7485 Y34.1944 
G01 X-90.7485 Y35.6555 
G01 X-90.7186 Y35.8442 
G01 X-90.6596 Y36.0258 
G01 X-90.5729 Y36.1960 
G01 X-90.4606 Y36.3505 
G01 X-90.3255 Y36.4856 
G01 X-90.1710 Y36.5979 
G01 X-90.0008 Y36.6846 
G01 X-89.8192 Y36.7436 
G01 X-89.6305 Y36.7735 
G01 X-89.4395 Y36.7735 
G01 X-89.2508 Y36.7436 
G01 X-89.0692 Y36.6846 
G01 X-88.8990 Y36.5979 
G01 X-88.7445 Y36.4856 
G01 X-88.6094 Y36.3505 
G01 X-88.4971 Y36.1960 
G01 X-88.4104 Y36.0258 
G01 X-88.3514 Y35.8442 
G01 X-88.3215 Y35.6555 
G01 X-88.3215 Y35.0965 
G01 X-88.3135 Y35.0932 
G01 X-88.2781 Y35.0586 
G01 X-88.1626 Y34.7798 
G01 X-87.7752 Y34.3924 
G01 X-87.2690 Y34.1827 
G01 X-84.1810 Y34.1827 
G01 X-83.6748 Y34.3924 
G01 X-83.2874 Y34.7798 
G01 X-83.2780 Y34.8024 
G01 X-83.2724 Y34.8159 
G01 X-83.2388 Y34.8495 
G01 X-83.2202 Y34.8575 
G01 X-83.1937 Y34.8685 
G01 X-53.0873 Y34.8685 
G01 X-53.0427 Y34.8500 
G01 X-53.0086 Y34.8159 
G01 X-52.9901 Y34.7713 
G01 X-52.9901 Y33.5369 
G01 X-52.8231 Y33.3699 
G01 X-50.7403 Y33.3699 
G01 X-50.6957 Y33.3514 
G01 X-50.6616 Y33.3173 
G01 X-50.4992 Y33.1549 
G01 X-50.2823 Y33.0651 
G01 X-48.7861 Y33.0651 
G01 X-48.7428 Y33.0471 
G01 X-48.7074 Y33.0125 
G01 X-48.5988 Y32.7503 
G01 X-48.3364 Y32.4878 
G01 X-48.3048 Y32.4563 
G01 X-48.3022 Y32.4537 
G01 X-48.2838 Y32.4091 
G01 X-48.2838 Y32.3609 
G01 X-48.3022 Y32.3163 
G01 X-48.3338 Y32.2847 
G01 X-48.3364 Y32.2822 
G01 X-48.4932 Y32.1253 
G01 X-48.2616 Y32.1253 
G01 X-48.0330 Y32.3539 
G01 X-47.2170 Y32.3539 
G01 X-46.9884 Y32.1253 
G01 X-46.7568 Y32.1253 
G01 X-46.9136 Y32.2822 
G01 X-46.9478 Y32.3163 
G01 X-46.9662 Y32.3609 
G01 X-46.9662 Y32.4091 
G01 X-46.9483 Y32.4524 
G01 X-46.9136 Y32.4878 
G01 X-46.6512 Y32.7503 
G01 X-46.5426 Y33.0125 
G01 X-46.5084 Y33.0466 
G01 X-46.4639 Y33.0651 
G01 X-44.9676 Y33.0651 
G01 X-44.7508 Y33.1549 
G01 X-44.5543 Y33.3514 
G01 X-44.5097 Y33.3699 
G01 X-41.1569 Y33.3699 
G01 X-40.9899 Y33.5369 
G01 X-40.9899 Y35.3047 
G01 X-40.9714 Y35.3493 
G01 X-40.9373 Y35.3834 
G01 X-40.8927 Y35.4019 
G01 X-32.3020 Y35.4019 
G01 X-32.2586 Y35.3839 
G01 X-32.2232 Y35.3493 
G01 X-32.2048 Y35.3047 
G01 X-32.2048 Y35.2564 
G01 X-32.3653 Y34.8689 
G01 X-32.3653 Y34.5453 
G01 X-32.3838 Y34.5007 
G01 X-32.4179 Y34.4666 
G01 X-32.4625 Y34.4481 
G01 X-35.7212 Y34.4481 
G01 X-35.7658 Y34.4666 
G01 X-35.9665 Y34.5497 
G01 X-36.4235 Y34.5497 
G01 X-36.6688 Y34.4481 
G01 X-38.2578 Y34.4481 
G01 X-38.5493 Y34.3274 
G01 X-40.4543 Y32.4224 
G01 X-40.6774 Y32.1993 
G01 X-40.7981 Y31.9078 
G01 X-40.7981 Y29.4653 
G01 X-40.8166 Y29.4207 
G01 X-40.8507 Y29.3866 
G01 X-40.8953 Y29.3681 
G01 X-46.1325 Y29.3681 
G01 X-46.1771 Y29.3866 
G01 X-46.2112 Y29.4207 
G01 X-46.5142 Y29.7237 
G01 X-47.4658 Y29.7237 
G01 X-47.8704 Y29.3191 
G01 X-47.8970 Y29.2925 
G01 X-47.9045 Y29.2850 
G01 X-47.9491 Y29.2665 
G01 X-49.6676 Y29.2665 
G01 X-49.9217 Y29.1612 
G01 X-50.1162 Y28.9667 
G01 X-50.2215 Y28.7125 
G01 X-50.2215 Y26.9941 
G01 X-50.2400 Y26.9495 
G01 X-50.2741 Y26.9154 
G01 X-50.6787 Y26.5108 
G01 X-50.6787 Y25.5592 
G01 X-50.0058 Y24.8863 
G01 X-49.0542 Y24.8863 
G01 X-48.7171 Y25.2234 
G01 X-48.6725 Y25.2419 
G01 X-40.6470 Y25.2419 
G01 X-40.6212 Y25.2312 
G01 X-40.6024 Y25.2234 
G01 X-40.5694 Y25.1904 
G01 X-40.2032 Y25.0387 
G01 X-39.8068 Y25.0387 
G01 X-39.4406 Y25.1904 
G01 X-39.1604 Y25.4706 
G01 X-39.0087 Y25.8368 
G01 X-39.0087 Y26.2332 
G01 X-39.1604 Y26.5994 
G01 X-39.1929 Y26.6319 
G01 X-39.2009 Y26.6505 
G01 X-39.2119 Y26.6770 
G01 X-39.2119 Y27.7175 
G01 X-39.1934 Y27.7621 
G01 X-39.1593 Y27.7962 
G01 X-38.8037 Y28.1518 
G01 X-38.7591 Y28.1702 
G01 X-38.7109 Y28.1702 
G01 X-38.6675 Y28.1523 
G01 X-38.6322 Y28.1176 
G01 X-38.4377 Y27.9232 
G01 X-38.4036 Y27.8891 
G01 X-38.3856 Y27.8457 
G01 X-38.3851 Y24.5820 
G01 X-38.2450 Y24.2438 
G01 X-37.9521 Y23.9508 
G01 X-36.0812 Y22.0800 
G01 X-35.7430 Y21.9399 
G01 X-27.4005 Y21.9399 
G01 X-27.3559 Y21.9214 
G01 X-27.3218 Y21.8873 
G01 X-27.1458 Y21.7113 
G01 X-26.7782 Y21.7113 
G01 X-26.7597 Y21.7130 
G01 X-26.7543 Y21.7113 
G01 X-26.7486 Y21.7113 
G01 X-26.7314 Y21.7042 
G01 X-26.7136 Y21.6986 
G01 X-26.7092 Y21.6950 
G01 X-26.7040 Y21.6928 
G01 X-26.6908 Y21.6796 
G01 X-24.0665 Y19.4927 
G01 X-24.0613 Y19.4906 
G01 X-24.0481 Y19.4774 
G01 X-24.0338 Y19.4655 
G01 X-24.0312 Y19.4604 
G01 X-24.0272 Y19.4564 
G01 X-24.0201 Y19.4392 
G01 X-24.0114 Y19.4227 
G01 X-24.0109 Y19.4171 
G01 X-24.0087 Y19.4119 
G01 X-24.0087 Y19.3932 
G01 X-24.0070 Y19.3747 
G01 X-24.0087 Y19.3693 
G01 X-24.0087 Y19.2092 
G01 X-23.7986 Y18.9991 
G01 X-23.7801 Y18.9545 
G01 X-23.7801 Y17.8755 
G01 X-23.7986 Y17.8309 
G01 X-23.8327 Y17.7968 
G01 X-24.0087 Y17.6208 
G01 X-24.0087 Y16.6692 
G01 X-23.2832 Y15.9437 
G01 X-23.2648 Y15.8991 
G01 X-23.2648 Y15.8509 
G01 X-23.2832 Y15.8063 
G01 X-23.3174 Y15.7722 
G01 X-24.0087 Y15.0808 
G01 X-24.0087 Y14.1292 
G01 X-23.7986 Y13.9191 
G01 X-23.7801 Y13.8745 
G01 X-23.7801 Y13.4305 
G01 X-23.7986 Y13.3859 
G01 X-23.8327 Y13.3518 
G01 X-24.0087 Y13.1758 
G01 X-24.0087 Y12.2242 
G01 X-23.7986 Y12.0141 
G01 X-23.7801 Y11.9695 
G01 X-23.7801 Y10.5672 
G01 X-23.7986 Y10.5227 
G01 X-23.8327 Y10.4885 
G01 X-23.8576 Y10.4636 
G01 X-23.9022 Y10.4451 
G01 X-24.6695 Y10.4451 
G01 X-24.7141 Y10.4636 
G01 X-24.7482 Y10.4977 
G01 X-24.9242 Y10.6737 
G01 X-25.8758 Y10.6737 
G01 X-26.5487 Y10.0008 
G01 X-26.5487 Y9.3804 
G01 X-26.5672 Y9.3358 
G01 X-26.6013 Y9.3017 
G01 X-26.6459 Y9.2832 
G01 X-26.6941 Y9.2832 
G01 X-26.7387 Y9.3017 
G01 X-26.7729 Y9.3358 
G01 X-29.1350 Y11.6980 
G01 X-29.1535 Y11.7425 
G01 X-29.1535 Y14.1408 
G01 X-29.1350 Y14.1854 
G01 X-29.1009 Y14.2195 
G01 X-29.0563 Y14.2379 
G01 X-29.0081 Y14.2379 
G01 X-28.9635 Y14.2195 
G01 X-28.9293 Y14.1854 
G01 X-28.3527 Y13.6087 
G01 X-28.0613 Y13.6087 
G01 X-28.0613 Y13.6201 
G01 X-28.3480 Y13.6201 
G01 X-28.9249 Y14.1970 
G01 X-28.9249 Y15.0130 
G01 X-28.6963 Y15.2416 
G01 X-28.6963 Y15.2577 
G01 X-28.9293 Y15.0246 
G01 X-28.9532 Y15.0007 
G01 X-28.9635 Y14.9905 
G01 X-29.0081 Y14.9721 
G01 X-29.0563 Y14.9721 
G01 X-29.1009 Y14.9905 
G01 X-29.1350 Y15.0246 
G01 X-29.1535 Y15.0692 
G01 X-29.1535 Y16.6574 
G01 X-29.1605 Y16.6644 
G01 X-29.1789 Y16.7089 
G01 X-29.2588 Y16.9017 
G01 X-31.1638 Y18.8067 
G01 X-31.3583 Y19.0012 
G01 X-31.6124 Y19.1065 
G01 X-37.1524 Y19.1065 
G01 X-37.1970 Y19.1250 
G01 X-37.2312 Y19.1591 
G01 X-41.3238 Y23.2517 
G01 X-41.5183 Y23.4462 
G01 X-41.7724 Y23.5515 
G01 X-49.0326 Y23.5515 
G01 X-49.2867 Y23.4462 
G01 X-49.9217 Y22.8112 
G01 X-50.1162 Y22.6167 
G01 X-50.2215 Y22.3625 
G01 X-50.2215 Y22.1427 
G01 X-50.2400 Y22.0981 
G01 X-50.2741 Y22.0640 
G01 X-50.5038 Y21.8343 
G01 X-50.6787 Y21.4121 
G01 X-50.6787 Y19.2279 
G01 X-50.5038 Y18.8057 
G01 X-50.1807 Y18.4826 
G01 X-49.7585 Y18.3077 
G01 X-49.3015 Y18.3077 
G01 X-48.8793 Y18.4826 
G01 X-48.5562 Y18.8057 
G01 X-48.3813 Y19.2279 
G01 X-48.3628 Y19.2724 
G01 X-48.3292 Y19.3060 
G01 X-48.2841 Y19.3250 
G01 X-48.2359 Y19.3250 
G01 X-48.1913 Y19.3066 
G01 X-48.1577 Y19.2730 
G01 X-48.1387 Y19.2279 
G01 X-47.9638 Y18.8057 
G01 X-47.6407 Y18.4826 
G01 X-47.2753 Y18.3312 
G01 X-47.2307 Y18.3127 
G01 X-47.1977 Y18.2798 
G01 X-45.6956 Y16.7776 
G01 X-45.4308 Y16.7445 
G01 X-47.1754 Y18.4891 
G01 X-47.2773 Y18.5093 
G01 X-47.4565 Y18.5836 
G01 X-47.6178 Y18.6914 
G01 X-47.7550 Y18.8286 
G01 X-47.8628 Y18.9899 
G01 X-47.9371 Y19.1691 
G01 X-47.9749 Y19.3594 
G01 X-47.9749 Y21.2806 
G01 X-47.9371 Y21.4709 
G01 X-47.8628 Y21.6501 
G01 X-47.7550 Y21.8114 
G01 X-47.6178 Y21.9486 
G01 X-47.4565 Y22.0564 
G01 X-47.2773 Y22.1307 
G01 X-47.0870 Y22.1685 
G01 X-46.8930 Y22.1685 
G01 X-46.7027 Y22.1307 
G01 X-46.5235 Y22.0564 
G01 X-46.3622 Y21.9486 
G01 X-46.2250 Y21.8114 
G01 X-46.1172 Y21.6501 
G01 X-46.0429 Y21.4709 
G01 X-46.0051 Y21.2806 
G01 X-46.0051 Y19.3594 
G01 X-46.0429 Y19.1691 
G01 X-46.1172 Y18.9899 
G01 X-46.1438 Y18.9501 
G01 X-44.8664 Y17.6727 
G01 X-32.3155 Y17.6727 
G01 X-32.1813 Y17.6367 
G01 X-32.0610 Y17.5673 
G01 X-31.9627 Y17.4690 
G01 X-30.6927 Y16.1990 
G01 X-30.6233 Y16.0787 
G01 X-30.5873 Y15.9445 
G01 X-30.5873 Y10.3786 
G01 X-25.8164 Y5.6077 
G01 X-23.7252 Y5.6077 
G01 X-23.2680 Y6.0649 
G01 X-22.4520 Y6.0649 
G01 X-21.9948 Y5.6077 
G01 X-20.5386 Y5.6077 
G01 X-17.0377 Y9.1086 
G01 X-17.0377 Y10.9192 
G01 X-17.1028 Y10.9404 
G01 X-17.2730 Y11.0271 
G01 X-17.4275 Y11.1394 
G01 X-17.5626 Y11.2744 
G01 X-17.6749 Y11.4290 
G01 X-17.7616 Y11.5992 
G01 X-17.8206 Y11.7808 
G01 X-17.8505 Y11.9695 
G01 X-17.8505 Y12.1605 
G01 X-17.8206 Y12.3492 
G01 X-17.7616 Y12.5308 
G01 X-17.6749 Y12.7010 
G01 X-17.5626 Y12.8555 
G01 X-17.4275 Y12.9906 
G01 X-17.2730 Y13.1029 
G01 X-17.1028 Y13.1896 
G01 X-16.9212 Y13.2486 
G01 X-16.7325 Y13.2785 
G01 X-16.5415 Y13.2785 
G01 X-16.3528 Y13.2486 
G01 X-16.1712 Y13.1896 
G01 X-16.0010 Y13.1029 
G01 X-15.8465 Y12.9906 
G01 X-15.7114 Y12.8555 
G01 X-15.5991 Y12.7010 
G01 X-15.5124 Y12.5308 
G01 X-15.4534 Y12.3492 
G01 X-15.4235 Y12.1605 
G01 X-15.4235 Y11.9695 
G01 X-15.4534 Y11.7808 
G01 X-15.5124 Y11.5992 
G01 X-15.5991 Y11.4290 
G01 X-15.7114 Y11.2744 
G01 X-15.8465 Y11.1394 
G01 X-15.9823 Y11.0407 
G01 X-15.9823 Y8.8205 
G01 X-16.0183 Y8.6863 
G01 X-16.0877 Y8.5660 
G01 X-19.8977 Y4.7560 
G01 X-19.9960 Y4.6577 
G01 X-20.1163 Y4.5883 
G01 X-20.2505 Y4.5523 
G01 X-21.9948 Y4.5523 
G01 X-22.4520 Y4.0951 
G01 X-23.2680 Y4.0951 
G01 X-23.7252 Y4.5523 
G01 X-26.1045 Y4.5523 
G01 X-26.2387 Y4.5883 
G01 X-26.3590 Y4.6577 
G01 X-31.4390 Y9.7377 
G01 X-31.5373 Y9.8360 
G01 X-31.6067 Y9.9563 
G01 X-31.6427 Y10.0905 
G01 X-31.6427 Y15.6564 
G01 X-32.6036 Y16.6173 
G01 X-44.4130 Y16.6173 
G01 X-43.1025 Y16.4535 
G01 X-32.6975 Y16.4535 
G01 X-32.6530 Y16.4350 
G01 X-32.6188 Y16.4009 
G01 X-31.8250 Y15.6070 
G01 X-31.8065 Y15.5624 
G01 X-31.8065 Y10.0224 
G01 X-31.7012 Y9.7683 
G01 X-31.4726 Y9.5396 
G01 X-26.4267 Y4.4938 
G01 X-26.1725 Y4.3885 
G01 X-23.8191 Y4.3885 
G01 X-23.7745 Y4.3700 
G01 X-23.7404 Y4.3359 
G01 X-23.4628 Y4.0583 
G01 X-22.2572 Y4.0583 
G01 X-21.9455 Y4.3700 
G01 X-21.9009 Y4.3885 
G01 X-20.1824 Y4.3885 
G01 X-19.9283 Y4.4938 
G01 X-19.6996 Y4.7224 
G01 X-15.9238 Y8.4983 
G01 X-15.8185 Y8.7524 
G01 X-15.8185 Y10.9096 
G01 X-15.8000 Y10.9542 
G01 X-15.7659 Y10.9883 
G01 X-15.4694 Y11.2848 
G01 X-15.2597 Y11.7910 
G01 X-15.2597 Y12.3390 
G01 X-15.4694 Y12.8452 
G01 X-15.8563 Y13.2322 
G01 X-15.8835 Y13.2593 
G01 X-15.8905 Y13.2663 
G01 X-15.9089 Y13.3109 
G01 X-15.9089 Y13.3591 
G01 X-15.8905 Y13.4037 
G01 X-15.8564 Y13.4378 
G01 X-15.4694 Y13.8248 
G01 X-15.2597 Y14.3310 
G01 X-15.2597 Y14.8790 
G01 X-15.4694 Y15.3852 
G01 X-15.8905 Y15.8063 
G01 X-15.9089 Y15.8509 
G01 X-15.9089 Y15.8991 
G01 X-15.8905 Y15.9437 
G01 X-15.8564 Y15.9778 
G01 X-15.6619 Y16.1723 
G01 X-15.6298 Y16.2044 
G01 X-15.5832 Y16.2249 
G01 X-15.0570 Y16.2249 
G01 X-14.7188 Y16.3650 
G01 X-14.4258 Y16.6579 
G01 X-13.1900 Y17.8938 
G01 X-13.0499 Y18.2320 
G01 X-13.0499 Y20.2789 
G01 X-13.0499 Y20.3030 
G01 X-13.0499 Y20.3249 
G01 X-13.0438 Y20.4683 
G01 X-13.0499 Y20.4830 
G01 X-13.0507 Y20.4875 
G01 X-13.0501 Y20.5035 
G01 X-13.1042 Y20.6342 
G01 X-13.1134 Y20.6564 
G01 X-13.1218 Y20.6766 
G01 X-13.1710 Y20.8114 
G01 X-13.1823 Y20.8228 
G01 X-13.1848 Y20.8266 
G01 X-13.1904 Y20.8416 
G01 X-13.2904 Y20.9416 
G01 X-13.3073 Y20.9586 
G01 X-13.3228 Y20.9741 
G01 X-13.7145 Y21.3971 
G01 X-13.7209 Y21.4010 
G01 X-13.7308 Y21.4146 
G01 X-13.7423 Y21.4269 
G01 X-13.7449 Y21.4340 
G01 X-13.7493 Y21.4400 
G01 X-13.7532 Y21.4564 
G01 X-13.7591 Y21.4722 
G01 X-13.7588 Y21.4797 
G01 X-13.7605 Y21.4869 
G01 X-13.7579 Y21.5036 
G01 X-13.7573 Y21.5204 
G01 X-13.7542 Y21.5272 
G01 X-13.7530 Y21.5346 
G01 X-13.7442 Y21.5490 
G01 X-13.7372 Y21.5643 
G01 X-13.7317 Y21.5694 
G01 X-13.7278 Y21.5758 
G01 X-13.7141 Y21.5857 
G01 X-13.7018 Y21.5971 
G01 X-13.6948 Y21.5997 
G01 X-13.6887 Y21.6041 
G01 X-13.6723 Y21.6081 
G01 X-13.6566 Y21.6139 
G01 X-13.6491 Y21.6136 
G01 X-13.6418 Y21.6154 
G01 X-13.6252 Y21.6128 
G01 X-13.6083 Y21.6121 
G01 X-13.6015 Y21.6090 
G01 X-13.4563 Y21.5860 
G01 X-13.4563 Y21.5976 
G01 X-13.6608 Y21.6300 
G01 X-13.8691 Y21.6976 
G01 X-14.0642 Y21.7970 
G01 X-14.2414 Y21.9258 
G01 X-14.3962 Y22.0806 
G01 X-14.5250 Y22.2578 
G01 X-14.6244 Y22.4529 
G01 X-14.6920 Y22.6612 
G01 X-14.7244 Y22.8657 
G01 X-14.7360 Y22.8657 
G01 X-14.7298 Y22.8266 
G01 X-14.7256 Y22.8153 
G01 X-14.7261 Y22.8030 
G01 X-14.7241 Y22.7909 
G01 X-14.7269 Y22.7792 
G01 X-14.7274 Y22.7671 
G01 X-14.7325 Y22.7559 
G01 X-14.7354 Y22.7439 
G01 X-14.7425 Y22.7342 
G01 X-14.7475 Y22.7232 
G01 X-14.7565 Y22.7148 
G01 X-14.7638 Y22.7049 
G01 X-14.7740 Y22.6986 
G01 X-14.7828 Y22.6904 
G01 X-14.7944 Y22.6861 
G01 X-14.8049 Y22.6797 
G01 X-14.8168 Y22.6778 
G01 X-14.8281 Y22.6736 
G01 X-14.8404 Y22.6741 
G01 X-14.8526 Y22.6721 
G01 X-14.8643 Y22.6749 
G01 X-14.8763 Y22.6754 
G01 X-14.8875 Y22.6805 
G01 X-14.8995 Y22.6834 
G01 X-14.9092 Y22.6905 
G01 X-14.9202 Y22.6955 
G01 X-14.9286 Y22.7045 
G01 X-14.9385 Y22.7118 
G01 X-14.9448 Y22.7220 
G01 X-21.4219 Y29.6973 
G01 X-21.4373 Y29.7128 
G01 X-21.4398 Y29.7166 
G01 X-21.4454 Y29.7316 
G01 X-21.5453 Y29.8316 
G01 X-21.5623 Y29.8486 
G01 X-21.5778 Y29.8640 
G01 X-21.6749 Y29.9698 
G01 X-21.6897 Y29.9759 
G01 X-21.6934 Y29.9785 
G01 X-21.7043 Y29.9903 
G01 X-21.8349 Y30.0443 
G01 X-21.8572 Y30.0536 
G01 X-21.8774 Y30.0619 
G01 X-22.0075 Y30.1225 
G01 X-22.0235 Y30.1225 
G01 X-22.0280 Y30.1234 
G01 X-22.0425 Y30.1301 
G01 X-22.1839 Y30.1301 
G01 X-22.2080 Y30.1301 
G01 X-22.2299 Y30.1301 
G01 X-22.3733 Y30.1362 
G01 X-22.3880 Y30.1301 
G01 X-22.3925 Y30.1293 
G01 X-22.4144 Y30.1301 
G01 X-35.5406 Y30.1301 
G01 X-35.5852 Y30.1486 
G01 X-35.6193 Y30.1827 
G01 X-35.6378 Y30.2273 
G01 X-35.6378 Y30.2755 
G01 X-35.6193 Y30.3201 
G01 X-35.5852 Y30.3543 
G01 X-35.3522 Y30.5873 
G01 X-35.5838 Y30.5873 
G01 X-35.7870 Y30.3841 
G01 X-36.6030 Y30.3841 
G01 X-37.1799 Y30.9610 
G01 X-37.1799 Y31.7770 
G01 X-36.6030 Y32.3539 
G01 X-35.7870 Y32.3539 
G01 X-35.2101 Y31.7770 
G01 X-35.2101 Y31.6427 
G01 X-35.0463 Y31.6427 
G01 X-35.0463 Y31.8448 
G01 X-35.4836 Y32.2822 
G01 X-35.5178 Y32.3163 
G01 X-35.5362 Y32.3609 
G01 X-35.5362 Y32.4091 
G01 X-35.5183 Y32.4524 
G01 X-35.4836 Y32.4878 
G01 X-35.2212 Y32.7503 
G01 X-35.2152 Y32.7647 
G01 X-35.1967 Y32.8093 
G01 X-35.1631 Y32.8429 
G01 X-35.1180 Y32.8619 
G01 X-32.4625 Y32.8619 
G01 X-32.4179 Y32.8434 
G01 X-32.3838 Y32.8093 
G01 X-32.3653 Y32.7647 
G01 X-32.3653 Y32.4411 
G01 X-32.1750 Y31.9816 
G01 X-31.8361 Y31.6427 
G01 X-31.4084 Y31.6427 
G01 X-31.5321 Y31.6829 
G01 X-31.6845 Y31.7605 
G01 X-31.8228 Y31.8611 
G01 X-31.9437 Y31.9820 
G01 X-32.0443 Y32.1203 
G01 X-32.1219 Y32.2727 
G01 X-32.1748 Y32.4354 
G01 X-32.2015 Y32.6043 
G01 X-32.2015 Y33.0257 
G01 X-35.2844 Y33.0257 
G01 X-35.3222 Y32.9345 
G01 X-35.4300 Y32.7732 
G01 X-35.5672 Y32.6360 
G01 X-35.7285 Y32.5282 
G01 X-35.9077 Y32.4539 
G01 X-36.0980 Y32.4161 
G01 X-36.2920 Y32.4161 
G01 X-36.4823 Y32.4539 
G01 X-36.6615 Y32.5282 
G01 X-36.8228 Y32.6360 
G01 X-36.9600 Y32.7732 
G01 X-37.0678 Y32.9345 
G01 X-37.1056 Y33.0257 
G01 X-37.8393 Y33.0257 
G01 X-39.3757 Y31.4893 
G01 X-39.3757 Y29.3386 
G01 X-39.0201 Y28.9830 
G01 X-39.0201 Y28.1670 
G01 X-39.3757 Y27.8114 
G01 X-39.3757 Y26.5830 
G01 X-39.3583 Y26.5657 
G01 X-39.2672 Y26.4293 
G01 X-39.2045 Y26.2778 
G01 X-39.1725 Y26.1170 
G01 X-39.1725 Y25.9530 
G01 X-39.2045 Y25.7922 
G01 X-39.2672 Y25.6407 
G01 X-39.3583 Y25.5043 
G01 X-39.4743 Y25.3883 
G01 X-39.6107 Y25.2972 
G01 X-39.7622 Y25.2345 
G01 X-39.9230 Y25.2025 
G01 X-40.0870 Y25.2025 
G01 X-40.2478 Y25.2345 
G01 X-40.3993 Y25.2972 
G01 X-40.5357 Y25.3883 
G01 X-40.5530 Y25.4057 
G01 X-48.7664 Y25.4057 
G01 X-49.1220 Y25.0501 
G01 X-49.9380 Y25.0501 
G01 X-50.5149 Y25.6270 
G01 X-50.5149 Y26.4430 
G01 X-50.0577 Y26.9002 
G01 X-50.0577 Y28.6445 
G01 X-50.0217 Y28.7787 
G01 X-49.9523 Y28.8990 
G01 X-49.8540 Y28.9973 
G01 X-49.7337 Y29.0667 
G01 X-49.5995 Y29.1027 
G01 X-47.8552 Y29.1027 
G01 X-47.3980 Y29.5599 
G01 X-46.5820 Y29.5599 
G01 X-46.2264 Y29.2043 
G01 X-40.7686 Y29.2043 
G01 X-40.6343 Y29.3386 
G01 X-40.6343 Y31.8120 
G01 X-40.6101 Y31.9336 
G01 X-40.5627 Y32.0481 
G01 X-40.4938 Y32.1512 
G01 X-40.4062 Y32.2388 
G01 X-38.5012 Y34.1438 
G01 X-38.3981 Y34.2127 
G01 X-38.2836 Y34.2601 
G01 X-38.1620 Y34.2843 
G01 X-36.6362 Y34.2843 
G01 X-36.4823 Y34.3481 
G01 X-36.2920 Y34.3859 
G01 X-36.0980 Y34.3859 
G01 X-35.9077 Y34.3481 
G01 X-35.7538 Y34.2843 
G01 X-32.2015 Y34.2843 
G01 X-32.2015 Y34.7057 
G01 X-32.1748 Y34.8746 
G01 X-32.1219 Y35.0373 
G01 X-32.0443 Y35.1897 
G01 X-31.9437 Y35.3280 
G01 X-31.8228 Y35.4489 
G01 X-31.6845 Y35.5495 
G01 X-31.6526 Y35.5657 
G01 X-41.1537 Y35.5657 
G01 X-41.1537 Y33.6309 
G01 X-41.1722 Y33.5863 
G01 X-41.2063 Y33.5522 
G01 X-41.2509 Y33.5337 
G01 X-44.6037 Y33.5337 
G01 X-44.8234 Y33.3140 
G01 X-44.9205 Y33.2579 
G01 X-45.0289 Y33.2289 
G01 X-46.6550 Y33.2289 
G01 X-46.6779 Y33.1137 
G01 X-46.7522 Y32.9345 
G01 X-46.8600 Y32.7732 
G01 X-46.9972 Y32.6360 
G01 X-47.1585 Y32.5282 
G01 X-47.3377 Y32.4539 
G01 X-47.5280 Y32.4161 
G01 X-47.7220 Y32.4161 
G01 X-47.9123 Y32.4539 
G01 X-48.0915 Y32.5282 
G01 X-48.2528 Y32.6360 
G01 X-48.3900 Y32.7732 
G01 X-48.4978 Y32.9345 
G01 X-48.5721 Y33.1137 
G01 X-48.5950 Y33.2289 
G01 X-50.2211 Y33.2289 
G01 X-50.3295 Y33.2579 
G01 X-50.4266 Y33.3140 
G01 X-50.6463 Y33.5337 
G01 X-52.7291 Y33.5337 
G01 X-52.7737 Y33.5522 
G01 X-52.8078 Y33.5863 
G01 X-52.8263 Y33.6309 
G00 Z5.0000 
G00 X-35.7575 Y25.3180 
G01 Z-0.1500 F250.00 
G01 X-35.7575 Y25.4820 F200.00 
G01 X-35.7255 Y25.6428 
G01 X-35.6628 Y25.7943 
G01 X-35.5716 Y25.9307 
G01 X-35.4557 Y26.0466 
G01 X-35.3193 Y26.1378 
G01 X-35.1678 Y26.2005 
G01 X-35.0070 Y26.2325 
G01 X-34.8430 Y26.2325 
G01 X-34.6822 Y26.2005 
G01 X-34.5754 Y26.1563 
G01 X-27.3066 Y26.1563 
G01 X-27.0780 Y26.3849 
G01 X-26.2620 Y26.3849 
G01 X-26.0334 Y26.1563 
G01 X-25.4252 Y26.1563 
G01 X-25.3760 Y26.1596 
G01 X-25.3508 Y26.1563 
G01 X-25.3255 Y26.1563 
G01 X-25.2772 Y26.1467 
G01 X-25.2283 Y26.1403 
G01 X-25.2042 Y26.1322 
G01 X-25.1794 Y26.1272 
G01 X-25.1338 Y26.1084 
G01 X-25.0871 Y26.0926 
G01 X-25.0652 Y26.0799 
G01 X-25.0418 Y26.0702 
G01 X-25.0007 Y26.0428 
G01 X-24.9580 Y26.0182 
G01 X-24.9390 Y26.0015 
G01 X-24.9179 Y25.9875 
G01 X-24.8830 Y25.9526 
G01 X-19.8230 Y21.5251 
G01 X-19.7682 Y21.4776 
G01 X-19.7214 Y21.4173 
G01 X-19.6769 Y21.3599 
G01 X-19.6751 Y21.3570 
G01 X-19.6427 Y21.2916 
G01 X-18.7775 Y19.5612 
G01 X-18.7112 Y19.5396 
G01 X-18.5410 Y19.4529 
G01 X-18.3864 Y19.3406 
G01 X-18.2514 Y19.2055 
G01 X-18.1391 Y19.0510 
G01 X-18.0524 Y18.8808 
G01 X-17.9934 Y18.6992 
G01 X-17.9635 Y18.5105 
G01 X-17.9635 Y18.3195 
G01 X-17.9934 Y18.1308 
G01 X-18.0524 Y17.9492 
G01 X-18.1391 Y17.7790 
G01 X-18.2514 Y17.6244 
G01 X-18.3864 Y17.4894 
G01 X-18.5410 Y17.3771 
G01 X-18.7112 Y17.2904 
G01 X-18.8928 Y17.2314 
G01 X-19.0815 Y17.2015 
G01 X-19.2725 Y17.2015 
G01 X-19.4612 Y17.2314 
G01 X-19.6428 Y17.2904 
G01 X-19.8130 Y17.3771 
G01 X-19.9675 Y17.4894 
G01 X-20.1026 Y17.6244 
G01 X-20.2149 Y17.7790 
G01 X-20.3016 Y17.9492 
G01 X-20.3606 Y18.1308 
G01 X-20.3905 Y18.3195 
G01 X-20.3905 Y18.5105 
G01 X-20.3606 Y18.6992 
G01 X-20.3016 Y18.8808 
G01 X-20.2149 Y19.0510 
G01 X-20.9300 Y20.4838 
G01 X-25.6842 Y24.6437 
G01 X-26.0334 Y24.6437 
G01 X-26.2620 Y24.4151 
G01 X-27.0780 Y24.4151 
G01 X-27.3066 Y24.6437 
G01 X-34.5754 Y24.6437 
G01 X-34.6822 Y24.5995 
G01 X-34.8430 Y24.5675 
G01 X-35.0070 Y24.5675 
G01 X-35.1678 Y24.5995 
G01 X-35.3193 Y24.6622 
G01 X-35.4557 Y24.7533 
G01 X-35.5716 Y24.8693 
G01 X-35.6628 Y25.0057 
G01 X-35.7255 Y25.1572 
G01 X-35.7575 Y25.3180 
G00 Z5.0000 
G00 X-23.8449 Y16.7370 
G01 Z-0.1500 F250.00 
G01 X-23.8449 Y17.5530 F200.00 
G01 X-23.6163 Y17.7816 
G01 X-23.6163 Y19.0484 
G01 X-23.8449 Y19.2770 
G01 X-23.8449 Y19.5213 
G01 X-26.6695 Y21.8751 
G01 X-27.0780 Y21.8751 
G01 X-27.3066 Y22.1037 
G01 X-35.6345 Y22.1037 
G01 X-35.7806 Y22.1328 
G01 X-35.9182 Y22.1898 
G01 X-36.0421 Y22.2725 
G01 X-37.9471 Y24.1775 
G01 X-38.0525 Y24.2829 
G01 X-38.1352 Y24.4068 
G01 X-38.1922 Y24.5444 
G01 X-38.2213 Y24.6905 
G01 X-38.2213 Y27.9384 
G01 X-38.4499 Y28.1670 
G01 X-38.4499 Y28.9830 
G01 X-37.8730 Y29.5599 
G01 X-37.5497 Y29.5599 
G01 X-37.4175 Y29.6921 
G01 X-37.3121 Y29.7975 
G01 X-37.1882 Y29.8802 
G01 X-37.0506 Y29.9372 
G01 X-36.9045 Y29.9663 
G01 X-22.2854 Y29.9663 
G01 X-22.2714 Y29.9685 
G01 X-22.2110 Y29.9663 
G01 X-22.1505 Y29.9663 
G01 X-22.1367 Y29.9636 
G01 X-22.1226 Y29.9630 
G01 X-22.0637 Y29.9490 
G01 X-22.0044 Y29.9372 
G01 X-21.9914 Y29.9318 
G01 X-21.9776 Y29.9286 
G01 X-21.9226 Y29.9034 
G01 X-21.8667 Y29.8802 
G01 X-21.8550 Y29.8724 
G01 X-21.8422 Y29.8665 
G01 X-21.7932 Y29.8311 
G01 X-21.7429 Y29.7975 
G01 X-21.7329 Y29.7875 
G01 X-21.7215 Y29.7792 
G01 X-21.6803 Y29.7349 
G01 X-21.6375 Y29.6921 
G01 X-21.6297 Y29.6804 
G01 X-13.4253 Y20.8449 
G01 X-13.3825 Y20.8021 
G01 X-13.3747 Y20.7904 
G01 X-13.3651 Y20.7800 
G01 X-13.3334 Y20.7286 
G01 X-13.2998 Y20.6782 
G01 X-13.2944 Y20.6652 
G01 X-13.2870 Y20.6532 
G01 X-13.2659 Y20.5965 
G01 X-13.2428 Y20.5406 
G01 X-13.2400 Y20.5268 
G01 X-13.2351 Y20.5135 
G01 X-13.2255 Y20.4538 
G01 X-13.2137 Y20.3945 
G01 X-13.2137 Y20.3804 
G01 X-13.2115 Y20.3664 
G01 X-13.2137 Y20.3060 
G01 X-13.2137 Y18.3405 
G01 X-13.2428 Y18.1944 
G01 X-13.2998 Y18.0568 
G01 X-13.3825 Y17.9329 
G01 X-14.6525 Y16.6629 
G01 X-14.7579 Y16.5575 
G01 X-14.8818 Y16.4748 
G01 X-15.0194 Y16.4178 
G01 X-15.1655 Y16.3887 
G01 X-15.6865 Y16.3887 
G01 X-15.7114 Y16.3544 
G01 X-15.8465 Y16.2194 
G01 X-16.0010 Y16.1071 
G01 X-16.1712 Y16.0204 
G01 X-16.3528 Y15.9614 
G01 X-16.5415 Y15.9315 
G01 X-16.7325 Y15.9315 
G01 X-16.9212 Y15.9614 
G01 X-17.1028 Y16.0204 
G01 X-17.2730 Y16.1071 
G01 X-17.4275 Y16.2194 
G01 X-17.5626 Y16.3544 
G01 X-17.6749 Y16.5090 
G01 X-17.7616 Y16.6792 
G01 X-17.8206 Y16.8608 
G01 X-17.8505 Y17.0495 
G01 X-17.8505 Y17.2405 
G01 X-17.8206 Y17.4292 
G01 X-17.7616 Y17.6108 
G01 X-17.6749 Y17.7810 
G01 X-17.5626 Y17.9355 
G01 X-17.4275 Y18.0706 
G01 X-17.2730 Y18.1829 
G01 X-17.1028 Y18.2696 
G01 X-16.9212 Y18.3286 
G01 X-16.7325 Y18.3585 
G01 X-16.5415 Y18.3585 
G01 X-16.3528 Y18.3286 
G01 X-16.1712 Y18.2696 
G01 X-16.0010 Y18.1829 
G01 X-15.8465 Y18.0706 
G01 X-15.7114 Y17.9355 
G01 X-15.6865 Y17.9013 
G01 X-15.5533 Y17.9013 
G01 X-14.7263 Y18.7283 
G01 X-14.7263 Y20.0230 
G01 X-22.5548 Y28.4537 
G01 X-36.4801 Y28.4537 
G01 X-36.4801 Y28.1670 
G01 X-36.7087 Y27.9384 
G01 X-36.7087 Y25.0783 
G01 X-35.2467 Y23.6163 
G01 X-27.3066 Y23.6163 
G01 X-27.0780 Y23.8449 
G01 X-26.2620 Y23.8449 
G01 X-25.6851 Y23.2680 
G01 X-25.6851 Y23.0237 
G01 X-22.8605 Y20.6699 
G01 X-22.4520 Y20.6699 
G01 X-21.8751 Y20.0930 
G01 X-21.8751 Y19.2770 
G01 X-22.1037 Y19.0484 
G01 X-22.1037 Y17.7816 
G01 X-21.8751 Y17.5530 
G01 X-21.8751 Y16.7370 
G01 X-22.4520 Y16.1601 
G01 X-23.2680 Y16.1601 
G01 X-23.8449 Y16.7370 
G00 Z5.0000 
G00 X-7.1103 Y30.1776
G01 Z-0.1500 F250.00  
G01 X-7.1843 Y30.2203 F200.00
G01 X-8.1026 Y31.1387 
G01 X-8.1930 Y31.1207 
G01 X-14.6670 Y31.1207 
G01 X-14.7886 Y31.1449 
G01 X-14.9031 Y31.1923 
G01 X-15.0062 Y31.2612 
G01 X-23.2223 Y39.4773 
G01 X-88.5743 Y39.4773 
G01 X-88.4971 Y39.3710 
G01 X-88.4104 Y39.2008 
G01 X-88.3514 Y39.0192 
G01 X-88.3215 Y38.8305 
G01 X-88.3215 Y38.0045 
G01 X-88.3514 Y37.8158 
G01 X-88.4104 Y37.6342 
G01 X-88.4971 Y37.4640 
G01 X-88.6094 Y37.3095 
G01 X-88.7445 Y37.1744 
G01 X-88.8990 Y37.0621 
G01 X-89.0692 Y36.9754 
G01 X-89.2508 Y36.9164 
G01 X-89.4395 Y36.8865 
G01 X-89.6305 Y36.8865 
G01 X-89.8192 Y36.9164 
G01 X-90.0008 Y36.9754 
G01 X-90.1710 Y37.0621 
G01 X-90.3255 Y37.1744 
G01 X-90.4606 Y37.3095 
G01 X-90.5729 Y37.4640 
G01 X-90.6596 Y37.6342 
G01 X-90.7186 Y37.8158 
G01 X-90.7485 Y38.0045 
G01 X-90.7485 Y38.8305 
G01 X-90.7186 Y39.0192 
G01 X-90.6596 Y39.2008 
G01 X-90.5729 Y39.3710 
G01 X-90.4606 Y39.5255 
G01 X-90.3255 Y39.6606 
G01 X-90.1710 Y39.7729 
G01 X-90.0008 Y39.8596 
G01 X-89.8192 Y39.9186 
G01 X-89.7164 Y39.9349 
G01 X-89.2240 Y40.4273 
G01 X-89.1037 Y40.4967 
G01 X-88.9695 Y40.5327 
G01 X-23.2030 Y40.5327 
G01 X-23.1581 Y40.5627 
G01 X-23.0436 Y40.6101 
G01 X-22.9220 Y40.6343 
G01 X-22.7980 Y40.6343 
G01 X-22.6764 Y40.6101 
G01 X-22.5619 Y40.5627 
G01 X-22.4588 Y40.4938 
G01 X-14.3443 Y32.3793 
G01 X-8.1930 Y32.3793 
G01 X-8.0714 Y32.3551 
G01 X-7.9569 Y32.3077 
G01 X-7.8538 Y32.2388 
G01 X-7.7662 Y32.1512 
G01 X-7.6973 Y32.0481 
G01 X-7.6499 Y31.9336 
G01 X-7.6257 Y31.8120 
G01 X-7.6257 Y31.6880 
G01 X-7.6437 Y31.5976 
G01 X-6.7998 Y30.7537 
G00 Z5.0000 
G00 X-7.2043 Y39.5535 
G01 Z-0.1500 F250.00 
G01 X-9.3057 Y39.5535 F200.00 
G01 X-9.4746 Y39.5802 
G01 X-9.6373 Y39.6331 
G01 X-9.7897 Y39.7107 
G01 X-9.9280 Y39.8113 
G01 X-10.0489 Y39.9322 
G01 X-10.1495 Y40.0705 
G01 X-10.2271 Y40.2229 
G01 X-10.2800 Y40.3856 
G01 X-10.3067 Y40.5545 
G01 X-10.3067 Y40.7255 
G01 X-10.2800 Y40.8944 
G01 X-10.2271 Y41.0571 
G01 X-10.1495 Y41.2095 
G01 X-10.0489 Y41.3478 
G01 X-9.9280 Y41.4687 
G01 X-9.7897 Y41.5693 
G01 X-9.6373 Y41.6469 
G01 X-9.4746 Y41.6998 
G01 X-9.3057 Y41.7265 
G01 X-7.2043 Y41.7265 
G01 X-7.0354 Y41.6998 
G01 X-6.8727 Y41.6469 
G01 X-6.7203 Y41.5693 
G01 X-6.5820 Y41.4687 
G01 X-6.4611 Y41.3478 
G01 X-6.3605 Y41.2095 
G01 X-6.2829 Y41.0571 
G01 X-6.2300 Y40.8944 
G01 X-6.2033 Y40.7255 
G01 X-6.2033 Y40.5545 
G01 X-6.2300 Y40.3856 
G01 X-6.2829 Y40.2229 
G01 X-6.3605 Y40.0705 
G01 X-6.4611 Y39.9322 
G01 X-6.5820 Y39.8113 
G01 X-6.7203 Y39.7107 
G01 X-6.8727 Y39.6331 
G01 X-7.0354 Y39.5802 
G01 X-7.2043 Y39.5535 
G00 Z5.0000 
G00 X-7.2043 Y37.0135 
G01 Z-0.1500 F250.00 
G01 X-9.3057 Y37.0135 F200.00 
G01 X-9.4746 Y37.0402 
G01 X-9.6373 Y37.0931 
G01 X-9.7897 Y37.1707 
G01 X-9.9280 Y37.2713 
G01 X-10.0004 Y37.3437 
G01 X-15.9495 Y37.3437 
G01 X-16.0956 Y37.3728 
G01 X-16.2332 Y37.4298 
G01 X-16.3571 Y37.5125 
G01 X-19.5919 Y40.7473 
G01 X-89.9514 Y40.7473 
G01 X-90.9123 Y39.7864 
G01 X-90.9123 Y23.4990 
G01 X-82.2390 Y32.1723 
G01 X-82.1187 Y32.2417 
G01 X-81.9845 Y32.2777 
G01 X-57.7155 Y32.2777 
G01 X-57.5813 Y32.2417 
G01 X-57.4610 Y32.1723 
G01 X-57.3627 Y32.0740 
G01 X-54.8486 Y29.5599 
G01 X-54.2020 Y29.5599 
G01 X-53.6251 Y28.9830 
G01 X-53.6251 Y28.1670 
G01 X-54.0823 Y27.7098 
G01 X-54.0823 Y22.0155 
G01 X-53.9822 Y21.9486 
G01 X-53.8450 Y21.8114 
G01 X-53.7372 Y21.6501 
G01 X-53.6629 Y21.4709 
G01 X-53.6251 Y21.2806 
G01 X-53.6251 Y19.3594 
G01 X-53.6629 Y19.1691 
G01 X-53.7372 Y18.9899 
G01 X-53.8450 Y18.8286 
G01 X-53.9822 Y18.6914 
G01 X-54.1435 Y18.5836 
G01 X-54.3227 Y18.5093 
G01 X-54.5130 Y18.4715 
G01 X-54.7070 Y18.4715 
G01 X-54.8973 Y18.5093 
G01 X-55.0765 Y18.5836 
G01 X-55.2378 Y18.6914 
G01 X-55.3750 Y18.8286 
G01 X-55.4828 Y18.9899 
G01 X-55.5571 Y19.1691 
G01 X-55.5949 Y19.3594 
G01 X-55.5949 Y21.2806 
G01 X-55.5571 Y21.4709 
G01 X-55.4828 Y21.6501 
G01 X-55.3750 Y21.8114 
G01 X-55.2378 Y21.9486 
G01 X-55.1377 Y22.0155 
G01 X-55.1377 Y27.7098 
G01 X-55.5949 Y28.1670 
G01 X-55.5949 Y28.8136 
G01 X-58.0036 Y31.2223 
G01 X-81.6964 Y31.2223 
G01 X-90.9123 Y22.0064 
G01 X-90.9123 Y11.6486 
G01 X-90.0022 Y10.7385 
G01 X-89.4395 Y10.7385 
G01 X-89.2508 Y10.7086 
G01 X-89.0692 Y10.6496 
G01 X-88.8990 Y10.5629 
G01 X-88.7445 Y10.4506 
G01 X-88.6094 Y10.3155 
G01 X-88.4971 Y10.1610 
G01 X-88.4104 Y9.9908 
G01 X-88.3514 Y9.8092 
G01 X-88.3215 Y9.6205 
G01 X-88.3215 Y9.4295 
G01 X-88.3514 Y9.2408 
G01 X-88.4104 Y9.0592 
G01 X-88.4971 Y8.8890 
G01 X-88.6094 Y8.7345 
G01 X-88.7445 Y8.5994 
G01 X-88.8990 Y8.4871 
G01 X-89.0692 Y8.4004 
G01 X-89.2508 Y8.3414 
G01 X-89.4395 Y8.3115 
G01 X-90.2655 Y8.3115 
G01 X-90.4542 Y8.3414 
G01 X-90.6358 Y8.4004 
G01 X-90.8060 Y8.4871 
G01 X-90.9605 Y8.5994 
G01 X-91.0956 Y8.7345 
G01 X-91.2079 Y8.8890 
G01 X-91.2946 Y9.0592 
G01 X-91.3536 Y9.2408 
G01 X-91.3835 Y9.4295 
G01 X-91.3835 Y9.6205 
G01 X-91.3536 Y9.8092 
G01 X-91.2946 Y9.9908 
G01 X-91.2079 Y10.1610 
G01 X-91.0956 Y10.3155 
G01 X-91.0837 Y10.3274 
G01 X-91.8623 Y11.1060 
G01 X-91.9317 Y11.2263 
G01 X-91.9677 Y11.3605 
G01 X-91.9677 Y40.0745 
G01 X-91.9317 Y40.2087 
G01 X-91.8623 Y40.3290 
G01 X-91.7640 Y40.4273 
G01 X-90.5923 Y41.5990 
G01 X-90.4940 Y41.6973 
G01 X-90.3737 Y41.7667 
G01 X-90.2395 Y41.8027 
G01 X-19.5919 Y41.8027 
G01 X-19.5321 Y41.8625 
G01 X-19.4082 Y41.9452 
G01 X-19.2706 Y42.0022 
G01 X-19.1245 Y42.0313 
G01 X-18.9755 Y42.0313 
G01 X-18.8294 Y42.0022 
G01 X-18.6918 Y41.9452 
G01 X-18.5679 Y41.8625 
G01 X-15.5617 Y38.8563 
G01 X-10.0004 Y38.8563 
G01 X-9.9280 Y38.9287 
G01 X-9.7897 Y39.0293 
G01 X-9.6373 Y39.1069 
G01 X-9.4746 Y39.1598 
G01 X-9.3057 Y39.1865 
G01 X-7.2043 Y39.1865 
G01 X-7.0354 Y39.1598 
G01 X-6.8727 Y39.1069 
G01 X-6.7203 Y39.0293 
G01 X-6.5820 Y38.9287 
G01 X-6.4611 Y38.8078 
G01 X-6.3605 Y38.6695 
G01 X-6.2829 Y38.5171 
G01 X-6.2300 Y38.3544 
G01 X-6.2033 Y38.1855 
G01 X-6.2033 Y38.0145 
G01 X-6.2300 Y37.8456 
G01 X-6.2829 Y37.6829 
G01 X-6.3605 Y37.5305 
G01 X-6.4611 Y37.3922 
G01 X-6.5820 Y37.2713 
G01 X-6.7203 Y37.1707 
G01 X-6.8727 Y37.0931 
G01 X-7.0354 Y37.0402 
G01 X-7.2043 Y37.0135 
G00 Z5.0000 
G00 X-17.8505 Y19.5895 
G01 Z-0.1500 F250.00 
G01 X-17.8505 Y19.7805 F200.00 
G01 X-17.8206 Y19.9692 
G01 X-17.7956 Y20.0463 
G01 X-23.0237 Y26.3201 
G01 X-23.2680 Y26.3201 
G01 X-23.4966 Y26.5487 
G01 X-33.0945 Y26.5487 
G01 X-33.2406 Y26.5778 
G01 X-33.3782 Y26.6348 
G01 X-33.5021 Y26.7175 
G01 X-33.6075 Y26.8229 
G01 X-33.6902 Y26.9468 
G01 X-33.7472 Y27.0844 
G01 X-33.7763 Y27.2305 
G01 X-33.7763 Y27.3795 
G01 X-33.7472 Y27.5256 
G01 X-33.6902 Y27.6632 
G01 X-33.6075 Y27.7871 
G01 X-33.5021 Y27.8925 
G01 X-33.3782 Y27.9752 
G01 X-33.2406 Y28.0322 
G01 X-33.0945 Y28.0613 
G01 X-23.4966 Y28.0613 
G01 X-23.2680 Y28.2899 
G01 X-22.4520 Y28.2899 
G01 X-21.8751 Y27.7130 
G01 X-21.8751 Y27.3045 
G01 X-16.5360 Y20.8976 
G01 X-16.3528 Y20.8686 
G01 X-16.1712 Y20.8096 
G01 X-16.0010 Y20.7229 
G01 X-15.8465 Y20.6106 
G01 X-15.7114 Y20.4755 
G01 X-15.5991 Y20.3210 
G01 X-15.5124 Y20.1508 
G01 X-15.4534 Y19.9692 
G01 X-15.4235 Y19.7805 
G01 X-15.4235 Y19.5895 
G01 X-15.4534 Y19.4008 
G01 X-15.5124 Y19.2192 
G01 X-15.5991 Y19.0490 
G01 X-15.7114 Y18.8945 
G01 X-15.8465 Y18.7594 
G01 X-16.0010 Y18.6471 
G01 X-16.1712 Y18.5604 
G01 X-16.3528 Y18.5014 
G01 X-16.5415 Y18.4715 
G01 X-16.7325 Y18.4715 
G01 X-16.9212 Y18.5014 
G01 X-17.1028 Y18.5604 
G01 X-17.2730 Y18.6471 
G01 X-17.4275 Y18.7594 
G01 X-17.5626 Y18.8945 
G01 X-17.6749 Y19.0490 
G01 X-17.7616 Y19.2192 
G01 X-17.8206 Y19.4008 
G01 X-17.8505 Y19.5895 
G00 Z5.0000 
G00 X-20.3905 Y15.7795 
G01 Z-0.1500 F250.00 
G01 X-20.3905 Y15.9705 F200.00 
G01 X-20.3606 Y16.1592 
G01 X-20.3016 Y16.3408 
G01 X-20.2149 Y16.5110 
G01 X-20.1026 Y16.6655 
G01 X-19.9675 Y16.8006 
G01 X-19.8130 Y16.9129 
G01 X-19.6428 Y16.9996 
G01 X-19.4612 Y17.0586 
G01 X-19.2725 Y17.0885 
G01 X-19.0815 Y17.0885 
G01 X-18.8928 Y17.0586 
G01 X-18.7112 Y16.9996 
G01 X-18.5410 Y16.9129 
G01 X-18.3864 Y16.8006 
G01 X-18.2514 Y16.6655 
G01 X-18.1391 Y16.5110 
G01 X-18.0524 Y16.3408 
G01 X-17.9934 Y16.1592 
G01 X-17.9635 Y15.9705 
G01 X-17.9635 Y15.7795 
G01 X-17.9934 Y15.5908 
G01 X-18.0524 Y15.4092 
G01 X-18.1391 Y15.2390 
G01 X-18.2514 Y15.0845 
G01 X-18.3864 Y14.9494 
G01 X-18.5410 Y14.8371 
G01 X-18.7112 Y14.7504 
G01 X-18.8928 Y14.6914 
G01 X-19.0815 Y14.6615 
G01 X-19.2725 Y14.6615 
G01 X-19.4612 Y14.6914 
G01 X-19.6428 Y14.7504 
G01 X-19.8130 Y14.8371 
G01 X-19.9675 Y14.9494 
G01 X-20.1026 Y15.0845 
G01 X-20.2149 Y15.2390 
G01 X-20.3016 Y15.4092 
G01 X-20.3606 Y15.5908 
G01 X-20.3905 Y15.7795 
G00 Z5.0000 
G00 X-17.8505 Y14.5095 
G01 Z-0.1500 F250.00 
G01 X-17.8505 Y14.7005 F200.00 
G01 X-17.8206 Y14.8892 
G01 X-17.7616 Y15.0708 
G01 X-17.6749 Y15.2410 
G01 X-17.5626 Y15.3955 
G01 X-17.4275 Y15.5306 
G01 X-17.2730 Y15.6429 
G01 X-17.1028 Y15.7296 
G01 X-16.9212 Y15.7886 
G01 X-16.7325 Y15.8185 
G01 X-16.5415 Y15.8185 
G01 X-16.3528 Y15.7886 
G01 X-16.1712 Y15.7296 
G01 X-16.0010 Y15.6429 
G01 X-15.8465 Y15.5306 
G01 X-15.7114 Y15.3955 
G01 X-15.5991 Y15.2410 
G01 X-15.5124 Y15.0708 
G01 X-15.4534 Y14.8892 
G01 X-15.4235 Y14.7005 
G01 X-15.4235 Y14.5095 
G01 X-15.4534 Y14.3208 
G01 X-15.5124 Y14.1392 
G01 X-15.5991 Y13.9690 
G01 X-15.7114 Y13.8145 
G01 X-15.8465 Y13.6794 
G01 X-16.0010 Y13.5671 
G01 X-16.1712 Y13.4804 
G01 X-16.3528 Y13.4214 
G01 X-16.5415 Y13.3915 
G01 X-16.7325 Y13.3915 
G01 X-16.9212 Y13.4214 
G01 X-17.1028 Y13.4804 
G01 X-17.2730 Y13.5671 
G01 X-17.4275 Y13.6794 
G01 X-17.5626 Y13.8145 
G01 X-17.6749 Y13.9690 
G01 X-17.7616 Y14.1392 
G01 X-17.8206 Y14.3208 
G01 X-17.8505 Y14.5095 
G00 Z5.0000 
G00 X-20.1026 Y14.1255 
G01 Z-0.1500 F250.00 
G01 X-19.9675 Y14.2606 F200.00 
G01 X-19.8130 Y14.3729 
G01 X-19.6428 Y14.4596 
G01 X-19.4612 Y14.5186 
G01 X-19.2725 Y14.5485 
G01 X-19.0815 Y14.5485 
G01 X-18.8928 Y14.5186 
G01 X-18.7112 Y14.4596 
G01 X-18.5410 Y14.3729 
G01 X-18.3864 Y14.2606 
G01 X-18.2514 Y14.1255 
G01 X-18.1391 Y13.9710 
G01 X-18.0524 Y13.8008 
G01 X-17.9934 Y13.6192 
G01 X-17.9635 Y13.4305 
G01 X-17.9635 Y13.2395 
G01 X-17.9934 Y13.0508 
G01 X-18.0524 Y12.8692 
G01 X-18.1391 Y12.6990 
G01 X-18.2514 Y12.5445 
G01 X-18.3864 Y12.4094 
G01 X-18.5410 Y12.2971 
G01 X-18.7112 Y12.2104 
G01 X-18.8928 Y12.1514 
G01 X-19.0815 Y12.1215 
G01 X-19.2725 Y12.1215 
G01 X-19.4612 Y12.1514 
G01 X-19.6428 Y12.2104 
G01 X-19.8130 Y12.2971 
G01 X-19.9675 Y12.4094 
G01 X-20.1026 Y12.5445 
G01 X-20.1275 Y12.5787 
G01 X-21.8751 Y12.5787 
G01 X-21.8751 Y12.2920 
G01 X-22.1037 Y12.0634 
G01 X-22.1037 Y10.0855 
G01 X-22.1328 Y9.9394 
G01 X-22.1898 Y9.8018 
G01 X-22.2725 Y9.6779 
G01 X-22.3779 Y9.5725 
G01 X-23.0129 Y8.9375 
G01 X-23.1368 Y8.8548 
G01 X-23.2744 Y8.7978 
G01 X-23.4205 Y8.7687 
G01 X-24.7634 Y8.7687 
G01 X-24.9920 Y8.5401 
G01 X-25.8080 Y8.5401 
G01 X-26.3849 Y9.1170 
G01 X-26.3849 Y9.9330 
G01 X-25.8080 Y10.5099 
G01 X-24.9920 Y10.5099 
G01 X-24.7634 Y10.2813 
G01 X-23.8083 Y10.2813 
G01 X-23.6163 Y10.4733 
G01 X-23.6163 Y12.0634 
G01 X-23.8449 Y12.2920 
G01 X-23.8449 Y13.1080 
G01 X-23.6163 Y13.3366 
G01 X-23.6163 Y13.9684 
G01 X-23.8449 Y14.1970 
G01 X-23.8449 Y15.0130 
G01 X-23.2680 Y15.5899 
G01 X-22.4520 Y15.5899 
G01 X-21.8751 Y15.0130 
G01 X-21.8751 Y14.1970 
G01 X-21.9808 Y14.0913 
G01 X-20.1275 Y14.0913 
G01 X-20.1026 Y14.1255 
G00 Z5.0000 
G00 X-42.3180 Y21.3049 
G01 Z-0.1500 F250.00 
G01 X-41.5020 Y21.3049 F200.00 
G01 X-40.9251 Y20.7280 
G01 X-40.9251 Y19.9120 
G01 X-41.5020 Y19.3351 
G01 X-42.3180 Y19.3351 
G01 X-42.6736 Y19.6907 
G01 X-43.4651 Y19.6907 
G01 X-43.4651 Y19.3594 
G01 X-43.5029 Y19.1691 
G01 X-43.5772 Y18.9899 
G01 X-43.6850 Y18.8286 
G01 X-43.8222 Y18.6914 
G01 X-43.9835 Y18.5836 
G01 X-44.1627 Y18.5093 
G01 X-44.3530 Y18.4715 
G01 X-44.5470 Y18.4715 
G01 X-44.7373 Y18.5093 
G01 X-44.9165 Y18.5836 
G01 X-45.0778 Y18.6914 
G01 X-45.2150 Y18.8286 
G01 X-45.3228 Y18.9899 
G01 X-45.3971 Y19.1691 
G01 X-45.4349 Y19.3594 
G01 X-45.4349 Y21.2806 
G01 X-45.3971 Y21.4709 
G01 X-45.3228 Y21.6501 
G01 X-45.2150 Y21.8114 
G01 X-45.0778 Y21.9486 
G01 X-44.9165 Y22.0564 
G01 X-44.7373 Y22.1307 
G01 X-44.5470 Y22.1685 
G01 X-44.3530 Y22.1685 
G01 X-44.1627 Y22.1307 
G01 X-43.9835 Y22.0564 
G01 X-43.8222 Y21.9486 
G01 X-43.6850 Y21.8114 
G01 X-43.5772 Y21.6501 
G01 X-43.5029 Y21.4709 
G01 X-43.4651 Y21.2806 
G01 X-43.4651 Y20.9493 
G01 X-42.6736 Y20.9493 
G01 X-42.3180 Y21.3049 
G00 Z5.0000 
G00 X-63.2149 Y19.3594 
G01 Z-0.1500 F250.00 
G01 X-63.2149 Y21.2806 F200.00 
G01 X-63.1771 Y21.4709 
G01 X-63.1028 Y21.6501 
G01 X-62.9950 Y21.8114 
G01 X-62.8578 Y21.9486 
G01 X-62.7632 Y22.0119 
G01 X-68.1636 Y27.4123 
G01 X-79.7914 Y27.4123 
G01 X-84.5623 Y22.6414 
G01 X-84.5623 Y10.7255 
G01 X-84.5983 Y10.5913 
G01 X-84.6677 Y10.4710 
G01 X-85.2139 Y9.9248 
G01 X-85.1764 Y9.8092 
G01 X-85.1465 Y9.6205 
G01 X-85.1465 Y9.4295 
G01 X-85.1764 Y9.2408 
G01 X-85.2354 Y9.0592 
G01 X-85.3221 Y8.8890 
G01 X-85.4344 Y8.7345 
G01 X-85.5695 Y8.5994 
G01 X-85.7240 Y8.4871 
G01 X-85.8942 Y8.4004 
G01 X-86.0758 Y8.3414 
G01 X-86.2645 Y8.3115 
G01 X-87.0905 Y8.3115 
G01 X-87.2792 Y8.3414 
G01 X-87.4608 Y8.4004 
G01 X-87.6310 Y8.4871 
G01 X-87.7855 Y8.5994 
G01 X-87.9206 Y8.7345 
G01 X-88.0329 Y8.8890 
G01 X-88.1196 Y9.0592 
G01 X-88.1786 Y9.2408 
G01 X-88.2085 Y9.4295 
G01 X-88.2085 Y9.6205 
G01 X-88.1786 Y9.8092 
G01 X-88.1196 Y9.9908 
G01 X-88.0329 Y10.1610 
G01 X-87.9206 Y10.3155 
G01 X-87.7855 Y10.4506 
G01 X-87.6310 Y10.5629 
G01 X-87.4608 Y10.6496 
G01 X-87.2792 Y10.7086 
G01 X-87.0905 Y10.7385 
G01 X-86.2645 Y10.7385 
G01 X-86.0758 Y10.7086 
G01 X-85.9602 Y10.6711 
G01 X-85.6177 Y11.0136 
G01 X-85.6177 Y22.9295 
G01 X-85.5817 Y23.0637 
G01 X-85.5123 Y23.1840 
G01 X-85.4140 Y23.2823 
G01 X-80.3340 Y28.3623 
G01 X-80.2137 Y28.4317 
G01 X-80.0795 Y28.4677 
G01 X-67.8755 Y28.4677 
G01 X-67.7413 Y28.4317 
G01 X-67.6210 Y28.3623 
G01 X-61.9060 Y22.6473 
G01 X-61.8077 Y22.5490 
G01 X-61.7383 Y22.4287 
G01 X-61.7023 Y22.2945 
G01 X-61.7023 Y22.0155 
G01 X-61.6022 Y21.9486 
G01 X-61.4650 Y21.8114 
G01 X-61.3572 Y21.6501 
G01 X-61.2829 Y21.4709 
G01 X-61.2451 Y21.2806 
G01 X-61.2451 Y19.3594 
G01 X-61.2829 Y19.1691 
G01 X-61.3572 Y18.9899 
G01 X-61.4650 Y18.8286 
G01 X-61.6022 Y18.6914 
G01 X-61.7635 Y18.5836 
G01 X-61.9427 Y18.5093 
G01 X-62.1330 Y18.4715 
G01 X-62.3270 Y18.4715 
G01 X-62.5173 Y18.5093 
G01 X-62.6965 Y18.5836 
G01 X-62.8578 Y18.6914 
G01 X-62.9950 Y18.8286 
G01 X-63.1028 Y18.9899 
G01 X-63.1771 Y19.1691 
G01 X-63.2149 Y19.3594 
G00 Z5.0000 
G00 X-60.6749 Y19.3594 
G01 Z-0.1500 F250.00 
G01 X-60.6749 Y21.2806 F200.00 
G01 X-60.6371 Y21.4709 
G01 X-60.5628 Y21.6501 
G01 X-60.5362 Y21.6899 
G01 X-67.5286 Y28.6823 
G01 X-80.4264 Y28.6823 
G01 X-86.4673 Y22.6414 
G01 X-86.4673 Y15.6981 
G01 X-86.3590 Y15.6429 
G01 X-86.2045 Y15.5306 
G01 X-86.0694 Y15.3955 
G01 X-85.9571 Y15.2410 
G01 X-85.8704 Y15.0708 
G01 X-85.8114 Y14.8892 
G01 X-85.7815 Y14.7005 
G01 X-85.7815 Y11.9695 
G01 X-85.8114 Y11.7808 
G01 X-85.8704 Y11.5992 
G01 X-85.9571 Y11.4290 
G01 X-86.0694 Y11.2744 
G01 X-86.2045 Y11.1394 
G01 X-86.3590 Y11.0271 
G01 X-86.5292 Y10.9404 
G01 X-86.7108 Y10.8814 
G01 X-86.8995 Y10.8515 
G01 X-87.0905 Y10.8515 
G01 X-87.2792 Y10.8814 
G01 X-87.4608 Y10.9404 
G01 X-87.6310 Y11.0271 
G01 X-87.7855 Y11.1394 
G01 X-87.9206 Y11.2744 
G01 X-88.0329 Y11.4290 
G01 X-88.1196 Y11.5992 
G01 X-88.1786 Y11.7808 
G01 X-88.2085 Y11.9695 
G01 X-88.2085 Y14.7005 
G01 X-88.1786 Y14.8892 
G01 X-88.1196 Y15.0708 
G01 X-88.0329 Y15.2410 
G01 X-87.9206 Y15.3955 
G01 X-87.7855 Y15.5306 
G01 X-87.6310 Y15.6429 
G01 X-87.5227 Y15.6981 
G01 X-87.5227 Y22.9295 
G01 X-87.4867 Y23.0637 
G01 X-87.4173 Y23.1840 
G01 X-87.3190 Y23.2823 
G01 X-80.9690 Y29.6323 
G01 X-80.8487 Y29.7017 
G01 X-80.7145 Y29.7377 
G01 X-67.2405 Y29.7377 
G01 X-67.1063 Y29.7017 
G01 X-66.9860 Y29.6323 
G01 X-66.8877 Y29.5340 
G01 X-59.5046 Y22.1509 
G01 X-59.4027 Y22.1307 
G01 X-59.2235 Y22.0564 
G01 X-59.0622 Y21.9486 
G01 X-58.9250 Y21.8114 
G01 X-58.8172 Y21.6501 
G01 X-58.7429 Y21.4709 
G01 X-58.7051 Y21.2806 
G01 X-58.7051 Y19.3594 
G01 X-58.7429 Y19.1691 
G01 X-58.8172 Y18.9899 
G01 X-58.9250 Y18.8286 
G01 X-59.0622 Y18.6914 
G01 X-59.2235 Y18.5836 
G01 X-59.4027 Y18.5093 
G01 X-59.5930 Y18.4715 
G01 X-59.7870 Y18.4715 
G01 X-59.9773 Y18.5093 
G01 X-60.1565 Y18.5836 
G01 X-60.3178 Y18.6914 
G01 X-60.4550 Y18.8286 
G01 X-60.5628 Y18.9899 
G01 X-60.6371 Y19.1691 
G01 X-60.6749 Y19.3594 
G00 Z5.0000 
G00 X-73.3749 Y19.3594 
G01 Z-0.1500 F250.00 
G01 X-73.3749 Y21.2806 F200.00 
G01 X-73.3371 Y21.4709 
G01 X-73.2628 Y21.6501 
G01 X-73.1550 Y21.8114 
G01 X-73.0178 Y21.9486 
G01 X-72.8565 Y22.0564 
G01 X-72.6773 Y22.1307 
G01 X-72.4870 Y22.1685 
G01 X-72.2930 Y22.1685 
G01 X-72.1027 Y22.1307 
G01 X-71.9235 Y22.0564 
G01 X-71.7622 Y21.9486 
G01 X-71.6250 Y21.8114 
G01 X-71.5172 Y21.6501 
G01 X-71.4429 Y21.4709 
G01 X-71.4051 Y21.2806 
G01 X-71.4051 Y19.3594 
G01 X-71.4429 Y19.1691 
G01 X-71.5172 Y18.9899 
G01 X-71.6250 Y18.8286 
G01 X-71.7622 Y18.6914 
G01 X-71.9235 Y18.5836 
G01 X-72.1027 Y18.5093 
G01 X-72.2930 Y18.4715 
G01 X-72.4870 Y18.4715 
G01 X-72.6773 Y18.5093 
G01 X-72.8565 Y18.5836 
G01 X-73.0178 Y18.6914 
G01 X-73.1550 Y18.8286 
G01 X-73.2628 Y18.9899 
G01 X-73.3371 Y19.1691 
G01 X-73.3749 Y19.3594 
G00 Z5.0000 
G00 X-70.8349 Y19.3594 
G01 Z-0.1500 F250.00 
G01 X-70.8349 Y21.2806 F200.00 
G01 X-70.7971 Y21.4709 
G01 X-70.7228 Y21.6501 
G01 X-70.6150 Y21.8114 
G01 X-70.4778 Y21.9486 
G01 X-70.3165 Y22.0564 
G01 X-70.1373 Y22.1307 
G01 X-69.9470 Y22.1685 
G01 X-69.7530 Y22.1685 
G01 X-69.5627 Y22.1307 
G01 X-69.3835 Y22.0564 
G01 X-69.2222 Y21.9486 
G01 X-69.0850 Y21.8114 
G01 X-68.9772 Y21.6501 
G01 X-68.9029 Y21.4709 
G01 X-68.8651 Y21.2806 
G01 X-68.8651 Y19.3594 
G01 X-68.9029 Y19.1691 
G01 X-68.9772 Y18.9899 
G01 X-69.0850 Y18.8286 
G01 X-69.2222 Y18.6914 
G01 X-69.3835 Y18.5836 
G01 X-69.5627 Y18.5093 
G01 X-69.7530 Y18.4715 
G01 X-69.9470 Y18.4715 
G01 X-70.1373 Y18.5093 
G01 X-70.3165 Y18.5836 
G01 X-70.4778 Y18.6914 
G01 X-70.6150 Y18.8286 
G01 X-70.7228 Y18.9899 
G01 X-70.7971 Y19.1691 
G01 X-70.8349 Y19.3594 
G00 Z5.0000 
G00 X-65.7549 Y19.3594 
G01 Z-0.1500 F250.00 
G01 X-65.7549 Y21.2806 F200.00 
G01 X-65.7171 Y21.4709 
G01 X-65.6428 Y21.6501 
G01 X-65.5350 Y21.8114 
G01 X-65.3978 Y21.9486 
G01 X-65.2977 Y22.0155 
G01 X-65.2977 Y22.6414 
G01 X-68.7986 Y26.1423 
G01 X-79.1564 Y26.1423 
G01 X-83.2923 Y22.0064 
G01 X-83.2923 Y8.1855 
G01 X-83.3283 Y8.0513 
G01 X-83.3977 Y7.9310 
G01 X-84.5251 Y6.8036 
G01 X-84.5414 Y6.7008 
G01 X-84.6004 Y6.5192 
G01 X-84.6871 Y6.3490 
G01 X-84.7994 Y6.1945 
G01 X-84.9344 Y6.0594 
G01 X-85.0890 Y5.9471 
G01 X-85.2592 Y5.8604 
G01 X-85.4408 Y5.8014 
G01 X-85.6295 Y5.7715 
G01 X-87.0905 Y5.7715 
G01 X-87.2792 Y5.8014 
G01 X-87.4608 Y5.8604 
G01 X-87.6310 Y5.9471 
G01 X-87.7855 Y6.0594 
G01 X-87.9206 Y6.1945 
G01 X-88.0329 Y6.3490 
G01 X-88.1196 Y6.5192 
G01 X-88.1786 Y6.7008 
G01 X-88.2085 Y6.8895 
G01 X-88.2085 Y7.0805 
G01 X-88.1786 Y7.2692 
G01 X-88.1196 Y7.4508 
G01 X-88.0329 Y7.6210 
G01 X-87.9206 Y7.7755 
G01 X-87.7855 Y7.9106 
G01 X-87.6310 Y8.0229 
G01 X-87.4608 Y8.1096 
G01 X-87.2792 Y8.1686 
G01 X-87.0905 Y8.1985 
G01 X-85.6295 Y8.1985 
G01 X-85.4408 Y8.1686 
G01 X-85.2592 Y8.1096 
G01 X-85.0890 Y8.0229 
G01 X-84.9344 Y7.9106 
G01 X-84.9226 Y7.8987 
G01 X-84.3477 Y8.4736 
G01 X-84.3477 Y22.2945 
G01 X-84.3117 Y22.4287 
G01 X-84.2423 Y22.5490 
G01 X-84.1440 Y22.6473 
G01 X-79.6990 Y27.0923 
G01 X-79.5787 Y27.1617 
G01 X-79.4445 Y27.1977 
G01 X-68.5105 Y27.1977 
G01 X-68.3763 Y27.1617 
G01 X-68.2560 Y27.0923 
G01 X-68.1577 Y26.9940 
G01 X-64.3477 Y23.1840 
G01 X-64.2783 Y23.0637 
G01 X-64.2423 Y22.9295 
G01 X-64.2423 Y22.0155 
G01 X-64.1422 Y21.9486 
G01 X-64.0050 Y21.8114 
G01 X-63.8972 Y21.6501 
G01 X-63.8229 Y21.4709 
G01 X-63.7851 Y21.2806 
G01 X-63.7851 Y19.3594 
G01 X-63.8229 Y19.1691 
G01 X-63.8972 Y18.9899 
G01 X-64.0050 Y18.8286 
G01 X-64.1422 Y18.6914 
G01 X-64.3035 Y18.5836 
G01 X-64.4827 Y18.5093 
G01 X-64.6730 Y18.4715 
G01 X-64.8670 Y18.4715 
G01 X-65.0573 Y18.5093 
G01 X-65.2365 Y18.5836 
G01 X-65.3978 Y18.6914 
G01 X-65.5350 Y18.8286 
G01 X-65.6428 Y18.9899 
G01 X-65.7171 Y19.1691 
G01 X-65.7549 Y19.3594 
G00 Z5.0000 
G00 X-68.2949 Y19.3594 
G01 Z-0.1500 F250.00 
G01 X-68.2949 Y21.2806 F200.00 
G01 X-68.2571 Y21.4709 
G01 X-68.1828 Y21.6501 
G01 X-68.0750 Y21.8114 
G01 X-67.9378 Y21.9486 
G01 X-67.7765 Y22.0564 
G01 X-67.5973 Y22.1307 
G01 X-67.4070 Y22.1685 
G01 X-67.2130 Y22.1685 
G01 X-67.0227 Y22.1307 
G01 X-66.8435 Y22.0564 
G01 X-66.6822 Y21.9486 
G01 X-66.5450 Y21.8114 
G01 X-66.4372 Y21.6501 
G01 X-66.3629 Y21.4709 
G01 X-66.3251 Y21.2806 
G01 X-66.3251 Y19.3594 
G01 X-66.3629 Y19.1691 
G01 X-66.4372 Y18.9899 
G01 X-66.5450 Y18.8286 
G01 X-66.6822 Y18.6914 
G01 X-66.8435 Y18.5836 
G01 X-67.0227 Y18.5093 
G01 X-67.2130 Y18.4715 
G01 X-67.4070 Y18.4715 
G01 X-67.5973 Y18.5093 
G01 X-67.7765 Y18.5836 
G01 X-67.9378 Y18.6914 
G01 X-68.0750 Y18.8286 
G01 X-68.1828 Y18.9899 
G01 X-68.2571 Y19.1691 
G01 X-68.2949 Y19.3594 
G00 Z5.0000 
G00 X-58.1349 Y19.3594 
G01 Z-0.1500 F250.00 
G01 X-58.1349 Y21.2806 F200.00 
G01 X-58.0971 Y21.4709 
G01 X-58.0228 Y21.6501 
G01 X-57.9150 Y21.8114 
G01 X-57.7778 Y21.9486 
G01 X-57.6777 Y22.0155 
G01 X-57.6777 Y25.1698 
G01 X-58.1349 Y25.6270 
G01 X-58.1349 Y26.2736 
G01 X-61.8136 Y29.9523 
G01 X-81.0614 Y29.9523 
G01 X-89.0073 Y22.0064 
G01 X-89.0073 Y15.6981 
G01 X-88.8990 Y15.6429 
G01 X-88.7445 Y15.5306 
G01 X-88.6094 Y15.3955 
G01 X-88.4971 Y15.2410 
G01 X-88.4104 Y15.0708 
G01 X-88.3514 Y14.8892 
G01 X-88.3215 Y14.7005 
G01 X-88.3215 Y11.9695 
G01 X-88.3514 Y11.7808 
G01 X-88.4104 Y11.5992 
G01 X-88.4971 Y11.4290 
G01 X-88.6094 Y11.2744 
G01 X-88.7445 Y11.1394 
G01 X-88.8990 Y11.0271 
G01 X-89.0692 Y10.9404 
G01 X-89.2508 Y10.8814 
G01 X-89.4395 Y10.8515 
G01 X-89.6305 Y10.8515 
G01 X-89.8192 Y10.8814 
G01 X-90.0008 Y10.9404 
G01 X-90.1710 Y11.0271 
G01 X-90.3255 Y11.1394 
G01 X-90.4606 Y11.2744 
G01 X-90.5729 Y11.4290 
G01 X-90.6596 Y11.5992 
G01 X-90.7186 Y11.7808 
G01 X-90.7485 Y11.9695 
G01 X-90.7485 Y14.7005 
G01 X-90.7186 Y14.8892 
G01 X-90.6596 Y15.0708 
G01 X-90.5729 Y15.2410 
G01 X-90.4606 Y15.3955 
G01 X-90.3255 Y15.5306 
G01 X-90.1710 Y15.6429 
G01 X-90.0627 Y15.6981 
G01 X-90.0627 Y22.2945 
G01 X-90.0267 Y22.4287 
G01 X-89.9573 Y22.5490 
G01 X-89.8590 Y22.6473 
G01 X-81.6040 Y30.9023 
G01 X-81.4837 Y30.9717 
G01 X-81.3495 Y31.0077 
G01 X-61.5255 Y31.0077 
G01 X-61.3913 Y30.9717 
G01 X-61.2710 Y30.9023 
G01 X-61.1727 Y30.8040 
G01 X-57.3886 Y27.0199 
G01 X-56.7420 Y27.0199 
G01 X-56.1651 Y26.4430 
G01 X-56.1651 Y25.6270 
G01 X-56.6223 Y25.1698 
G01 X-56.6223 Y22.0155 
G01 X-56.5222 Y21.9486 
G01 X-56.3850 Y21.8114 
G01 X-56.2772 Y21.6501 
G01 X-56.2029 Y21.4709 
G01 X-56.1651 Y21.2806 
G01 X-56.1651 Y19.3594 
G01 X-56.2029 Y19.1691 
G01 X-56.2772 Y18.9899 
G01 X-56.3850 Y18.8286 
G01 X-56.5222 Y18.6914 
G01 X-56.6835 Y18.5836 
G01 X-56.8627 Y18.5093 
G01 X-57.0530 Y18.4715 
G01 X-57.2470 Y18.4715 
G01 X-57.4373 Y18.5093 
G01 X-57.6165 Y18.5836 
G01 X-57.7778 Y18.6914 
G01 X-57.9150 Y18.8286 
G01 X-58.0228 Y18.9899 
G01 X-58.0971 Y19.1691 
G01 X-58.1349 Y19.3594 
G00 Z5.0000 
G00 X-50.5149 Y19.3594 
G01 Z-0.1500 F250.00 
G01 X-50.5149 Y21.2806 F200.00 
G01 X-50.4771 Y21.4709 
G01 X-50.4028 Y21.6501 
G01 X-50.2950 Y21.8114 
G01 X-50.1578 Y21.9486 
G01 X-50.0577 Y22.0155 
G01 X-50.0577 Y22.2945 
G01 X-50.0217 Y22.4287 
G01 X-49.9523 Y22.5490 
G01 X-49.8540 Y22.6473 
G01 X-49.2190 Y23.2823 
G01 X-49.0987 Y23.3517 
G01 X-48.9645 Y23.3877 
G01 X-41.8405 Y23.3877 
G01 X-41.7063 Y23.3517 
G01 X-41.5860 Y23.2823 
G01 X-41.4877 Y23.1840 
G01 X-37.2464 Y18.9427 
G01 X-31.6805 Y18.9427 
G01 X-31.5463 Y18.9067 
G01 X-31.4260 Y18.8373 
G01 X-31.3277 Y18.7390 
G01 X-29.4227 Y16.8340 
G01 X-29.3533 Y16.7137 
G01 X-29.3173 Y16.5795 
G01 X-29.3173 Y11.6486 
G01 X-25.6386 Y7.9699 
G01 X-24.9920 Y7.9699 
G01 X-24.5348 Y7.5127 
G01 X-20.5386 Y7.5127 
G01 X-19.5777 Y8.4736 
G01 X-19.5777 Y9.6492 
G01 X-19.6428 Y9.6704 
G01 X-19.8130 Y9.7571 
G01 X-19.9675 Y9.8694 
G01 X-20.1026 Y10.0045 
G01 X-20.2149 Y10.1590 
G01 X-20.3016 Y10.3292 
G01 X-20.3606 Y10.5108 
G01 X-20.3905 Y10.6995 
G01 X-20.3905 Y10.8905 
G01 X-20.3606 Y11.0792 
G01 X-20.3016 Y11.2608 
G01 X-20.2149 Y11.4310 
G01 X-20.1026 Y11.5855 
G01 X-19.9675 Y11.7206 
G01 X-19.8130 Y11.8329 
G01 X-19.6428 Y11.9196 
G01 X-19.4612 Y11.9786 
G01 X-19.2725 Y12.0085 
G01 X-19.0815 Y12.0085 
G01 X-18.8928 Y11.9786 
G01 X-18.7112 Y11.9196 
G01 X-18.5410 Y11.8329 
G01 X-18.3864 Y11.7206 
G01 X-18.2514 Y11.5855 
G01 X-18.1391 Y11.4310 
G01 X-18.0524 Y11.2608 
G01 X-17.9934 Y11.0792 
G01 X-17.9635 Y10.8905 
G01 X-17.9635 Y10.6995 
G01 X-17.9934 Y10.5108 
G01 X-18.0524 Y10.3292 
G01 X-18.1391 Y10.1590 
G01 X-18.2514 Y10.0045 
G01 X-18.3864 Y9.8694 
G01 X-18.5223 Y9.7707 
G01 X-18.5223 Y8.1855 
G01 X-18.5583 Y8.0513 
G01 X-18.6277 Y7.9310 
G01 X-19.8977 Y6.6610 
G01 X-19.9960 Y6.5627 
G01 X-20.1163 Y6.4933 
G01 X-20.2505 Y6.4573 
G01 X-24.5348 Y6.4573 
G01 X-24.9920 Y6.0001 
G01 X-25.8080 Y6.0001 
G01 X-26.3849 Y6.5770 
G01 X-26.3849 Y7.2236 
G01 X-30.1690 Y11.0077 
G01 X-30.2673 Y11.1060 
G01 X-30.3367 Y11.2263 
G01 X-30.3727 Y11.3605 
G01 X-30.3727 Y16.2914 
G01 X-31.9686 Y17.8873 
G01 X-37.5345 Y17.8873 
G01 X-37.6687 Y17.9233 
G01 X-37.7890 Y17.9927 
G01 X-42.1286 Y22.3323 
G01 X-48.6764 Y22.3323 
G01 X-48.9968 Y22.0119 
G01 X-48.9022 Y21.9486 
G01 X-48.7650 Y21.8114 
G01 X-48.6572 Y21.6501 
G01 X-48.5829 Y21.4709 
G01 X-48.5451 Y21.2806 
G01 X-48.5451 Y19.3594 
G01 X-48.5829 Y19.1691 
G01 X-48.6572 Y18.9899 
G01 X-48.7650 Y18.8286 
G01 X-48.9022 Y18.6914 
G01 X-49.0635 Y18.5836 
G01 X-49.2427 Y18.5093 
G01 X-49.4330 Y18.4715 
G01 X-49.6270 Y18.4715 
G01 X-49.8173 Y18.5093 
G01 X-49.9965 Y18.5836 
G01 X-50.1578 Y18.6914 
G01 X-50.2950 Y18.8286 
G01 X-50.4028 Y18.9899 
G01 X-50.4771 Y19.1691 
G01 X-50.5149 Y19.3594 
G00 Z5.0000 
G00 X-78.2009 Y24.6680 
G01 Z-0.1500 F250.00 
G01 X-78.2009 Y24.8620 F200.00 
G01 X-78.1631 Y25.0523 
G01 X-78.0888 Y25.2315 
G01 X-77.9810 Y25.3928 
G01 X-77.8438 Y25.5300 
G01 X-77.6825 Y25.6378 
G01 X-77.5033 Y25.7121 
G01 X-77.3130 Y25.7499 
G01 X-77.1190 Y25.7499 
G01 X-76.9287 Y25.7121 
G01 X-76.7495 Y25.6378 
G01 X-76.5882 Y25.5300 
G01 X-76.4510 Y25.3928 
G01 X-76.3432 Y25.2315 
G01 X-76.2689 Y25.0523 
G01 X-76.2311 Y24.8620 
G01 X-76.2311 Y24.6680 
G01 X-76.2689 Y24.4777 
G01 X-76.3432 Y24.2985 
G01 X-76.4510 Y24.1372 
G01 X-76.5882 Y24.0000 
G01 X-76.7495 Y23.8922 
G01 X-76.8407 Y23.8544 
G01 X-76.8407 Y21.9472 
G01 X-76.7050 Y21.8114 
G01 X-76.5972 Y21.6501 
G01 X-76.5229 Y21.4709 
G01 X-76.4851 Y21.2806 
G01 X-76.4851 Y19.3594 
G01 X-76.5229 Y19.1691 
G01 X-76.5972 Y18.9899 
G01 X-76.7050 Y18.8286 
G01 X-76.8422 Y18.6914 
G01 X-77.0035 Y18.5836 
G01 X-77.1827 Y18.5093 
G01 X-77.3730 Y18.4715 
G01 X-77.5670 Y18.4715 
G01 X-77.7573 Y18.5093 
G01 X-77.9365 Y18.5836 
G01 X-78.0978 Y18.6914 
G01 X-78.2350 Y18.8286 
G01 X-78.3428 Y18.9899 
G01 X-78.4171 Y19.1691 
G01 X-78.4549 Y19.3594 
G01 X-78.4549 Y21.2806 
G01 X-78.4171 Y21.4709 
G01 X-78.3428 Y21.6501 
G01 X-78.2350 Y21.8114 
G01 X-78.0993 Y21.9472 
G01 X-78.0993 Y24.3238 
G01 X-78.1631 Y24.4777 
G01 X-78.2009 Y24.6680 
G00 Z5.0000 
G00 X-4.6659 Y30.8087 
G01 Z-0.1500 F250.00 
G01 X-6.1141 Y30.8087 F200.00 
G01 X-6.1587 Y30.8272 
G01 X-6.1928 Y30.8613 
G01 X-6.2113 Y30.9059 
G01 X-6.2113 Y31.3541 
G01 X-6.1928 Y31.3987 
G00 Z5.0000 
G00 X-8.1930 Y30.4743 
G01 Z-0.1500 F250.00 
G01 X-8.0714 Y30.4501 F200.00 
G01 X-7.9569 Y30.4027 
G01 X-7.8538 Y30.3338 
G01 X-7.7662 Y30.2462 
G01 X-7.6973 Y30.1431 
G01 X-7.6872 Y30.1187 
G01 X-6.1728 Y30.1187 
G01 X-6.1587 Y30.1328 
G01 X-6.1141 Y30.1513 
G01 X-4.6659 Y30.1513 
G01 X-4.6213 Y30.1328 
G01 X-4.5872 Y30.0987 
G01 X-4.5687 Y30.0541 
G01 X-4.5687 Y29.6059 
G01 X-4.5872 Y29.5613 
G01 X-4.6213 Y29.5272 
G01 X-4.6659 Y29.5087 
G01 X-6.1141 Y29.5087 
G01 X-6.1587 Y29.5272 
G01 X-6.1928 Y29.5613 
G01 X-6.1970 Y29.5713 
G01 X-7.6872 Y29.5713 
G01 X-7.6973 Y29.5469 
G01 X-7.7662 Y29.4438 
G01 X-7.8538 Y29.3562 
G01 X-7.9569 Y29.2873 
G01 X-8.0714 Y29.2399 
G01 X-8.1930 Y29.2157 
G01 X-15.3020 Y29.2157 
G01 X-15.4236 Y29.2399 
G01 X-15.5381 Y29.2873 
G01 X-15.6412 Y29.3562 
G01 X-23.8573 Y37.5723 
G01 X-83.3619 Y37.5723 
G01 X-83.4171 Y37.4640 
G01 X-83.5294 Y37.3095 
G01 X-83.6645 Y37.1744 
G01 X-83.8190 Y37.0621 
G01 X-83.9892 Y36.9754 
G01 X-84.1708 Y36.9164 
G01 X-84.3595 Y36.8865 
G01 X-87.0905 Y36.8865 
G01 X-87.2792 Y36.9164 
G01 X-87.4608 Y36.9754 
G01 X-87.6310 Y37.0621 
G01 X-87.7855 Y37.1744 
G01 X-87.9206 Y37.3095 
G01 X-88.0329 Y37.4640 
G01 X-88.1196 Y37.6342 
G01 X-88.1786 Y37.8158 
G01 X-88.2085 Y38.0045 
G01 X-88.2085 Y38.1955 
G01 X-88.1786 Y38.3842 
G01 X-88.1196 Y38.5658 
G01 X-88.0329 Y38.7360 
G01 X-87.9206 Y38.8905 
G01 X-87.7855 Y39.0256 
G01 X-87.6310 Y39.1379 
G01 X-87.4608 Y39.2246 
G01 X-87.2792 Y39.2836 
G01 X-87.0905 Y39.3135 
G01 X-84.3595 Y39.3135 
G01 X-84.1708 Y39.2836 
G01 X-84.1065 Y39.2627 
G01 X-24.0605 Y39.2627 
G01 X-23.9263 Y39.2267 
G01 X-23.8060 Y39.1573 
G01 X-23.7077 Y39.0590 
G01 X-23.3644 Y38.7156 
G01 X-23.3114 Y38.7051 
G01 X-23.1969 Y38.6577 
G01 X-23.0938 Y38.5888 
G01 X-14.9793 Y30.4743 
G01 X-8.1930 Y30.4743 
G00 Z5.0000 
G00 Z12.7000 
M05
M02
