(.../administrador/eagle/pcb-gcode/pcb-gcode.ulp)
(Copyright 2005 - 2012 by John Johnson)
(See readme.txt for licensing terms.)
(This file generated from the board:)
(.../administrador/eagle/modulo_RJ11_5a.brd)
(Current profile is .../eagle/pcb-gcode/profiles/emc.pp  )
(This file generated 01/10/15 06:39)
(Settings from pcb-machine.h)
(  Tool Size)
(0.1270 )
(Z Axis Settings)
(  High     Up        Down     Drill)
(12.7000 	5.0000 	-0.1500 	-2.0000 )
(spindle on time = 3.0000)
(milling depth = -0.2540)
(text depth = -0.1270)
(tool change at 0.0000 0.0000 0.0000 )
(feed rate xy = F200.00 )
(feed rate z  = F250.00 )
(Settings from pcb-defaults.h)
(isolate min = 0.0578)
(isolate max = 0.3556)
(isolate step = 0.1270)
(Generated bottom outlines, bottom drill, )
(Unit of measure: mm)
(Metric Mode)
G21
(Absolute Coordinates)
G90
G00 X0.0000 Y0.0000 
M03
G04 P3.000000
G00 Z5.0000 
G00 X-73.5199 Y2.7540 
G01 Z-0.1500 F250.00 
G01 X-72.7868 Y2.4503 F200.00 
G01 X-71.9932 Y2.4503 
G01 X-71.2601 Y2.7540 
G01 X-70.6990 Y3.3151 
G01 X-70.3953 Y4.0482 
G01 X-70.3953 Y4.8418 
G01 X-70.6990 Y5.5749 
G01 X-71.2601 Y6.1360 
G01 X-71.9932 Y6.4397 
G01 X-72.7868 Y6.4397 
G01 X-73.5199 Y6.1360 
G01 X-74.0810 Y5.5749 
G01 X-74.3847 Y4.8418 
G01 X-74.3847 Y4.0482 
G01 X-74.0810 Y3.3151 
G01 X-73.5199 Y2.7540 
G00 Z5.0000 
G00 X-24.7375 Y3.2818 
G01 Z-0.1500 F250.00 
G01 X-24.3433 Y3.1185 F200.00 
G01 X-23.9167 Y3.1185 
G01 X-23.5225 Y3.2818 
G01 X-23.2208 Y3.5835 
G01 X-23.0575 Y3.9777 
G01 X-23.0575 Y6.1823 
G01 X-23.2353 Y6.6116 
G01 X-23.2353 Y19.2280 
G01 X-23.3715 Y19.5568 
G01 X-23.6573 Y19.8426 
G01 X-26.7982 Y22.9835 
G01 X-27.1270 Y23.1197 
G01 X-35.1633 Y23.1197 
G01 X-35.2079 Y23.1382 
G01 X-35.2297 Y23.1600 
G01 X-36.5898 Y24.5201 
G01 X-36.6021 Y24.5324 
G01 X-36.6239 Y24.5542 
G01 X-36.6420 Y24.5979 
G01 X-36.6424 Y24.6471 
G01 X-36.5783 Y24.8018 
G01 X-36.5783 Y25.2082 
G01 X-36.7338 Y25.5837 
G01 X-37.0212 Y25.8712 
G01 X-37.3968 Y26.0267 
G01 X-37.8032 Y26.0267 
G01 X-38.1787 Y25.8712 
G01 X-38.4662 Y25.5838 
G01 X-38.5336 Y25.4209 
G01 X-38.5396 Y25.4025 
G01 X-38.5428 Y25.3988 
G01 X-38.5447 Y25.3942 
G01 X-38.5584 Y25.3805 
G01 X-38.5709 Y25.3658 
G01 X-38.5753 Y25.3636 
G01 X-38.5788 Y25.3601 
G01 X-38.5967 Y25.3527 
G01 X-38.6139 Y25.3439 
G01 X-38.6188 Y25.3435 
G01 X-38.6234 Y25.3416 
G01 X-38.6427 Y25.3416 
G01 X-38.6620 Y25.3401 
G01 X-38.6667 Y25.3416 
G01 X-38.6716 Y25.3416 
G01 X-38.6895 Y25.3490 
G01 X-38.7079 Y25.3550 
G01 X-38.7117 Y25.3582 
G01 X-38.7162 Y25.3601 
G01 X-38.7299 Y25.3738 
G01 X-38.7446 Y25.3864 
G01 X-38.7469 Y25.3907 
G01 X-38.7503 Y25.3942 
G01 X-38.7578 Y25.4121 
G01 X-38.8096 Y25.5139 
G01 X-38.8994 Y25.6375 
G01 X-39.0075 Y25.7456 
G01 X-39.1311 Y25.8354 
G01 X-39.2673 Y25.9048 
G01 X-39.4126 Y25.9520 
G01 X-39.5187 Y25.9688 
G01 X-39.5187 Y25.9592 
G01 X-39.3601 Y25.9276 
G01 X-39.1855 Y25.8553 
G01 X-39.0283 Y25.7503 
G01 X-38.8947 Y25.6166 
G01 X-38.7897 Y25.4595 
G01 X-38.7174 Y25.2849 
G01 X-38.6805 Y25.0995 
G01 X-38.6805 Y24.9105 
G01 X-38.7174 Y24.7251 
G01 X-38.7897 Y24.5505 
G01 X-38.8947 Y24.3933 
G01 X-39.0283 Y24.2597 
G01 X-39.1855 Y24.1547 
G01 X-39.2487 Y24.1285 
G01 X-39.2487 Y24.1147 
G01 X-39.1311 Y24.1746 
G01 X-39.0075 Y24.2644 
G01 X-38.8994 Y24.3725 
G01 X-38.8096 Y24.4961 
G01 X-38.7578 Y24.5979 
G01 X-38.7503 Y24.6158 
G01 X-38.7469 Y24.6193 
G01 X-38.7446 Y24.6236 
G01 X-38.7299 Y24.6362 
G01 X-38.7162 Y24.6499 
G01 X-38.7117 Y24.6518 
G01 X-38.7079 Y24.6550 
G01 X-38.6895 Y24.6610 
G01 X-38.6716 Y24.6684 
G01 X-38.6667 Y24.6684 
G01 X-38.6620 Y24.6699 
G01 X-38.6427 Y24.6684 
G01 X-38.6234 Y24.6684 
G01 X-38.6188 Y24.6665 
G01 X-38.6139 Y24.6661 
G01 X-38.5967 Y24.6573 
G01 X-38.5788 Y24.6499 
G01 X-38.5753 Y24.6464 
G01 X-38.5709 Y24.6442 
G01 X-38.5584 Y24.6295 
G01 X-38.5447 Y24.6158 
G01 X-38.5428 Y24.6112 
G01 X-38.5396 Y24.6075 
G01 X-38.5336 Y24.5891 
G01 X-38.4947 Y24.4952 
G01 X-38.4947 Y24.0870 
G01 X-38.3585 Y23.7582 
G01 X-36.3185 Y21.7182 
G01 X-36.0668 Y21.4665 
G01 X-35.7380 Y21.3303 
G01 X-27.7017 Y21.3303 
G01 X-27.6571 Y21.3118 
G01 X-27.6230 Y21.2777 
G01 X-25.0432 Y18.6979 
G01 X-25.0247 Y18.6533 
G01 X-25.0247 Y6.6116 
G01 X-25.0432 Y6.5670 
G01 X-25.2025 Y6.1823 
G01 X-25.2025 Y3.9777 
G01 X-25.0392 Y3.5835 
G01 X-24.7375 Y3.2818 
G00 Z5.0000 
G00 X-36.4378 Y3.2441 
G01 Z-0.1500 F250.00 
G01 X-36.2945 Y3.3171 F200.00 
G01 X-36.1644 Y3.4117 
G01 X-36.0507 Y3.5254 
G01 X-35.9561 Y3.6555 
G01 X-35.8831 Y3.7988 
G01 X-35.8334 Y3.9517 
G01 X-35.8083 Y4.1106 
G01 X-35.8083 Y4.9587 
G01 X-35.8197 Y4.9587 
G01 X-35.8197 Y4.0915 
G01 X-35.8585 Y3.8963 
G01 X-35.9347 Y3.7124 
G01 X-36.0452 Y3.5470 
G01 X-36.1860 Y3.4062 
G01 X-36.3514 Y3.2957 
G01 X-36.5353 Y3.2195 
G01 X-36.7087 Y3.1850 
G01 X-36.7087 Y3.1758 
G01 X-36.5907 Y3.1944 
G01 X-36.4378 Y3.2441 
G00 Z5.0000 
G00 X-37.8266 Y3.9517 
G01 Z-0.1500 F250.00 
G01 X-37.7769 Y3.7988 F200.00 
G01 X-37.7038 Y3.6555 
G01 X-37.6093 Y3.5254 
G01 X-37.4956 Y3.4117 
G01 X-37.3655 Y3.3171 
G01 X-37.2222 Y3.2441 
G01 X-37.0693 Y3.1944 
G01 X-36.9513 Y3.1758 
G01 X-36.9513 Y3.1850 
G01 X-37.1247 Y3.2195 
G01 X-37.3086 Y3.2957 
G01 X-37.4740 Y3.4062 
G01 X-37.6148 Y3.5470 
G01 X-37.7253 Y3.7124 
G01 X-37.8015 Y3.8963 
G01 X-37.8403 Y4.0915 
G01 X-37.8403 Y4.3237 
G01 X-37.8517 Y4.3237 
G01 X-37.8517 Y4.1106 
G01 X-37.8266 Y3.9517 
G00 Z5.0000 
G00 X-27.7425 Y6.1823 
G01 Z-0.1500 F250.00 
G01 X-27.7425 Y3.9777 F200.00 
G01 X-27.5792 Y3.5835 
G01 X-27.2775 Y3.2818 
G01 X-26.8833 Y3.1185 
G01 X-26.4567 Y3.1185 
G01 X-26.0625 Y3.2818 
G01 X-25.7608 Y3.5835 
G01 X-25.5975 Y3.9777 
G01 X-25.5975 Y6.1823 
G01 X-25.7753 Y6.6116 
G01 X-25.7753 Y15.4180 
G01 X-25.9115 Y15.7468 
G01 X-26.1632 Y15.9985 
G01 X-26.1973 Y16.0326 
G01 X-29.9732 Y19.8085 
G01 X-30.3020 Y19.9447 
G01 X-48.4983 Y19.9447 
G01 X-48.5429 Y19.9632 
G01 X-48.5770 Y19.9973 
G01 X-51.2918 Y22.7121 
G01 X-51.3103 Y22.7567 
G01 X-51.3103 Y24.4952 
G01 X-51.2918 Y24.5398 
G01 X-51.1833 Y24.8018 
G01 X-51.1833 Y25.2082 
G01 X-51.3388 Y25.5837 
G01 X-51.6262 Y25.8712 
G01 X-52.0018 Y26.0267 
G01 X-52.4082 Y26.0267 
G01 X-52.7837 Y25.8712 
G01 X-53.0712 Y25.5838 
G01 X-53.1386 Y25.4209 
G01 X-53.1446 Y25.4025 
G01 X-53.1478 Y25.3988 
G01 X-53.1497 Y25.3942 
G01 X-53.1634 Y25.3805 
G01 X-53.1759 Y25.3658 
G01 X-53.1803 Y25.3636 
G01 X-53.1838 Y25.3601 
G01 X-53.2017 Y25.3527 
G01 X-53.2189 Y25.3439 
G01 X-53.2238 Y25.3435 
G01 X-53.2284 Y25.3416 
G01 X-53.2477 Y25.3416 
G01 X-53.2670 Y25.3401 
G01 X-53.2717 Y25.3416 
G01 X-53.2766 Y25.3416 
G01 X-53.2945 Y25.3490 
G01 X-53.3129 Y25.3550 
G01 X-53.3167 Y25.3582 
G01 X-53.3212 Y25.3601 
G01 X-53.3349 Y25.3738 
G01 X-53.3496 Y25.3864 
G01 X-53.3519 Y25.3907 
G01 X-53.3553 Y25.3942 
G01 X-53.3628 Y25.4121 
G01 X-53.4146 Y25.5139 
G01 X-53.5044 Y25.6375 
G01 X-53.6125 Y25.7456 
G01 X-53.7361 Y25.8354 
G01 X-53.8723 Y25.9048 
G01 X-54.0176 Y25.9520 
G01 X-54.1237 Y25.9688 
G01 X-54.1237 Y25.9592 
G01 X-53.9651 Y25.9276 
G01 X-53.7905 Y25.8553 
G01 X-53.6333 Y25.7503 
G01 X-53.4997 Y25.6166 
G01 X-53.3947 Y25.4595 
G01 X-53.3224 Y25.2849 
G01 X-53.2855 Y25.0995 
G01 X-53.2855 Y24.9105 
G01 X-53.3224 Y24.7251 
G01 X-53.3947 Y24.5505 
G01 X-53.4997 Y24.3933 
G01 X-53.6333 Y24.2597 
G01 X-53.7905 Y24.1547 
G01 X-53.9651 Y24.0824 
G01 X-54.1237 Y24.0508 
G01 X-54.1237 Y24.0412 
G01 X-54.0176 Y24.0580 
G01 X-53.8723 Y24.1052 
G01 X-53.7361 Y24.1746 
G01 X-53.6125 Y24.2644 
G01 X-53.5044 Y24.3725 
G01 X-53.4146 Y24.4961 
G01 X-53.3628 Y24.5979 
G01 X-53.3553 Y24.6158 
G01 X-53.3519 Y24.6193 
G01 X-53.3496 Y24.6236 
G01 X-53.3349 Y24.6362 
G01 X-53.3212 Y24.6499 
G01 X-53.3167 Y24.6518 
G01 X-53.3129 Y24.6550 
G01 X-53.2945 Y24.6610 
G01 X-53.2766 Y24.6684 
G01 X-53.2717 Y24.6684 
G01 X-53.2670 Y24.6699 
G01 X-53.2477 Y24.6684 
G01 X-53.2284 Y24.6684 
G01 X-53.2238 Y24.6665 
G01 X-53.2189 Y24.6661 
G01 X-53.2017 Y24.6573 
G01 X-53.1838 Y24.6499 
G01 X-53.1803 Y24.6464 
G01 X-53.1759 Y24.6442 
G01 X-53.1634 Y24.6295 
G01 X-53.1497 Y24.6158 
G01 X-53.1478 Y24.6112 
G01 X-53.1446 Y24.6075 
G01 X-53.1386 Y24.5891 
G01 X-53.0997 Y24.4952 
G01 X-53.0997 Y22.1820 
G01 X-52.9635 Y21.8532 
G01 X-52.7118 Y21.6015 
G01 X-52.6777 Y21.5674 
G01 X-49.6535 Y18.5432 
G01 X-49.4018 Y18.2915 
G01 X-49.0730 Y18.1553 
G01 X-30.8767 Y18.1553 
G01 X-30.8321 Y18.1368 
G01 X-30.7980 Y18.1027 
G01 X-27.5832 Y14.8879 
G01 X-27.5647 Y14.8433 
G01 X-27.5647 Y6.6116 
G01 X-27.5707 Y6.5970 
G01 X-27.7425 Y6.1823 
G00 Z5.0000 
G00 X-29.8175 Y3.2818 
G01 Z-0.1500 F250.00 
G01 X-29.4233 Y3.1185 F200.00 
G01 X-28.9967 Y3.1185 
G01 X-28.6025 Y3.2818 
G01 X-28.3008 Y3.5835 
G01 X-28.1375 Y3.9777 
G01 X-28.1375 Y6.1823 
G01 X-28.3153 Y6.6116 
G01 X-28.3153 Y11.6080 
G01 X-28.4515 Y11.9368 
G01 X-28.7373 Y12.2226 
G01 X-32.8965 Y16.3818 
G01 X-33.1482 Y16.6335 
G01 X-33.4770 Y16.7697 
G01 X-38.6141 Y16.7697 
G01 X-38.6587 Y16.7882 
G01 X-38.6928 Y16.8223 
G01 X-38.7193 Y16.8488 
G01 X-39.1415 Y17.0237 
G01 X-39.5985 Y17.0237 
G01 X-40.0207 Y16.8488 
G01 X-40.3438 Y16.5257 
G01 X-40.5187 Y16.1035 
G01 X-40.5367 Y16.0601 
G01 X-40.5713 Y16.0248 
G01 X-40.6150 Y16.0067 
G01 X-40.6641 Y16.0064 
G01 X-40.7074 Y16.0243 
G01 X-40.7428 Y16.0589 
G01 X-40.9362 Y16.5257 
G01 X-41.2593 Y16.8488 
G01 X-41.6815 Y17.0237 
G01 X-42.1385 Y17.0237 
G01 X-42.5607 Y16.8488 
G01 X-42.6213 Y16.7882 
G01 X-42.6659 Y16.7697 
G01 X-59.9283 Y16.7697 
G01 X-59.9729 Y16.7882 
G01 X-60.0070 Y16.8223 
G01 X-65.8627 Y22.6780 
G01 X-65.8968 Y22.7121 
G01 X-65.9153 Y22.7567 
G01 X-65.9153 Y24.4952 
G01 X-65.9043 Y24.5218 
G01 X-65.7883 Y24.8018 
G01 X-65.7883 Y25.2082 
G01 X-65.9438 Y25.5837 
G01 X-66.2312 Y25.8712 
G01 X-66.6068 Y26.0267 
G01 X-67.0132 Y26.0267 
G01 X-67.3887 Y25.8712 
G01 X-67.6762 Y25.5838 
G01 X-67.7436 Y25.4209 
G01 X-67.7496 Y25.4025 
G01 X-67.7528 Y25.3988 
G01 X-67.7547 Y25.3942 
G01 X-67.7684 Y25.3805 
G01 X-67.7809 Y25.3658 
G01 X-67.7853 Y25.3636 
G01 X-67.7888 Y25.3601 
G01 X-67.8067 Y25.3527 
G01 X-67.8239 Y25.3439 
G01 X-67.8288 Y25.3435 
G01 X-67.8334 Y25.3416 
G01 X-67.8527 Y25.3416 
G01 X-67.8720 Y25.3401 
G01 X-67.8767 Y25.3416 
G01 X-67.8816 Y25.3416 
G01 X-67.8995 Y25.3490 
G01 X-67.9179 Y25.3550 
G01 X-67.9217 Y25.3582 
G01 X-67.9262 Y25.3601 
G01 X-67.9399 Y25.3738 
G01 X-67.9546 Y25.3864 
G01 X-67.9569 Y25.3907 
G01 X-67.9603 Y25.3942 
G01 X-67.9678 Y25.4121 
G01 X-68.0196 Y25.5139 
G01 X-68.1094 Y25.6375 
G01 X-68.2175 Y25.7456 
G01 X-68.3411 Y25.8354 
G01 X-68.4773 Y25.9048 
G01 X-68.6226 Y25.9520 
G01 X-68.7287 Y25.9688 
G01 X-68.7287 Y25.9592 
G01 X-68.5701 Y25.9276 
G01 X-68.3955 Y25.8553 
G01 X-68.2383 Y25.7503 
G01 X-68.1047 Y25.6166 
G01 X-67.9997 Y25.4595 
G01 X-67.9274 Y25.2849 
G01 X-67.8905 Y25.0995 
G01 X-67.8905 Y24.9105 
G01 X-67.9274 Y24.7251 
G01 X-67.9997 Y24.5505 
G01 X-68.1047 Y24.3933 
G01 X-68.2383 Y24.2597 
G01 X-68.3955 Y24.1547 
G01 X-68.4587 Y24.1285 
G01 X-68.4587 Y24.1147 
G01 X-68.3411 Y24.1746 
G01 X-68.2175 Y24.2644 
G01 X-68.1094 Y24.3725 
G01 X-68.0196 Y24.4961 
G01 X-67.9678 Y24.5979 
G01 X-67.9603 Y24.6158 
G01 X-67.9569 Y24.6193 
G01 X-67.9546 Y24.6236 
G01 X-67.9399 Y24.6362 
G01 X-67.9262 Y24.6499 
G01 X-67.9217 Y24.6518 
G01 X-67.9179 Y24.6550 
G01 X-67.8995 Y24.6610 
G01 X-67.8816 Y24.6684 
G01 X-67.8767 Y24.6684 
G01 X-67.8720 Y24.6699 
G01 X-67.8527 Y24.6684 
G01 X-67.8334 Y24.6684 
G01 X-67.8288 Y24.6665 
G01 X-67.8239 Y24.6661 
G01 X-67.8067 Y24.6573 
G01 X-67.7888 Y24.6499 
G01 X-67.7853 Y24.6464 
G01 X-67.7809 Y24.6442 
G01 X-67.7684 Y24.6295 
G01 X-67.7547 Y24.6158 
G01 X-67.7528 Y24.6112 
G01 X-67.7496 Y24.6075 
G01 X-67.7436 Y24.5891 
G01 X-67.7047 Y24.4952 
G01 X-67.7047 Y22.1820 
G01 X-67.5685 Y21.8532 
G01 X-61.0835 Y15.3682 
G01 X-60.8318 Y15.1165 
G01 X-60.5030 Y14.9803 
G01 X-42.6659 Y14.9803 
G01 X-42.6213 Y14.9618 
G01 X-42.5872 Y14.9277 
G01 X-42.5607 Y14.9012 
G01 X-42.1385 Y14.7263 
G01 X-41.6815 Y14.7263 
G01 X-41.2593 Y14.9012 
G01 X-40.9362 Y15.2243 
G01 X-40.7428 Y15.6911 
G01 X-40.7087 Y15.7252 
G01 X-40.6641 Y15.7436 
G01 X-40.6159 Y15.7436 
G01 X-40.5713 Y15.7252 
G01 X-40.5372 Y15.6911 
G01 X-40.5187 Y15.6465 
G01 X-40.3438 Y15.2243 
G01 X-40.0207 Y14.9012 
G01 X-39.5985 Y14.7263 
G01 X-39.1415 Y14.7263 
G01 X-38.7193 Y14.9012 
G01 X-38.6587 Y14.9618 
G01 X-38.6141 Y14.9803 
G01 X-34.0517 Y14.9803 
G01 X-34.0071 Y14.9618 
G01 X-33.9730 Y14.9277 
G01 X-30.1232 Y11.0779 
G01 X-30.1047 Y11.0333 
G01 X-30.1047 Y6.6116 
G01 X-30.1232 Y6.5670 
G01 X-30.2825 Y6.1823 
G01 X-30.2825 Y3.9777 
G01 X-30.1192 Y3.5835 
G01 X-29.8175 Y3.2818 
G00 Z5.0000 
G00 X-36.1793 Y11.1338 
G01 Z-0.1500 F250.00 
G01 X-36.6015 Y11.3087 F200.00 
G01 X-37.0585 Y11.3087 
G01 X-37.4807 Y11.1338 
G01 X-37.8038 Y10.8107 
G01 X-37.9787 Y10.3885 
G01 X-37.9787 Y9.9315 
G01 X-37.8038 Y9.5093 
G01 X-37.4807 Y9.1862 
G01 X-37.0585 Y9.0113 
G01 X-36.6015 Y9.0113 
G01 X-36.1793 Y9.1862 
G01 X-36.1187 Y9.2468 
G01 X-36.0741 Y9.2653 
G01 X-32.7419 Y9.2653 
G01 X-32.6973 Y9.2468 
G01 X-32.6632 Y9.2127 
G01 X-32.6447 Y9.1681 
G01 X-32.6447 Y6.6116 
G01 X-32.6632 Y6.5670 
G01 X-32.8225 Y6.1823 
G01 X-32.8225 Y3.9777 
G01 X-32.6592 Y3.5835 
G01 X-32.3575 Y3.2818 
G01 X-31.9633 Y3.1185 
G01 X-31.5367 Y3.1185 
G01 X-31.1425 Y3.2818 
G01 X-30.8408 Y3.5835 
G01 X-30.6775 Y3.9777 
G01 X-30.6775 Y6.1823 
G01 X-30.8553 Y6.6116 
G01 X-30.8553 Y10.3380 
G01 X-30.9915 Y10.6668 
G01 X-31.2432 Y10.9185 
G01 X-31.5720 Y11.0547 
G01 X-36.0741 Y11.0547 
G01 X-36.1187 Y11.0732 
G01 X-36.1528 Y11.1073 
G01 X-36.1793 Y11.1338 
G00 Z5.0000 
G00 X-22.6625 Y6.1823 
G01 Z-0.1500 F250.00 
G01 X-22.6625 Y3.9777 F200.00 
G01 X-22.4992 Y3.5835 
G01 X-22.1975 Y3.2818 
G01 X-21.8033 Y3.1185 
G01 X-21.3767 Y3.1185 
G01 X-20.9825 Y3.2818 
G01 X-20.6808 Y3.5835 
G01 X-20.5175 Y3.9777 
G01 X-20.5175 Y6.1823 
G01 X-20.6953 Y6.6116 
G01 X-20.6953 Y21.5148 
G01 X-20.6973 Y21.5217 
G01 X-20.6953 Y21.5387 
G01 X-20.6953 Y21.5559 
G01 X-20.6926 Y21.5625 
G01 X-20.6808 Y21.6646 
G01 X-20.6887 Y21.6923 
G01 X-20.6953 Y21.7081 
G01 X-20.6953 Y21.7153 
G01 X-20.6973 Y21.7221 
G01 X-20.6953 Y21.7392 
G01 X-20.6953 Y21.7680 
G01 X-20.7346 Y21.8629 
G01 X-20.7391 Y21.8685 
G01 X-20.7438 Y21.8850 
G01 X-20.7504 Y21.9009 
G01 X-20.7504 Y21.9080 
G01 X-20.7786 Y22.0069 
G01 X-20.7965 Y22.0294 
G01 X-20.8086 Y22.0415 
G01 X-20.8113 Y22.0481 
G01 X-20.8158 Y22.0537 
G01 X-20.8205 Y22.0703 
G01 X-20.8315 Y22.0968 
G01 X-20.9042 Y22.1695 
G01 X-20.9104 Y22.1730 
G01 X-20.9211 Y22.1864 
G01 X-20.9333 Y22.1986 
G01 X-20.9360 Y22.2052 
G01 X-22.0697 Y23.6334 
G01 X-22.0818 Y23.6455 
G01 X-22.0846 Y23.6521 
G01 X-22.0890 Y23.6577 
G01 X-22.0937 Y23.6742 
G01 X-22.1003 Y23.6901 
G01 X-22.1003 Y23.6972 
G01 X-22.1023 Y23.7041 
G01 X-22.1003 Y23.7212 
G01 X-22.1003 Y24.4952 
G01 X-22.0893 Y24.5218 
G01 X-21.9733 Y24.8018 
G01 X-21.9733 Y25.2082 
G01 X-22.1288 Y25.5837 
G01 X-22.4162 Y25.8712 
G01 X-22.7918 Y26.0267 
G01 X-23.1982 Y26.0267 
G01 X-23.5738 Y25.8712 
G01 X-23.8612 Y25.5838 
G01 X-23.9286 Y25.4209 
G01 X-23.9346 Y25.4025 
G01 X-23.9378 Y25.3988 
G01 X-23.9397 Y25.3942 
G01 X-23.9534 Y25.3805 
G01 X-23.9659 Y25.3658 
G01 X-23.9703 Y25.3636 
G01 X-23.9738 Y25.3601 
G01 X-23.9917 Y25.3527 
G01 X-24.0089 Y25.3439 
G01 X-24.0138 Y25.3435 
G01 X-24.0184 Y25.3416 
G01 X-24.0377 Y25.3416 
G01 X-24.0570 Y25.3401 
G01 X-24.0617 Y25.3416 
G01 X-24.0666 Y25.3416 
G01 X-24.0845 Y25.3490 
G01 X-24.1029 Y25.3550 
G01 X-24.1067 Y25.3582 
G01 X-24.1112 Y25.3601 
G01 X-24.1249 Y25.3738 
G01 X-24.1396 Y25.3864 
G01 X-24.1419 Y25.3907 
G01 X-24.1453 Y25.3942 
G01 X-24.1528 Y25.4121 
G01 X-24.2046 Y25.5139 
G01 X-24.2944 Y25.6375 
G01 X-24.4025 Y25.7456 
G01 X-24.5261 Y25.8354 
G01 X-24.6623 Y25.9048 
G01 X-24.8076 Y25.9520 
G01 X-24.9137 Y25.9688 
G01 X-24.9137 Y25.9592 
G01 X-24.7551 Y25.9276 
G01 X-24.5805 Y25.8553 
G01 X-24.4233 Y25.7503 
G01 X-24.2897 Y25.6166 
G01 X-24.1847 Y25.4595 
G01 X-24.1124 Y25.2849 
G01 X-24.0755 Y25.0995 
G01 X-24.0755 Y24.9105 
G01 X-24.1124 Y24.7251 
G01 X-24.1847 Y24.5505 
G01 X-24.2141 Y24.5065 
G01 X-24.2117 Y24.4864 
G01 X-24.2046 Y24.4961 
G01 X-24.1528 Y24.5979 
G01 X-24.1453 Y24.6158 
G01 X-24.1419 Y24.6193 
G01 X-24.1396 Y24.6236 
G01 X-24.1249 Y24.6362 
G01 X-24.1112 Y24.6499 
G01 X-24.1067 Y24.6518 
G01 X-24.1029 Y24.6550 
G01 X-24.0845 Y24.6610 
G01 X-24.0666 Y24.6684 
G01 X-24.0617 Y24.6684 
G01 X-24.0570 Y24.6699 
G01 X-24.0377 Y24.6684 
G01 X-24.0184 Y24.6684 
G01 X-24.0138 Y24.6665 
G01 X-24.0089 Y24.6661 
G01 X-23.9917 Y24.6573 
G01 X-23.9738 Y24.6499 
G01 X-23.9703 Y24.6464 
G01 X-23.9659 Y24.6442 
G01 X-23.9534 Y24.6295 
G01 X-23.9397 Y24.6158 
G01 X-23.9378 Y24.6112 
G01 X-23.9346 Y24.6075 
G01 X-23.9286 Y24.5891 
G01 X-23.8897 Y24.4952 
G01 X-23.8897 Y23.4352 
G01 X-23.8877 Y23.4283 
G01 X-23.8897 Y23.4113 
G01 X-23.8897 Y23.3941 
G01 X-23.8924 Y23.3875 
G01 X-23.9042 Y23.2854 
G01 X-23.8963 Y23.2577 
G01 X-23.8897 Y23.2419 
G01 X-23.8897 Y23.2347 
G01 X-23.8877 Y23.2278 
G01 X-23.8897 Y23.2108 
G01 X-23.8897 Y23.1820 
G01 X-23.8504 Y23.0871 
G01 X-23.8459 Y23.0815 
G01 X-23.8412 Y23.0650 
G01 X-23.8346 Y23.0491 
G01 X-23.8346 Y23.0419 
G01 X-23.8064 Y22.9431 
G01 X-23.7885 Y22.9206 
G01 X-23.7764 Y22.9085 
G01 X-23.7737 Y22.9019 
G01 X-23.7692 Y22.8963 
G01 X-23.7645 Y22.8797 
G01 X-23.7535 Y22.8532 
G01 X-23.6808 Y22.7805 
G01 X-23.6746 Y22.7770 
G01 X-23.6639 Y22.7636 
G01 X-23.6517 Y22.7514 
G01 X-23.6490 Y22.7448 
G01 X-22.5153 Y21.3166 
G01 X-22.5032 Y21.3045 
G01 X-22.5004 Y21.2979 
G01 X-22.4960 Y21.2923 
G01 X-22.4913 Y21.2758 
G01 X-22.4847 Y21.2599 
G01 X-22.4847 Y21.2528 
G01 X-22.4827 Y21.2459 
G01 X-22.4847 Y21.2288 
G01 X-22.4847 Y6.6116 
G01 X-22.5032 Y6.5670 
G01 X-22.6625 Y6.1823 
G00 Z5.0000 
G00 X-73.5199 Y16.7240 
G01 Z-0.1500 F250.00 
G01 X-72.7868 Y16.4203 F200.00 
G01 X-71.9932 Y16.4203 
G01 X-71.2601 Y16.7240 
G01 X-70.6990 Y17.2851 
G01 X-70.3953 Y18.0182 
G01 X-70.3953 Y18.8118 
G01 X-70.6990 Y19.5449 
G01 X-71.2601 Y20.1060 
G01 X-71.9932 Y20.4097 
G01 X-72.7868 Y20.4097 
G01 X-73.5199 Y20.1060 
G01 X-74.0810 Y19.5449 
G01 X-74.3847 Y18.8118 
G01 X-74.3847 Y18.0182 
G01 X-74.0810 Y17.2851 
G01 X-73.5199 Y16.7240 
G00 Z5.0000 
G00 X-4.9399 Y2.7540 
G01 Z-0.1500 F250.00 
G01 X-4.2068 Y2.4503 F200.00 
G01 X-3.4132 Y2.4503 
G01 X-2.6801 Y2.7540 
G01 X-2.1190 Y3.3151 
G01 X-1.8153 Y4.0482 
G01 X-1.8153 Y4.8418 
G01 X-2.1190 Y5.5749 
G01 X-2.6801 Y6.1360 
G01 X-3.4132 Y6.4397 
G01 X-4.2068 Y6.4397 
G01 X-4.9399 Y6.1360 
G01 X-5.5010 Y5.5749 
G01 X-5.8047 Y4.8418 
G01 X-5.8047 Y4.0482 
G01 X-5.5010 Y3.3151 
G01 X-4.9399 Y2.7540 
G00 Z5.0000 
G00 X-4.9399 Y16.7240 
G01 Z-0.1500 F250.00 
G01 X-4.2068 Y16.4203 F200.00 
G01 X-3.4132 Y16.4203 
G01 X-2.6801 Y16.7240 
G01 X-2.1190 Y17.2851 
G01 X-1.8153 Y18.0182 
G01 X-1.8153 Y18.8118 
G01 X-2.1190 Y19.5449 
G01 X-2.6801 Y20.1060 
G01 X-3.4132 Y20.4097 
G01 X-4.2068 Y20.4097 
G01 X-4.9399 Y20.1060 
G01 X-5.5010 Y19.5449 
G01 X-5.8047 Y18.8118 
G01 X-5.8047 Y18.0182 
G01 X-5.5010 Y17.2851 
G01 X-4.9399 Y16.7240 
G00 Z5.0000 
G00 X-66.7295 Y27.4505 
G01 Z-0.1500 F250.00 
G01 X-66.7295 Y27.6395 F200.00 
G01 X-66.6926 Y27.8249 
G01 X-66.6203 Y27.9995 
G01 X-66.5153 Y28.1567 
G01 X-66.3817 Y28.2903 
G01 X-66.2245 Y28.3953 
G01 X-66.0499 Y28.4676 
G01 X-65.8645 Y28.5045 
G01 X-65.6755 Y28.5045 
G01 X-65.4901 Y28.4676 
G01 X-65.4784 Y28.4628 
G01 X-65.3956 Y28.4722 
G01 X-65.2582 Y28.4516 
G01 X-65.1308 Y28.3962 
G01 X-65.0579 Y28.3382 
G01 X-61.5413 Y28.1375 
G01 X-57.4948 Y28.1375 
G01 X-55.1407 Y30.4916 
G01 X-55.0043 Y30.5828 
G01 X-54.8528 Y30.6455 
G01 X-54.6920 Y30.6775 
G01 X-50.7180 Y30.6775 
G01 X-50.5572 Y30.6455 
G01 X-50.4057 Y30.5828 
G01 X-50.2693 Y30.4916 
G01 X-50.1533 Y30.3757 
G01 X-50.0622 Y30.2393 
G01 X-49.9995 Y30.0878 
G01 X-49.9675 Y29.9270 
G01 X-49.9675 Y28.1375 
G01 X-42.2548 Y28.1375 
G01 X-40.0167 Y30.3757 
G01 X-39.9007 Y30.4916 
G01 X-39.7643 Y30.5828 
G01 X-39.6128 Y30.6455 
G01 X-39.4520 Y30.6775 
G01 X-36.8312 Y30.6775 
G01 X-36.7493 Y30.6776 
G01 X-36.6682 Y30.6616 
G01 X-36.5884 Y30.6459 
G01 X-36.5115 Y30.6142 
G01 X-36.4368 Y30.5834 
G01 X-36.3682 Y30.5377 
G01 X-36.3003 Y30.4925 
G01 X-36.2427 Y30.4350 
G01 X-36.1842 Y30.3767 
G01 X-36.1387 Y30.3088 
G01 X-36.0929 Y30.2405 
G01 X-36.0613 Y30.1648 
G01 X-35.2178 Y28.1375 
G01 X-28.9198 Y28.1375 
G01 X-26.5657 Y30.4916 
G01 X-26.4293 Y30.5828 
G01 X-26.2778 Y30.6455 
G01 X-26.1170 Y30.6775 
G01 X-22.1430 Y30.6775 
G01 X-21.9822 Y30.6455 
G01 X-21.8307 Y30.5828 
G01 X-21.6943 Y30.4916 
G01 X-21.5783 Y30.3757 
G01 X-21.5166 Y30.2834 
G01 X-21.4243 Y30.2217 
G01 X-21.3083 Y30.1057 
G01 X-21.2172 Y29.9693 
G01 X-21.1545 Y29.8178 
G01 X-21.1225 Y29.6570 
G01 X-21.1225 Y28.1375 
G01 X-13.6798 Y28.1375 
G01 X-11.3257 Y30.4916 
G01 X-11.1893 Y30.5828 
G01 X-11.0378 Y30.6455 
G01 X-10.8770 Y30.6775 
G01 X-8.1730 Y30.6775 
G01 X-8.0122 Y30.6455 
G01 X-7.8607 Y30.5828 
G01 X-7.7243 Y30.4916 
G01 X-7.6083 Y30.3757 
G01 X-6.7033 Y29.4707 
G01 X-6.6122 Y29.3343 
G01 X-6.5495 Y29.1828 
G01 X-6.5175 Y29.0220 
G01 X-6.5175 Y28.0261 
G01 X-6.4997 Y27.9995 
G01 X-6.4274 Y27.8249 
G01 X-6.4211 Y27.7935 
G01 X-5.7033 Y27.0757 
G01 X-5.6122 Y26.9393 
G01 X-5.5495 Y26.7878 
G01 X-5.5175 Y26.6270 
G01 X-5.5175 Y21.7480 
G01 X-5.5251 Y21.7100 
G01 X-5.5175 Y21.6720 
G01 X-5.5175 Y21.5080 
G01 X-5.5495 Y21.3472 
G01 X-5.6122 Y21.1957 
G01 X-5.7033 Y21.0593 
G01 X-8.8783 Y17.8843 
G01 X-8.9943 Y17.7683 
G01 X-9.1307 Y17.6772 
G01 X-9.2822 Y17.6145 
G01 X-9.4430 Y17.5825 
G01 X-14.2602 Y17.5825 
G01 X-15.6775 Y16.1652 
G01 X-15.6775 Y1.1880 
G01 X-15.7095 Y1.0272 
G01 X-15.7722 Y0.8757 
G01 X-15.8633 Y0.7393 
G01 X-15.9793 Y0.6233 
G01 X-16.1157 Y0.5322 
G01 X-16.2672 Y0.4695 
G01 X-16.4280 Y0.4375 
G01 X-34.3720 Y0.4375 
G01 X-34.5328 Y0.4695 
G01 X-34.6843 Y0.5322 
G01 X-34.8207 Y0.6233 
G01 X-34.9367 Y0.7393 
G01 X-35.0278 Y0.8757 
G01 X-35.0905 Y1.0272 
G01 X-35.1225 Y1.1880 
G01 X-35.1225 Y3.6184 
G01 X-35.1853 Y3.7124 
G01 X-35.2615 Y3.8963 
G01 X-35.3003 Y4.0915 
G01 X-35.3003 Y6.0685 
G01 X-35.2615 Y6.2637 
G01 X-35.1853 Y6.4476 
G01 X-35.0748 Y6.6130 
G01 X-34.9340 Y6.7538 
G01 X-34.7686 Y6.8643 
G01 X-34.5847 Y6.9405 
G01 X-34.3895 Y6.9793 
G01 X-34.1905 Y6.9793 
G01 X-33.9953 Y6.9405 
G01 X-33.8114 Y6.8643 
G01 X-33.6460 Y6.7538 
G01 X-33.5052 Y6.6130 
G01 X-33.3947 Y6.4476 
G01 X-33.3185 Y6.2637 
G01 X-33.2797 Y6.0685 
G01 X-33.2797 Y4.0915 
G01 X-33.3185 Y3.8963 
G01 X-33.3947 Y3.7124 
G01 X-33.4575 Y3.6184 
G01 X-33.4575 Y2.1025 
G01 X-17.3425 Y2.1025 
G01 X-17.3425 Y16.5920 
G01 X-17.3105 Y16.7528 
G01 X-17.2478 Y16.9043 
G01 X-17.1566 Y17.0407 
G01 X-17.0407 Y17.1566 
G01 X-15.1357 Y19.0617 
G01 X-14.9993 Y19.1528 
G01 X-14.8478 Y19.2155 
G01 X-14.6870 Y19.2475 
G01 X-9.8698 Y19.2475 
G01 X-7.1825 Y21.9348 
G01 X-7.1825 Y26.2002 
G01 X-7.5985 Y26.6161 
G01 X-7.6299 Y26.6224 
G01 X-7.8045 Y26.6947 
G01 X-7.9617 Y26.7997 
G01 X-8.0953 Y26.9333 
G01 X-8.2003 Y27.0905 
G01 X-8.2726 Y27.2651 
G01 X-8.3095 Y27.4505 
G01 X-8.3095 Y27.6395 
G01 X-8.2726 Y27.8249 
G01 X-8.2003 Y27.9995 
G01 X-8.1825 Y28.0261 
G01 X-8.1825 Y28.5952 
G01 X-8.5998 Y29.0125 
G01 X-10.4502 Y29.0125 
G01 X-12.6883 Y26.7743 
G01 X-12.8043 Y26.6583 
G01 X-12.9407 Y26.5672 
G01 X-13.0922 Y26.5045 
G01 X-13.2530 Y26.4725 
G01 X-21.6720 Y26.4725 
G01 X-21.8328 Y26.5045 
G01 X-21.9843 Y26.5672 
G01 X-22.0117 Y26.5855 
G01 X-22.0495 Y26.5855 
G01 X-22.2349 Y26.6224 
G01 X-22.4095 Y26.6947 
G01 X-22.5667 Y26.7997 
G01 X-22.7003 Y26.9333 
G01 X-22.8053 Y27.0905 
G01 X-22.8776 Y27.2651 
G01 X-22.9145 Y27.4505 
G01 X-22.9145 Y27.6395 
G01 X-22.8776 Y27.8249 
G01 X-22.8053 Y27.9995 
G01 X-22.7875 Y28.0261 
G01 X-22.7875 Y29.0125 
G01 X-25.6902 Y29.0125 
G01 X-27.9283 Y26.7743 
G01 X-28.0443 Y26.6583 
G01 X-28.1807 Y26.5672 
G01 X-28.3322 Y26.5045 
G01 X-28.4930 Y26.4725 
G01 X-36.1331 Y26.4725 
G01 X-36.1529 Y26.4695 
G01 X-36.2149 Y26.4725 
G01 X-36.2770 Y26.4725 
G01 X-36.2967 Y26.4764 
G01 X-36.3167 Y26.4774 
G01 X-36.3770 Y26.4924 
G01 X-36.4378 Y26.5045 
G01 X-36.4564 Y26.5122 
G01 X-36.4758 Y26.5170 
G01 X-36.5320 Y26.5435 
G01 X-36.5893 Y26.5672 
G01 X-36.6060 Y26.5784 
G01 X-36.6211 Y26.5855 
G01 X-36.6545 Y26.5855 
G01 X-36.8399 Y26.6224 
G01 X-37.0145 Y26.6947 
G01 X-37.1716 Y26.7997 
G01 X-37.3053 Y26.9333 
G01 X-37.4103 Y27.0905 
G01 X-37.4826 Y27.2651 
G01 X-37.4906 Y27.3052 
G01 X-37.5678 Y27.4207 
G01 X-37.6305 Y27.5722 
G01 X-37.6405 Y27.6223 
G01 X-37.6405 Y27.4505 
G01 X-37.6774 Y27.2651 
G01 X-37.7497 Y27.0905 
G01 X-37.8547 Y26.9333 
G01 X-37.9883 Y26.7997 
G01 X-38.1455 Y26.6947 
G01 X-38.3201 Y26.6224 
G01 X-38.5055 Y26.5855 
G01 X-38.6945 Y26.5855 
G01 X-38.8799 Y26.6224 
G01 X-39.0545 Y26.6947 
G01 X-39.2116 Y26.7997 
G01 X-39.3453 Y26.9333 
G01 X-39.4503 Y27.0905 
G01 X-39.5226 Y27.2651 
G01 X-39.5595 Y27.4505 
G01 X-39.5595 Y27.6395 
G01 X-39.5226 Y27.8249 
G01 X-39.4503 Y27.9995 
G01 X-39.3453 Y28.1567 
G01 X-39.2116 Y28.2903 
G01 X-39.0545 Y28.3953 
G01 X-38.8799 Y28.4676 
G01 X-38.6945 Y28.5045 
G01 X-38.5055 Y28.5045 
G01 X-38.3201 Y28.4676 
G01 X-38.1455 Y28.3953 
G01 X-37.9883 Y28.2903 
G01 X-37.8547 Y28.1567 
G01 X-37.7497 Y27.9995 
G01 X-37.6774 Y27.8249 
G01 X-37.6625 Y27.7502 
G01 X-37.6625 Y29.0125 
G01 X-39.0252 Y29.0125 
G01 X-41.2633 Y26.7743 
G01 X-41.3793 Y26.6583 
G01 X-41.5157 Y26.5672 
G01 X-41.6672 Y26.5045 
G01 X-41.8280 Y26.4725 
G01 X-50.8820 Y26.4725 
G01 X-51.0428 Y26.5045 
G01 X-51.1943 Y26.5672 
G01 X-51.2217 Y26.5855 
G01 X-51.2595 Y26.5855 
G01 X-51.4449 Y26.6224 
G01 X-51.6195 Y26.6947 
G01 X-51.7767 Y26.7997 
G01 X-51.9103 Y26.9333 
G01 X-52.0153 Y27.0905 
G01 X-52.0876 Y27.2651 
G01 X-52.1245 Y27.4505 
G01 X-52.1245 Y27.6395 
G01 X-52.0876 Y27.8249 
G01 X-52.0153 Y27.9995 
G01 X-51.9975 Y28.0261 
G01 X-51.9975 Y29.0125 
G01 X-54.2652 Y29.0125 
G01 X-56.5033 Y26.7743 
G01 X-56.6193 Y26.6583 
G01 X-56.7557 Y26.5672 
G01 X-56.9072 Y26.5045 
G01 X-57.0680 Y26.4725 
G01 X-61.5069 Y26.4725 
G01 X-61.5306 Y26.4692 
G01 X-61.5887 Y26.4725 
G01 X-61.6470 Y26.4725 
G01 X-61.6704 Y26.4772 
G01 X-65.3357 Y26.6863 
G01 X-65.4901 Y26.6224 
G01 X-65.6755 Y26.5855 
G01 X-65.8645 Y26.5855 
G01 X-66.0499 Y26.6224 
G01 X-66.2245 Y26.6947 
G01 X-66.3817 Y26.7997 
G01 X-66.5153 Y26.9333 
G01 X-66.6203 Y27.0905 
G01 X-66.6926 Y27.2651 
G01 X-66.7295 Y27.4505 
G00 Z5.0000 
G00 X-68.7695 Y27.4505 
G01 Z-0.1500 F250.00 
G01 X-68.7695 Y27.6395 F200.00 
G01 X-68.7326 Y27.8249 
G01 X-68.6603 Y27.9995 
G01 X-68.5553 Y28.1567 
G01 X-68.4216 Y28.2903 
G01 X-68.2645 Y28.3953 
G01 X-68.0899 Y28.4676 
G01 X-67.9045 Y28.5045 
G01 X-67.7155 Y28.5045 
G01 X-67.5301 Y28.4676 
G01 X-67.3555 Y28.3953 
G01 X-67.1983 Y28.2903 
G01 X-67.0647 Y28.1567 
G01 X-66.9597 Y27.9995 
G01 X-66.8874 Y27.8249 
G01 X-66.8505 Y27.6395 
G01 X-66.8505 Y27.4505 
G01 X-66.8874 Y27.2651 
G01 X-66.9597 Y27.0905 
G01 X-67.0647 Y26.9333 
G01 X-67.1983 Y26.7997 
G01 X-67.3555 Y26.6947 
G01 X-67.5301 Y26.6224 
G01 X-67.7155 Y26.5855 
G01 X-67.9045 Y26.5855 
G01 X-68.0899 Y26.6224 
G01 X-68.2645 Y26.6947 
G01 X-68.4216 Y26.7997 
G01 X-68.5553 Y26.9333 
G01 X-68.6603 Y27.0905 
G01 X-68.7326 Y27.2651 
G01 X-68.7695 Y27.4505 
G00 Z5.0000 
G00 X-54.1645 Y27.4505 
G01 Z-0.1500 F250.00 
G01 X-54.1645 Y27.6395 F200.00 
G01 X-54.1276 Y27.8249 
G01 X-54.0553 Y27.9995 
G01 X-53.9503 Y28.1567 
G01 X-53.8167 Y28.2903 
G01 X-53.6595 Y28.3953 
G01 X-53.4849 Y28.4676 
G01 X-53.2995 Y28.5045 
G01 X-53.1105 Y28.5045 
G01 X-52.9251 Y28.4676 
G01 X-52.7505 Y28.3953 
G01 X-52.5933 Y28.2903 
G01 X-52.4597 Y28.1567 
G01 X-52.3547 Y27.9995 
G01 X-52.2824 Y27.8249 
G01 X-52.2455 Y27.6395 
G01 X-52.2455 Y27.4505 
G01 X-52.2824 Y27.2651 
G01 X-52.3547 Y27.0905 
G01 X-52.4597 Y26.9333 
G01 X-52.5933 Y26.7997 
G01 X-52.7505 Y26.6947 
G01 X-52.9251 Y26.6224 
G01 X-53.1105 Y26.5855 
G01 X-53.2995 Y26.5855 
G01 X-53.4849 Y26.6224 
G01 X-53.6595 Y26.6947 
G01 X-53.8167 Y26.7997 
G01 X-53.9503 Y26.9333 
G01 X-54.0553 Y27.0905 
G01 X-54.1276 Y27.2651 
G01 X-54.1645 Y27.4505 
G00 Z5.0000 
G00 X-24.9545 Y27.4505 
G01 Z-0.1500 F250.00 
G01 X-24.9545 Y27.6395 F200.00 
G01 X-24.9176 Y27.8249 
G01 X-24.8453 Y27.9995 
G01 X-24.7403 Y28.1567 
G01 X-24.6067 Y28.2903 
G01 X-24.4495 Y28.3953 
G01 X-24.2749 Y28.4676 
G01 X-24.0895 Y28.5045 
G01 X-23.9005 Y28.5045 
G01 X-23.7151 Y28.4676 
G01 X-23.5405 Y28.3953 
G01 X-23.3833 Y28.2903 
G01 X-23.2497 Y28.1567 
G01 X-23.1447 Y27.9995 
G01 X-23.0724 Y27.8249 
G01 X-23.0355 Y27.6395 
G01 X-23.0355 Y27.4505 
G01 X-23.0724 Y27.2651 
G01 X-23.1447 Y27.0905 
G01 X-23.2497 Y26.9333 
G01 X-23.3833 Y26.7997 
G01 X-23.5405 Y26.6947 
G01 X-23.7151 Y26.6224 
G01 X-23.9005 Y26.5855 
G01 X-24.0895 Y26.5855 
G01 X-24.2749 Y26.6224 
G01 X-24.4495 Y26.6947 
G01 X-24.6067 Y26.7997 
G01 X-24.7403 Y26.9333 
G01 X-24.8453 Y27.0905 
G01 X-24.9176 Y27.2651 
G01 X-24.9545 Y27.4505 
G00 Z5.0000 
G00 X-10.3495 Y27.4505 
G01 Z-0.1500 F250.00 
G01 X-10.3495 Y27.6395 F200.00 
G01 X-10.3126 Y27.8249 
G01 X-10.2403 Y27.9995 
G01 X-10.1353 Y28.1567 
G01 X-10.0016 Y28.2903 
G01 X-9.8445 Y28.3953 
G01 X-9.6699 Y28.4676 
G01 X-9.4845 Y28.5045 
G01 X-9.2955 Y28.5045 
G01 X-9.1101 Y28.4676 
G01 X-8.9355 Y28.3953 
G01 X-8.7783 Y28.2903 
G01 X-8.6447 Y28.1567 
G01 X-8.5397 Y27.9995 
G01 X-8.4674 Y27.8249 
G01 X-8.4305 Y27.6395 
G01 X-8.4305 Y27.4505 
G01 X-8.4674 Y27.2651 
G01 X-8.5397 Y27.0905 
G01 X-8.6447 Y26.9333 
G01 X-8.7783 Y26.7997 
G01 X-8.9355 Y26.6947 
G01 X-9.1101 Y26.6224 
G01 X-9.2955 Y26.5855 
G01 X-9.4845 Y26.5855 
G01 X-9.6699 Y26.6224 
G01 X-9.8445 Y26.6947 
G01 X-10.0016 Y26.7997 
G01 X-10.1353 Y26.9333 
G01 X-10.2403 Y27.0905 
G01 X-10.3126 Y27.2651 
G01 X-10.3495 Y27.4505 
G00 Z5.0000 
G00 X-20.0603 Y4.0915 
G01 Z-0.1500 F250.00 
G01 X-20.0603 Y6.0685 F200.00 
G01 X-20.0215 Y6.2637 
G01 X-19.9453 Y6.4476 
G01 X-19.8825 Y6.5416 
G01 X-19.8825 Y18.4970 
G01 X-19.8505 Y18.6578 
G01 X-19.7878 Y18.8093 
G01 X-19.6967 Y18.9457 
G01 X-19.5807 Y19.0617 
G01 X-17.0407 Y21.6016 
G01 X-16.9043 Y21.6928 
G01 X-16.7528 Y21.7555 
G01 X-16.5920 Y21.7875 
G01 X-11.1398 Y21.7875 
G01 X-9.2225 Y23.7048 
G01 X-9.2225 Y24.5239 
G01 X-9.2403 Y24.5505 
G01 X-9.3126 Y24.7251 
G01 X-9.3495 Y24.9105 
G01 X-9.3495 Y25.0995 
G01 X-9.3126 Y25.2849 
G01 X-9.2403 Y25.4595 
G01 X-9.1353 Y25.6166 
G01 X-9.0016 Y25.7503 
G01 X-8.8445 Y25.8553 
G01 X-8.6699 Y25.9276 
G01 X-8.4845 Y25.9645 
G01 X-8.2955 Y25.9645 
G01 X-8.1101 Y25.9276 
G01 X-7.9355 Y25.8553 
G01 X-7.7783 Y25.7503 
G01 X-7.6447 Y25.6166 
G01 X-7.5397 Y25.4595 
G01 X-7.4674 Y25.2849 
G01 X-7.4305 Y25.0995 
G01 X-7.4305 Y24.9105 
G01 X-7.4674 Y24.7251 
G01 X-7.5397 Y24.5505 
G01 X-7.5575 Y24.5239 
G01 X-7.5575 Y23.2780 
G01 X-7.5895 Y23.1172 
G01 X-7.6522 Y22.9657 
G01 X-7.7433 Y22.8293 
G01 X-10.1483 Y20.4243 
G01 X-10.2643 Y20.3083 
G01 X-10.4007 Y20.2172 
G01 X-10.5522 Y20.1545 
G01 X-10.7130 Y20.1225 
G01 X-16.1652 Y20.1225 
G01 X-18.2175 Y18.0702 
G01 X-18.2175 Y6.5416 
G01 X-18.1547 Y6.4476 
G01 X-18.0785 Y6.2637 
G01 X-18.0397 Y6.0685 
G01 X-18.0397 Y4.0915 
G01 X-18.0785 Y3.8963 
G01 X-18.1547 Y3.7124 
G01 X-18.2652 Y3.5470 
G01 X-18.4060 Y3.4062 
G01 X-18.5714 Y3.2957 
G01 X-18.7553 Y3.2195 
G01 X-18.9505 Y3.1807 
G01 X-19.1495 Y3.1807 
G01 X-19.3447 Y3.2195 
G01 X-19.5286 Y3.2957 
G01 X-19.6940 Y3.4062 
G01 X-19.8348 Y3.5470 
G01 X-19.9453 Y3.7124 
G01 X-20.0215 Y3.8963 
G01 X-20.0603 Y4.0915 
G00 Z5.0000 
G00 Z12.7000 
M05
M02
