(.../administrador/eagle/pcb-gcode/pcb-gcode.ulp)
(Copyright 2005 - 2012 by John Johnson)
(See readme.txt for licensing terms.)
(This file generated from the board:)
(.../administrador/eagle/modulo_RJ11_new.brd)
(Current profile is .../eagle/pcb-gcode/profiles/emc.pp  )
(This file generated 16/09/15 09:51)
(Settings from pcb-machine.h)
(  Tool Size)
(0.1397 )
(Z Axis Settings)
(  High     Up        Down     Drill)
(12.7000 	2.5400 	-0.2000 	-2.0000 )
(spindle on time = 3.0000)
(milling depth = -0.2540)
(text depth = -0.1270)
(tool change at 0.0000 0.0000 0.0000 )
(feed rate xy = F300.00 )
(feed rate z  = F180.00 )
(Settings from pcb-defaults.h)
(isolate min = 0.0578)
(isolate max = 0.3556)
(isolate step = 0.1270)
(Generated bottom outlines, bottom drill, )
(Unit of measure: mm)
(Metric Mode)
G21
(Absolute Coordinates)
G90
G00 X0.0000 Y0.0000 
M03
G04 P3.000000
G00 Z2.5400 
G00 X-91.2963 Y2.7593 
G01 Z-0.2000 F180.00 
G01 X-90.5655 Y2.4566 F300.00 
G01 X-89.7745 Y2.4566 
G01 X-89.0437 Y2.7593 
G01 X-88.4843 Y3.3187 
G01 X-88.1816 Y4.0495 
G01 X-88.1816 Y4.8405 
G01 X-88.4843 Y5.5713 
G01 X-89.0437 Y6.1306 
G01 X-89.7745 Y6.4334 
G01 X-90.5655 Y6.4334 
G01 X-91.2963 Y6.1306 
G01 X-91.8556 Y5.5713 
G01 X-92.1584 Y4.8405 
G01 X-92.1584 Y4.0495 
G01 X-91.8556 Y3.3187 
G01 X-91.2963 Y2.7593 
G00 Z2.5400 
G00 X-33.6239 Y3.2871 
G01 Z-0.2000 F180.00 
G01 X-33.2321 Y3.1248 F300.00 
G01 X-32.8079 Y3.1248 
G01 X-32.4161 Y3.2871 
G01 X-32.1161 Y3.5871 
G01 X-31.9538 Y3.9789 
G01 X-31.9538 Y6.1811 
G01 X-32.1316 Y6.6103 
G01 X-32.1316 Y17.9567 
G01 X-32.2669 Y18.2832 
G01 X-32.5527 Y18.5690 
G01 X-37.9622 Y23.9785 
G01 X-37.9816 Y24.0255 
G01 X-37.9816 Y24.4964 
G01 X-37.9622 Y24.5433 
G01 X-37.8546 Y24.8030 
G01 X-37.8546 Y25.2070 
G01 X-38.0092 Y25.5801 
G01 X-38.2948 Y25.8658 
G01 X-38.6680 Y26.0204 
G01 X-39.0720 Y26.0204 
G01 X-39.4452 Y25.8658 
G01 X-39.7308 Y25.5801 
G01 X-39.7976 Y25.4187 
G01 X-39.8039 Y25.3993 
G01 X-39.8073 Y25.3954 
G01 X-39.8093 Y25.3906 
G01 X-39.8237 Y25.3762 
G01 X-39.8369 Y25.3607 
G01 X-39.8415 Y25.3584 
G01 X-39.8452 Y25.3547 
G01 X-39.8640 Y25.3469 
G01 X-39.8822 Y25.3377 
G01 X-39.8873 Y25.3373 
G01 X-39.8921 Y25.3353 
G01 X-39.9125 Y25.3353 
G01 X-39.9328 Y25.3337 
G01 X-39.9377 Y25.3353 
G01 X-39.9429 Y25.3353 
G01 X-39.9617 Y25.3431 
G01 X-39.9811 Y25.3494 
G01 X-39.9850 Y25.3527 
G01 X-39.9898 Y25.3547 
G01 X-40.0042 Y25.3691 
G01 X-40.0197 Y25.3824 
G01 X-40.0221 Y25.3870 
G01 X-39.9813 Y25.2867 
G01 X-39.9441 Y25.1001 
G01 X-39.9441 Y25.0480 
G01 X-39.9066 Y24.9575 
G01 X-39.8773 Y24.8101 
G01 X-39.8773 Y24.6699 
G01 X-39.8640 Y24.6631 
G01 X-39.8452 Y24.6553 
G01 X-39.8415 Y24.6516 
G01 X-39.8369 Y24.6493 
G01 X-39.8237 Y24.6338 
G01 X-39.8093 Y24.6194 
G01 X-39.8073 Y24.6146 
G01 X-39.8039 Y24.6107 
G01 X-39.7977 Y24.5913 
G01 X-39.7778 Y24.5433 
G01 X-39.7584 Y24.4964 
G01 X-39.7584 Y23.4533 
G01 X-39.6231 Y23.1268 
G01 X-33.9278 Y17.4315 
G01 X-33.9084 Y17.3845 
G01 X-33.9084 Y6.6103 
G01 X-33.9278 Y6.5634 
G01 X-34.0862 Y6.1811 
G01 X-34.0862 Y3.9789 
G01 X-33.9238 Y3.5871 
G01 X-33.6239 Y3.2871 
G00 Z2.5400 
G00 X-86.5559 Y27.4499 
G01 Z-0.2000 F180.00 
G01 X-86.5559 Y27.6401 F300.00 
G01 X-86.5187 Y27.8267 
G01 X-86.4459 Y28.0025 
G01 X-86.3402 Y28.1607 
G01 X-86.2057 Y28.2952 
G01 X-86.0475 Y28.4009 
G01 X-85.8717 Y28.4737 
G01 X-85.6851 Y28.5109 
G01 X-85.4949 Y28.5109 
G01 X-85.3083 Y28.4737 
G01 X-85.1325 Y28.4009 
G01 X-84.9743 Y28.2952 
G01 X-84.8398 Y28.1607 
G01 X-84.7341 Y28.0025 
G01 X-84.6613 Y27.8267 
G01 X-84.6241 Y27.6401 
G01 X-84.6241 Y27.4499 
G01 X-84.6613 Y27.2633 
G01 X-84.7341 Y27.0875 
G01 X-84.8398 Y26.9293 
G01 X-84.9743 Y26.7948 
G01 X-85.1325 Y26.6891 
G01 X-85.3083 Y26.6163 
G01 X-85.4949 Y26.5791 
G01 X-85.6851 Y26.5791 
G01 X-85.8717 Y26.6163 
G01 X-86.0475 Y26.6891 
G01 X-86.2057 Y26.7948 
G01 X-86.3402 Y26.9293 
G01 X-86.4459 Y27.0875 
G01 X-86.5187 Y27.2633 
G01 X-86.5559 Y27.4499 
G00 Z2.5400 
G00 X-71.3159 Y27.4499 
G01 Z-0.2000 F180.00 
G01 X-71.3159 Y27.6401 F300.00 
G01 X-71.2787 Y27.8267 
G01 X-71.2059 Y28.0025 
G01 X-71.1002 Y28.1607 
G01 X-70.9657 Y28.2952 
G01 X-70.8075 Y28.4009 
G01 X-70.6317 Y28.4737 
G01 X-70.4451 Y28.5109 
G01 X-70.2549 Y28.5109 
G01 X-70.0683 Y28.4737 
G01 X-69.8925 Y28.4009 
G01 X-69.7343 Y28.2952 
G01 X-69.5998 Y28.1607 
G01 X-69.4941 Y28.0025 
G01 X-69.4213 Y27.8267 
G01 X-69.3841 Y27.6401 
G01 X-69.3841 Y27.4499 
G01 X-69.4213 Y27.2633 
G01 X-69.4941 Y27.0875 
G01 X-69.5998 Y26.9293 
G01 X-69.7343 Y26.7948 
G01 X-69.8925 Y26.6891 
G01 X-70.0683 Y26.6163 
G01 X-70.2549 Y26.5791 
G01 X-70.4451 Y26.5791 
G01 X-70.6317 Y26.6163 
G01 X-70.8075 Y26.6891 
G01 X-70.9657 Y26.7948 
G01 X-71.1002 Y26.9293 
G01 X-71.2059 Y27.0875 
G01 X-71.2787 Y27.2633 
G01 X-71.3159 Y27.4499 
G00 Z2.5400 
G00 X-56.0759 Y27.4499 
G01 Z-0.2000 F180.00 
G01 X-56.0759 Y27.6401 F300.00 
G01 X-56.0387 Y27.8267 
G01 X-55.9659 Y28.0025 
G01 X-55.8602 Y28.1607 
G01 X-55.7257 Y28.2952 
G01 X-55.5675 Y28.4009 
G01 X-55.3917 Y28.4737 
G01 X-55.2051 Y28.5109 
G01 X-55.0149 Y28.5109 
G01 X-54.8283 Y28.4737 
G01 X-54.6525 Y28.4009 
G01 X-54.4943 Y28.2952 
G01 X-54.3598 Y28.1607 
G01 X-54.2541 Y28.0025 
G01 X-54.1813 Y27.8267 
G01 X-54.1441 Y27.6401 
G01 X-54.1441 Y27.4499 
G01 X-54.1813 Y27.2633 
G01 X-54.2541 Y27.0875 
G01 X-54.3598 Y26.9293 
G01 X-54.4943 Y26.7948 
G01 X-54.6525 Y26.6891 
G01 X-54.8283 Y26.6163 
G01 X-55.0149 Y26.5791 
G01 X-55.2051 Y26.5791 
G01 X-55.3917 Y26.6163 
G01 X-55.5675 Y26.6891 
G01 X-55.7257 Y26.7948 
G01 X-55.8602 Y26.9293 
G01 X-55.9659 Y27.0875 
G01 X-56.0387 Y27.2633 
G01 X-56.0759 Y27.4499 
G00 Z2.5400 
G00 X-25.5959 Y27.4499 
G01 Z-0.2000 F180.00 
G01 X-25.5959 Y27.6401 F300.00 
G01 X-25.5587 Y27.8267 
G01 X-25.4859 Y28.0025 
G01 X-25.3802 Y28.1607 
G01 X-25.2457 Y28.2952 
G01 X-25.0875 Y28.4009 
G01 X-24.9117 Y28.4737 
G01 X-24.7251 Y28.5109 
G01 X-24.5349 Y28.5109 
G01 X-24.3483 Y28.4737 
G01 X-24.1725 Y28.4009 
G01 X-24.0143 Y28.2952 
G01 X-23.8798 Y28.1607 
G01 X-23.7741 Y28.0025 
G01 X-23.7013 Y27.8267 
G01 X-23.6641 Y27.6401 
G01 X-23.6641 Y27.4499 
G01 X-23.7013 Y27.2633 
G01 X-23.7741 Y27.0875 
G01 X-23.8798 Y26.9293 
G01 X-24.0143 Y26.7948 
G01 X-24.1725 Y26.6891 
G01 X-24.3483 Y26.6163 
G01 X-24.5349 Y26.5791 
G01 X-24.7251 Y26.5791 
G01 X-24.9117 Y26.6163 
G01 X-25.0875 Y26.6891 
G01 X-25.2457 Y26.7948 
G01 X-25.3802 Y26.9293 
G01 X-25.4859 Y27.0875 
G01 X-25.5587 Y27.2633 
G01 X-25.5959 Y27.4499 
G00 Z2.5400 
G00 X-8.3159 Y27.4499 
G01 Z-0.2000 F180.00 
G01 X-8.3159 Y27.6401 F300.00 
G01 X-8.2787 Y27.8267 
G01 X-8.2059 Y28.0025 
G01 X-8.1889 Y28.0281 
G01 X-8.1889 Y28.5925 
G01 X-8.6025 Y29.0061 
G01 X-10.4475 Y29.0061 
G01 X-12.6834 Y26.7703 
G01 X-12.8003 Y26.6534 
G01 X-12.9377 Y26.5616 
G01 X-13.0903 Y26.4984 
G01 X-13.2524 Y26.4661 
G01 X-19.1326 Y26.4661 
G01 X-19.2947 Y26.4984 
G01 X-19.4473 Y26.5616 
G01 X-19.5847 Y26.6534 
G01 X-21.7511 Y28.8198 
G01 X-21.7511 Y28.0281 
G01 X-21.7341 Y28.0025 
G01 X-21.6613 Y27.8267 
G01 X-21.6241 Y27.6401 
G01 X-21.6241 Y27.4499 
G01 X-21.6613 Y27.2633 
G01 X-21.7341 Y27.0875 
G01 X-21.8398 Y26.9293 
G01 X-21.9743 Y26.7948 
G01 X-22.1325 Y26.6891 
G01 X-22.3083 Y26.6163 
G01 X-22.4949 Y26.5791 
G01 X-22.6851 Y26.5791 
G01 X-22.8717 Y26.6163 
G01 X-23.0475 Y26.6891 
G01 X-23.2057 Y26.7948 
G01 X-23.3402 Y26.9293 
G01 X-23.4459 Y27.0875 
G01 X-23.5187 Y27.2633 
G01 X-23.5559 Y27.4499 
G01 X-23.5559 Y27.6401 
G01 X-23.5187 Y27.8267 
G01 X-23.4459 Y28.0025 
G01 X-23.4289 Y28.0281 
G01 X-23.4289 Y28.5925 
G01 X-23.5116 Y28.6753 
G01 X-23.6034 Y28.8127 
G01 X-23.6666 Y28.9653 
G01 X-23.6747 Y29.0061 
G01 X-25.6875 Y29.0061 
G01 X-27.9234 Y26.7703 
G01 X-28.0403 Y26.6534 
G01 X-28.1776 Y26.5616 
G01 X-28.3303 Y26.4984 
G01 X-28.4924 Y26.4661 
G01 X-34.3726 Y26.4661 
G01 X-34.5347 Y26.4984 
G01 X-34.6873 Y26.5616 
G01 X-34.8247 Y26.6534 
G01 X-36.9911 Y28.8198 
G01 X-36.9911 Y28.0281 
G01 X-36.9741 Y28.0025 
G01 X-36.9013 Y27.8267 
G01 X-36.8641 Y27.6401 
G01 X-36.8641 Y27.4499 
G01 X-36.9013 Y27.2633 
G01 X-36.9741 Y27.0875 
G01 X-37.0798 Y26.9293 
G01 X-37.2143 Y26.7948 
G01 X-37.3725 Y26.6891 
G01 X-37.5483 Y26.6163 
G01 X-37.7349 Y26.5791 
G01 X-37.9251 Y26.5791 
G01 X-38.1117 Y26.6163 
G01 X-38.2875 Y26.6891 
G01 X-38.4457 Y26.7948 
G01 X-38.5802 Y26.9293 
G01 X-38.6859 Y27.0875 
G01 X-38.7587 Y27.2633 
G01 X-38.7666 Y27.3027 
G01 X-38.8434 Y27.4177 
G01 X-38.9041 Y27.5643 
G01 X-38.9041 Y27.4499 
G01 X-38.9413 Y27.2633 
G01 X-39.0141 Y27.0875 
G01 X-39.1198 Y26.9293 
G01 X-39.2543 Y26.7948 
G01 X-39.4125 Y26.6891 
G01 X-39.5883 Y26.6163 
G01 X-39.7749 Y26.5791 
G01 X-39.9651 Y26.5791 
G01 X-40.1517 Y26.6163 
G01 X-40.3275 Y26.6891 
G01 X-40.4857 Y26.7948 
G01 X-40.6202 Y26.9293 
G01 X-40.7259 Y27.0875 
G01 X-40.7987 Y27.2633 
G01 X-40.8359 Y27.4499 
G01 X-40.8359 Y27.6401 
G01 X-40.7987 Y27.8267 
G01 X-40.7259 Y28.0025 
G01 X-40.6202 Y28.1607 
G01 X-40.4857 Y28.2952 
G01 X-40.3275 Y28.4009 
G01 X-40.1517 Y28.4737 
G01 X-39.9651 Y28.5109 
G01 X-39.7749 Y28.5109 
G01 X-39.5883 Y28.4737 
G01 X-39.4125 Y28.4009 
G01 X-39.2543 Y28.2952 
G01 X-39.1198 Y28.1607 
G01 X-39.0141 Y28.0025 
G01 X-38.9413 Y27.8267 
G01 X-38.9389 Y27.8146 
G01 X-38.9389 Y29.0061 
G01 X-40.2925 Y29.0061 
G01 X-42.5284 Y26.7703 
G01 X-42.6453 Y26.6534 
G01 X-42.7827 Y26.5616 
G01 X-42.9353 Y26.4984 
G01 X-43.0974 Y26.4661 
G01 X-49.6126 Y26.4661 
G01 X-49.7747 Y26.4984 
G01 X-49.9273 Y26.5616 
G01 X-50.0647 Y26.6534 
G01 X-52.2311 Y28.8198 
G01 X-52.2311 Y28.0281 
G01 X-52.2141 Y28.0025 
G01 X-52.1413 Y27.8267 
G01 X-52.1041 Y27.6401 
G01 X-52.1041 Y27.4499 
G01 X-52.1413 Y27.2633 
G01 X-52.2141 Y27.0875 
G01 X-52.3198 Y26.9293 
G01 X-52.4543 Y26.7948 
G01 X-52.6125 Y26.6891 
G01 X-52.7883 Y26.6163 
G01 X-52.9749 Y26.5791 
G01 X-53.1651 Y26.5791 
G01 X-53.3517 Y26.6163 
G01 X-53.5275 Y26.6891 
G01 X-53.6857 Y26.7948 
G01 X-53.8202 Y26.9293 
G01 X-53.9259 Y27.0875 
G01 X-53.9987 Y27.2633 
G01 X-54.0359 Y27.4499 
G01 X-54.0359 Y27.6401 
G01 X-53.9987 Y27.8267 
G01 X-53.9259 Y28.0025 
G01 X-53.9089 Y28.0281 
G01 X-53.9089 Y29.0061 
G01 X-56.1675 Y29.0061 
G01 X-58.4034 Y26.7703 
G01 X-58.5203 Y26.6534 
G01 X-58.6577 Y26.5616 
G01 X-58.8103 Y26.4984 
G01 X-58.9724 Y26.4661 
G01 X-64.8526 Y26.4661 
G01 X-65.0147 Y26.4984 
G01 X-65.1673 Y26.5616 
G01 X-65.3047 Y26.6534 
G01 X-67.4711 Y28.8198 
G01 X-67.4711 Y28.0281 
G01 X-67.4541 Y28.0025 
G01 X-67.3813 Y27.8267 
G01 X-67.3441 Y27.6401 
G01 X-67.3441 Y27.4499 
G01 X-67.3813 Y27.2633 
G01 X-67.4541 Y27.0875 
G01 X-67.5598 Y26.9293 
G01 X-67.6943 Y26.7948 
G01 X-67.8525 Y26.6891 
G01 X-68.0283 Y26.6163 
G01 X-68.2149 Y26.5791 
G01 X-68.4051 Y26.5791 
G01 X-68.5917 Y26.6163 
G01 X-68.7675 Y26.6891 
G01 X-68.9257 Y26.7948 
G01 X-69.0602 Y26.9293 
G01 X-69.1659 Y27.0875 
G01 X-69.2387 Y27.2633 
G01 X-69.2759 Y27.4499 
G01 X-69.2759 Y27.6401 
G01 X-69.2387 Y27.8267 
G01 X-69.1941 Y27.9346 
G01 X-69.3059 Y29.0061 
G01 X-71.4075 Y29.0061 
G01 X-73.6434 Y26.7703 
G01 X-73.7603 Y26.6534 
G01 X-73.8976 Y26.5616 
G01 X-74.0503 Y26.4984 
G01 X-74.2124 Y26.4661 
G01 X-81.8627 Y26.4661 
G01 X-81.9229 Y26.4629 
G01 X-81.9451 Y26.4661 
G01 X-81.9676 Y26.4661 
G01 X-82.0268 Y26.4779 
G01 X-83.1955 Y26.6464 
G01 X-83.2683 Y26.6163 
G01 X-83.4549 Y26.5791 
G01 X-83.6451 Y26.5791 
G01 X-83.8317 Y26.6163 
G01 X-84.0075 Y26.6891 
G01 X-84.1657 Y26.7948 
G01 X-84.3002 Y26.9293 
G01 X-84.4059 Y27.0875 
G01 X-84.4787 Y27.2633 
G01 X-84.5159 Y27.4499 
G01 X-84.5159 Y27.6401 
G01 X-84.4787 Y27.8267 
G01 X-84.4059 Y28.0025 
G01 X-84.3002 Y28.1607 
G01 X-84.1657 Y28.2952 
G01 X-84.0075 Y28.4009 
G01 X-83.8317 Y28.4737 
G01 X-83.6451 Y28.5109 
G01 X-83.4549 Y28.5109 
G01 X-83.2683 Y28.4737 
G01 X-83.0925 Y28.4009 
G01 X-82.9506 Y28.3061 
G01 X-81.8249 Y28.1439 
G01 X-74.6425 Y28.1439 
G01 X-72.2897 Y30.4966 
G01 X-72.1523 Y30.5884 
G01 X-71.9997 Y30.6516 
G01 X-71.8376 Y30.6839 
G01 X-68.5936 Y30.6839 
G01 X-68.5549 Y30.6879 
G01 X-68.5112 Y30.6839 
G01 X-67.2274 Y30.6839 
G01 X-67.0653 Y30.6516 
G01 X-66.9126 Y30.5884 
G01 X-66.7753 Y30.4966 
G01 X-66.6584 Y30.3797 
G01 X-64.4225 Y28.1439 
G01 X-59.4025 Y28.1439 
G01 X-57.0497 Y30.4966 
G01 X-56.9123 Y30.5884 
G01 X-56.7597 Y30.6516 
G01 X-56.5976 Y30.6839 
G01 X-51.9874 Y30.6839 
G01 X-51.8253 Y30.6516 
G01 X-51.6727 Y30.5884 
G01 X-51.5353 Y30.4966 
G01 X-51.4184 Y30.3797 
G01 X-49.1825 Y28.1439 
G01 X-43.5275 Y28.1439 
G01 X-41.1747 Y30.4966 
G01 X-41.0373 Y30.5884 
G01 X-40.8847 Y30.6516 
G01 X-40.7226 Y30.6839 
G01 X-36.7474 Y30.6839 
G01 X-36.5853 Y30.6516 
G01 X-36.4327 Y30.5884 
G01 X-36.2953 Y30.4966 
G01 X-36.1784 Y30.3797 
G01 X-33.9425 Y28.1439 
G01 X-28.9225 Y28.1439 
G01 X-26.6866 Y30.3797 
G01 X-26.5697 Y30.4966 
G01 X-26.4323 Y30.5884 
G01 X-26.2797 Y30.6516 
G01 X-26.1176 Y30.6839 
G01 X-22.7774 Y30.6839 
G01 X-22.6153 Y30.6516 
G01 X-22.5425 Y30.6215 
G01 X-22.4697 Y30.6516 
G01 X-22.3076 Y30.6839 
G01 X-22.1424 Y30.6839 
G01 X-21.9803 Y30.6516 
G01 X-21.9075 Y30.6215 
G01 X-21.8347 Y30.6516 
G01 X-21.6726 Y30.6839 
G01 X-21.5074 Y30.6839 
G01 X-21.3453 Y30.6516 
G01 X-21.1927 Y30.5884 
G01 X-21.0553 Y30.4966 
G01 X-18.7025 Y28.1439 
G01 X-13.6825 Y28.1439 
G01 X-11.3297 Y30.4966 
G01 X-11.1923 Y30.5884 
G01 X-11.0397 Y30.6516 
G01 X-10.8776 Y30.6839 
G01 X-8.1724 Y30.6839 
G01 X-8.0103 Y30.6516 
G01 X-7.8577 Y30.5884 
G01 X-7.7203 Y30.4966 
G01 X-7.6034 Y30.3797 
G01 X-6.6984 Y29.4747 
G01 X-6.6066 Y29.3373 
G01 X-6.5434 Y29.1847 
G01 X-6.5111 Y29.0226 
G01 X-6.5111 Y28.0281 
G01 X-6.4941 Y28.0025 
G01 X-6.4213 Y27.8267 
G01 X-6.4153 Y27.7966 
G01 X-5.6984 Y27.0797 
G01 X-5.6066 Y26.9423 
G01 X-5.5434 Y26.7897 
G01 X-5.5111 Y26.6276 
G01 X-5.5111 Y24.9224 
G01 X-5.5186 Y24.8850 
G01 X-5.5111 Y24.8476 
G01 X-5.5111 Y20.3270 
G01 X-5.5099 Y20.2516 
G01 X-5.5111 Y20.2446 
G01 X-5.5111 Y20.2374 
G01 X-5.5259 Y20.1633 
G01 X-5.5393 Y20.0890 
G01 X-5.5420 Y20.0823 
G01 X-5.5434 Y20.0753 
G01 X-5.5722 Y20.0056 
G01 X-5.6000 Y19.9353 
G01 X-5.6039 Y19.9293 
G01 X-5.6066 Y19.9227 
G01 X-5.6485 Y19.8599 
G01 X-5.6894 Y19.7964 
G01 X-5.6944 Y19.7912 
G01 X-5.6984 Y19.7853 
G01 X-5.7518 Y19.7319 
G01 X-24.1094 Y0.7412 
G01 X-24.1134 Y0.7353 
G01 X-24.1668 Y0.6819 
G01 X-24.2193 Y0.6276 
G01 X-24.2252 Y0.6235 
G01 X-24.2303 Y0.6184 
G01 X-24.2931 Y0.5765 
G01 X-24.3551 Y0.5335 
G01 X-24.3617 Y0.5306 
G01 X-24.3677 Y0.5266 
G01 X-24.4374 Y0.4977 
G01 X-24.5067 Y0.4676 
G01 X-24.5137 Y0.4661 
G01 X-24.5203 Y0.4634 
G01 X-24.5944 Y0.4486 
G01 X-24.6682 Y0.4327 
G01 X-24.6753 Y0.4325 
G01 X-24.6824 Y0.4311 
G01 X-24.7580 Y0.4311 
G01 X-24.8334 Y0.4299 
G01 X-24.8404 Y0.4311 
G01 X-43.2626 Y0.4311 
G01 X-43.4247 Y0.4634 
G01 X-43.5773 Y0.5266 
G01 X-43.7147 Y0.6184 
G01 X-43.8316 Y0.7353 
G01 X-43.9234 Y0.8727 
G01 X-43.9866 Y1.0253 
G01 X-44.0189 Y1.1874 
G01 X-44.0189 Y3.6165 
G01 X-44.0810 Y3.7094 
G01 X-44.1576 Y3.8944 
G01 X-44.1967 Y4.0909 
G01 X-44.1967 Y6.0691 
G01 X-44.1576 Y6.2655 
G01 X-44.0810 Y6.4506 
G01 X-43.9697 Y6.6171 
G01 X-43.8281 Y6.7587 
G01 X-43.6616 Y6.8700 
G01 X-43.4765 Y6.9466 
G01 X-43.2801 Y6.9857 
G01 X-43.0799 Y6.9857 
G01 X-42.8835 Y6.9466 
G01 X-42.6984 Y6.8700 
G01 X-42.5319 Y6.7587 
G01 X-42.3903 Y6.6171 
G01 X-42.2790 Y6.4506 
G01 X-42.2024 Y6.2655 
G01 X-42.1633 Y6.0691 
G01 X-42.1633 Y4.0909 
G01 X-42.2024 Y3.8944 
G01 X-42.2790 Y3.7094 
G01 X-42.3411 Y3.6165 
G01 X-42.3411 Y2.1089 
G01 X-25.1208 Y2.1089 
G01 X-7.1889 Y20.6592 
G01 X-7.1889 Y24.8476 
G01 X-7.1814 Y24.8850 
G01 X-7.1889 Y24.9224 
G01 X-7.1889 Y26.1975 
G01 X-7.6016 Y26.6103 
G01 X-7.6317 Y26.6163 
G01 X-7.8075 Y26.6891 
G01 X-7.9657 Y26.7948 
G01 X-8.1002 Y26.9293 
G01 X-8.2059 Y27.0875 
G01 X-8.2787 Y27.2633 
G01 X-8.3159 Y27.4499 
G00 Z2.5400 
G00 X-10.3559 Y27.4499 
G01 Z-0.2000 F180.00 
G01 X-10.3559 Y27.6401 F300.00 
G01 X-10.3187 Y27.8267 
G01 X-10.2459 Y28.0025 
G01 X-10.1402 Y28.1607 
G01 X-10.0057 Y28.2952 
G01 X-9.8475 Y28.4009 
G01 X-9.6717 Y28.4737 
G01 X-9.4851 Y28.5109 
G01 X-9.2949 Y28.5109 
G01 X-9.1083 Y28.4737 
G01 X-8.9325 Y28.4009 
G01 X-8.7743 Y28.2952 
G01 X-8.6398 Y28.1607 
G01 X-8.5341 Y28.0025 
G01 X-8.4613 Y27.8267 
G01 X-8.4241 Y27.6401 
G01 X-8.4241 Y27.4499 
G01 X-8.4613 Y27.2633 
G01 X-8.5341 Y27.0875 
G01 X-8.6398 Y26.9293 
G01 X-8.7743 Y26.7948 
G01 X-8.9325 Y26.6891 
G01 X-9.1083 Y26.6163 
G01 X-9.2949 Y26.5791 
G01 X-9.4851 Y26.5791 
G01 X-9.6717 Y26.6163 
G01 X-9.8475 Y26.6891 
G01 X-10.0057 Y26.7948 
G01 X-10.1402 Y26.9293 
G01 X-10.2459 Y27.0875 
G01 X-10.3187 Y27.2633 
G01 X-10.3559 Y27.4499 
G00 Z2.5400 
G00 X-28.9567 Y4.0909 
G01 Z-0.2000 F180.00 
G01 X-28.9567 Y6.0691 F300.00 
G01 X-28.9176 Y6.2655 
G01 X-28.8410 Y6.4506 
G01 X-28.7789 Y6.5435 
G01 X-28.7789 Y15.3226 
G01 X-28.7466 Y15.4847 
G01 X-28.6834 Y15.6373 
G01 X-28.5916 Y15.7747 
G01 X-28.4747 Y15.8916 
G01 X-24.6647 Y19.7016 
G01 X-24.5273 Y19.7934 
G01 X-24.3747 Y19.8566 
G01 X-24.2126 Y19.8889 
G01 X-11.1425 Y19.8889 
G01 X-9.2289 Y21.8025 
G01 X-9.2289 Y24.5219 
G01 X-9.2459 Y24.5475 
G01 X-9.3187 Y24.7233 
G01 X-9.3559 Y24.9099 
G01 X-9.3559 Y25.1001 
G01 X-9.3187 Y25.2867 
G01 X-9.2459 Y25.4625 
G01 X-9.1402 Y25.6207 
G01 X-9.0057 Y25.7552 
G01 X-8.8475 Y25.8609 
G01 X-8.6717 Y25.9337 
G01 X-8.4851 Y25.9709 
G01 X-8.2949 Y25.9709 
G01 X-8.1083 Y25.9337 
G01 X-7.9325 Y25.8609 
G01 X-7.7743 Y25.7552 
G01 X-7.6398 Y25.6207 
G01 X-7.5341 Y25.4625 
G01 X-7.4613 Y25.2867 
G01 X-7.4241 Y25.1001 
G01 X-7.4241 Y24.9099 
G01 X-7.4613 Y24.7233 
G01 X-7.5341 Y24.5475 
G01 X-7.5511 Y24.5219 
G01 X-7.5511 Y21.3724 
G01 X-7.5834 Y21.2103 
G01 X-7.6466 Y21.0577 
G01 X-7.7384 Y20.9203 
G01 X-10.1434 Y18.5153 
G01 X-10.2603 Y18.3984 
G01 X-10.3977 Y18.3066 
G01 X-10.5503 Y18.2434 
G01 X-10.7124 Y18.2111 
G01 X-23.7825 Y18.2111 
G01 X-27.1011 Y14.8925 
G01 X-27.1011 Y6.5435 
G01 X-27.0390 Y6.4506 
G01 X-26.9624 Y6.2655 
G01 X-26.9233 Y6.0691 
G01 X-26.9233 Y4.0909 
G01 X-26.9624 Y3.8944 
G01 X-27.0390 Y3.7094 
G01 X-27.1503 Y3.5429 
G01 X-27.2919 Y3.4013 
G01 X-27.4584 Y3.2900 
G01 X-27.6435 Y3.2134 
G01 X-27.8399 Y3.1743 
G01 X-28.0401 Y3.1743 
G01 X-28.2365 Y3.2134 
G01 X-28.4216 Y3.2900 
G01 X-28.5881 Y3.4013 
G01 X-28.7297 Y3.5429 
G01 X-28.8410 Y3.7094 
G01 X-28.9176 Y3.8944 
G01 X-28.9567 Y4.0909 
G00 Z2.5400 
G00 X-38.7039 Y3.2871 
G01 Z-0.2000 F180.00 
G01 X-38.3121 Y3.1248 F300.00 
G01 X-37.8879 Y3.1248 
G01 X-37.4961 Y3.2871 
G01 X-37.1961 Y3.5871 
G01 X-37.0338 Y3.9789 
G01 X-37.0338 Y6.1811 
G01 X-37.2116 Y6.6103 
G01 X-37.2116 Y12.8767 
G01 X-37.3469 Y13.2032 
G01 X-37.6327 Y13.4890 
G01 X-40.7718 Y16.6281 
G01 X-41.0983 Y16.7634 
G01 X-61.8345 Y16.7634 
G01 X-61.8815 Y16.7828 
G01 X-61.9174 Y16.8187 
G01 X-68.4422 Y23.3435 
G01 X-68.4616 Y23.3905 
G01 X-68.4616 Y24.4964 
G01 X-68.4487 Y24.5276 
G01 X-68.3346 Y24.8030 
G01 X-68.3346 Y25.2070 
G01 X-68.4892 Y25.5801 
G01 X-68.7748 Y25.8658 
G01 X-69.1480 Y26.0204 
G01 X-69.5520 Y26.0204 
G01 X-69.9252 Y25.8658 
G01 X-70.2108 Y25.5801 
G01 X-70.2776 Y25.4187 
G01 X-70.2839 Y25.3993 
G01 X-70.2873 Y25.3954 
G01 X-70.2893 Y25.3906 
G01 X-70.3037 Y25.3762 
G01 X-70.3169 Y25.3607 
G01 X-70.3215 Y25.3584 
G01 X-70.3252 Y25.3547 
G01 X-70.3440 Y25.3469 
G01 X-70.3622 Y25.3377 
G01 X-70.3673 Y25.3373 
G01 X-70.3721 Y25.3353 
G01 X-70.3925 Y25.3353 
G01 X-70.4128 Y25.3337 
G01 X-70.4177 Y25.3353 
G01 X-70.4229 Y25.3353 
G01 X-70.4417 Y25.3431 
G01 X-70.4611 Y25.3494 
G01 X-70.4650 Y25.3527 
G01 X-70.4698 Y25.3547 
G01 X-70.4842 Y25.3691 
G01 X-70.4997 Y25.3824 
G01 X-70.5021 Y25.3870 
G01 X-70.4613 Y25.2867 
G01 X-70.4241 Y25.1001 
G01 X-70.4241 Y25.0480 
G01 X-70.3867 Y24.9575 
G01 X-70.3573 Y24.8101 
G01 X-70.3573 Y24.6699 
G01 X-70.3440 Y24.6631 
G01 X-70.3252 Y24.6553 
G01 X-70.3215 Y24.6516 
G01 X-70.3169 Y24.6493 
G01 X-70.3037 Y24.6338 
G01 X-70.2893 Y24.6194 
G01 X-70.2873 Y24.6146 
G01 X-70.2839 Y24.6107 
G01 X-70.2776 Y24.5913 
G01 X-70.2578 Y24.5433 
G01 X-70.2384 Y24.4964 
G01 X-70.2384 Y22.8183 
G01 X-70.1031 Y22.4918 
G01 X-62.9831 Y15.3718 
G01 X-62.7332 Y15.1219 
G01 X-62.4067 Y14.9866 
G01 X-41.6705 Y14.9866 
G01 X-41.6235 Y14.9672 
G01 X-41.5876 Y14.9313 
G01 X-39.0078 Y12.3515 
G01 X-38.9884 Y12.3045 
G01 X-38.9884 Y6.6103 
G01 X-39.0078 Y6.5634 
G01 X-39.1662 Y6.1811 
G01 X-39.1662 Y3.9789 
G01 X-39.0038 Y3.5871 
G01 X-38.7039 Y3.2871 
G00 Z2.5400 
G00 X-39.7516 Y10.3367 
G01 Z-0.2000 F180.00 
G01 X-39.8869 Y10.6632 F300.00 
G01 X-40.1727 Y10.9490 
G01 X-42.0418 Y12.8181 
G01 X-42.3683 Y12.9534 
G01 X-75.7998 Y12.9534 
G01 X-75.8227 Y12.9525 
G01 X-75.8278 Y12.9534 
G01 X-75.8489 Y12.9621 
G01 X-75.8704 Y12.9700 
G01 X-75.8747 Y12.9728 
G01 X-75.8908 Y12.9890 
G01 X-83.6439 Y20.1552 
G01 X-83.6625 Y20.1724 
G01 X-83.6793 Y20.1879 
G01 X-83.6822 Y20.1921 
G01 X-83.6910 Y20.2133 
G01 X-83.7005 Y20.2340 
G01 X-83.7006 Y20.2366 
G01 X-83.7016 Y20.2619 
G01 X-83.7025 Y20.2848 
G01 X-83.7016 Y24.4964 
G01 X-83.6822 Y24.5433 
G01 X-83.5746 Y24.8030 
G01 X-83.5746 Y25.2070 
G01 X-83.7292 Y25.5801 
G01 X-84.0148 Y25.8658 
G01 X-84.3880 Y26.0204 
G01 X-84.7920 Y26.0204 
G01 X-85.1651 Y25.8658 
G01 X-85.4508 Y25.5801 
G01 X-85.5176 Y25.4187 
G01 X-85.5239 Y25.3993 
G01 X-85.5273 Y25.3954 
G01 X-85.5293 Y25.3906 
G01 X-85.5437 Y25.3762 
G01 X-85.5569 Y25.3607 
G01 X-85.5615 Y25.3584 
G01 X-85.5652 Y25.3547 
G01 X-85.5840 Y25.3469 
G01 X-85.6022 Y25.3377 
G01 X-85.6073 Y25.3373 
G01 X-85.6121 Y25.3353 
G01 X-85.6325 Y25.3353 
G01 X-85.6528 Y25.3337 
G01 X-85.6577 Y25.3353 
G01 X-85.6629 Y25.3353 
G01 X-85.6817 Y25.3431 
G01 X-85.7011 Y25.3494 
G01 X-85.7050 Y25.3527 
G01 X-85.7098 Y25.3547 
G01 X-85.7242 Y25.3691 
G01 X-85.7397 Y25.3824 
G01 X-85.7421 Y25.3870 
G01 X-85.7013 Y25.2867 
G01 X-85.6641 Y25.1001 
G01 X-85.6641 Y24.9099 
G01 X-85.7013 Y24.7233 
G01 X-85.7433 Y24.6218 
G01 X-85.7397 Y24.6276 
G01 X-85.7242 Y24.6409 
G01 X-85.7098 Y24.6553 
G01 X-85.7050 Y24.6573 
G01 X-85.7011 Y24.6606 
G01 X-85.6817 Y24.6669 
G01 X-85.6629 Y24.6747 
G01 X-85.6577 Y24.6747 
G01 X-85.6528 Y24.6763 
G01 X-85.6325 Y24.6747 
G01 X-85.6121 Y24.6747 
G01 X-85.6073 Y24.6727 
G01 X-85.6022 Y24.6723 
G01 X-85.5840 Y24.6631 
G01 X-85.5652 Y24.6553 
G01 X-85.5615 Y24.6516 
G01 X-85.5569 Y24.6493 
G01 X-85.5437 Y24.6338 
G01 X-85.5293 Y24.6194 
G01 X-85.5273 Y24.6146 
G01 X-85.5239 Y24.6107 
G01 X-85.5177 Y24.5913 
G01 X-85.4970 Y24.5415 
G01 X-85.4784 Y24.4964 
G01 X-85.4784 Y20.0039 
G01 X-85.4775 Y19.9811 
G01 X-85.4784 Y19.9760 
G01 X-85.4846 Y19.9610 
G01 X-85.4794 Y19.8278 
G01 X-85.4784 Y19.8026 
G01 X-85.4775 Y19.7797 
G01 X-85.4784 Y19.6440 
G01 X-85.4715 Y19.6292 
G01 X-85.4714 Y19.6266 
G01 X-85.4704 Y19.6079 
G01 X-85.4147 Y19.4869 
G01 X-85.4041 Y19.4639 
G01 X-85.3945 Y19.4431 
G01 X-85.3944 Y19.4405 
G01 X-85.3434 Y19.3174 
G01 X-85.3314 Y19.3063 
G01 X-85.3285 Y19.3022 
G01 X-85.3223 Y19.2871 
G01 X-85.2244 Y19.1967 
G01 X-85.2058 Y19.1795 
G01 X-85.1890 Y19.1640 
G01 X-85.0937 Y19.0674 
G01 X-85.0784 Y19.0617 
G01 X-85.0741 Y19.0590 
G01 X-85.0580 Y19.0428 
G01 X-76.8344 Y11.4417 
G01 X-76.8158 Y11.4245 
G01 X-76.7990 Y11.4090 
G01 X-76.7037 Y11.3124 
G01 X-76.6884 Y11.3067 
G01 X-76.6841 Y11.3040 
G01 X-76.6726 Y11.2925 
G01 X-76.5476 Y11.2463 
G01 X-76.5450 Y11.2463 
G01 X-76.5238 Y11.2376 
G01 X-76.5024 Y11.2297 
G01 X-76.3773 Y11.1769 
G01 X-76.3611 Y11.1775 
G01 X-76.3560 Y11.1766 
G01 X-76.3410 Y11.1704 
G01 X-76.2078 Y11.1756 
G01 X-76.1826 Y11.1766 
G01 X-76.1597 Y11.1775 
G01 X-42.9405 Y11.1766 
G01 X-42.8935 Y11.1572 
G01 X-42.8576 Y11.1213 
G01 X-41.5478 Y9.8115 
G01 X-41.5284 Y9.7645 
G01 X-41.5284 Y6.6103 
G01 X-41.5478 Y6.5634 
G01 X-41.7062 Y6.1811 
G01 X-41.7062 Y3.9789 
G01 X-41.5438 Y3.5871 
G01 X-41.2439 Y3.2871 
G01 X-40.8521 Y3.1248 
G01 X-40.4279 Y3.1248 
G01 X-40.0361 Y3.2871 
G01 X-39.7361 Y3.5871 
G01 X-39.5738 Y3.9789 
G01 X-39.5738 Y6.1811 
G01 X-39.7516 Y6.6103 
G01 X-39.7516 Y6.6611 
G01 X-39.7516 Y10.3367 
G00 Z2.5400 
G00 X-55.0759 Y24.9099 
G01 Z-0.2000 F180.00 
G01 X-55.0759 Y25.1001 F300.00 
G01 X-55.0387 Y25.2867 
G01 X-54.9659 Y25.4625 
G01 X-54.8602 Y25.6207 
G01 X-54.7257 Y25.7552 
G01 X-54.5675 Y25.8609 
G01 X-54.3917 Y25.9337 
G01 X-54.2051 Y25.9709 
G01 X-54.0149 Y25.9709 
G01 X-53.8283 Y25.9337 
G01 X-53.6525 Y25.8609 
G01 X-53.4943 Y25.7552 
G01 X-53.3598 Y25.6207 
G01 X-53.2541 Y25.4625 
G01 X-53.1813 Y25.2867 
G01 X-53.1441 Y25.1001 
G01 X-53.1441 Y24.9099 
G01 X-53.1813 Y24.7233 
G01 X-53.2541 Y24.5475 
G01 X-53.2711 Y24.5219 
G01 X-53.2711 Y22.7075 
G01 X-51.0875 Y20.5239 
G01 X-41.1924 Y20.5239 
G01 X-41.0303 Y20.4916 
G01 X-40.8777 Y20.4284 
G01 X-40.7403 Y20.3366 
G01 X-35.0253 Y14.6216 
G01 X-34.9084 Y14.5047 
G01 X-34.8166 Y14.3673 
G01 X-34.7534 Y14.2147 
G01 X-34.7211 Y14.0526 
G01 X-34.7211 Y6.5435 
G01 X-34.6590 Y6.4506 
G01 X-34.5824 Y6.2655 
G01 X-34.5433 Y6.0691 
G01 X-34.5433 Y4.0909 
G01 X-34.5824 Y3.8944 
G01 X-34.6590 Y3.7094 
G01 X-34.7703 Y3.5429 
G01 X-34.9119 Y3.4013 
G01 X-35.0784 Y3.2900 
G01 X-35.2634 Y3.2134 
G01 X-35.4599 Y3.1743 
G01 X-35.6601 Y3.1743 
G01 X-35.8565 Y3.2134 
G01 X-36.0416 Y3.2900 
G01 X-36.2081 Y3.4013 
G01 X-36.3497 Y3.5429 
G01 X-36.4610 Y3.7094 
G01 X-36.5376 Y3.8944 
G01 X-36.5767 Y4.0909 
G01 X-36.5767 Y6.0691 
G01 X-36.5376 Y6.2655 
G01 X-36.4610 Y6.4506 
G01 X-36.3989 Y6.5435 
G01 X-36.3989 Y13.6225 
G01 X-41.6225 Y18.8461 
G01 X-51.5176 Y18.8461 
G01 X-51.6797 Y18.8784 
G01 X-51.8323 Y18.9416 
G01 X-51.9697 Y19.0334 
G01 X-52.0866 Y19.1503 
G01 X-54.7616 Y21.8253 
G01 X-54.8534 Y21.9627 
G01 X-54.9166 Y22.1153 
G01 X-54.9489 Y22.2774 
G01 X-54.9489 Y24.5219 
G01 X-54.9659 Y24.5475 
G01 X-55.0387 Y24.7233 
G01 X-55.0759 Y24.9099 
G00 Z2.5400 
G00 X-4.9363 Y16.7293 
G01 Z-0.2000 F180.00 
G01 X-4.2055 Y16.4266 F300.00 
G01 X-3.4145 Y16.4266 
G01 X-2.6837 Y16.7293 
G01 X-2.1243 Y17.2887 
G01 X-1.8216 Y18.0195 
G01 X-1.8216 Y18.8105 
G01 X-2.1243 Y19.5413 
G01 X-2.6837 Y20.1006 
G01 X-3.4145 Y20.4034 
G01 X-4.2055 Y20.4034 
G01 X-4.9363 Y20.1006 
G01 X-5.4956 Y19.5413 
G01 X-5.7984 Y18.8105 
G01 X-5.7984 Y18.0195 
G01 X-5.4956 Y17.2887 
G01 X-4.9363 Y16.7293 
G00 Z2.5400 
G00 X-24.5959 Y24.9099 
G01 Z-0.2000 F180.00 
G01 X-24.5959 Y25.1001 F300.00 
G01 X-24.5587 Y25.2867 
G01 X-24.4859 Y25.4625 
G01 X-24.3802 Y25.6207 
G01 X-24.2457 Y25.7552 
G01 X-24.0875 Y25.8609 
G01 X-23.9117 Y25.9337 
G01 X-23.7251 Y25.9709 
G01 X-23.5349 Y25.9709 
G01 X-23.3483 Y25.9337 
G01 X-23.1725 Y25.8609 
G01 X-23.0143 Y25.7552 
G01 X-22.8798 Y25.6207 
G01 X-22.7741 Y25.4625 
G01 X-22.7013 Y25.2867 
G01 X-22.6641 Y25.1001 
G01 X-22.6641 Y24.9099 
G01 X-22.7013 Y24.7233 
G01 X-22.7741 Y24.5475 
G01 X-22.7911 Y24.5219 
G01 X-22.7911 Y23.9124 
G01 X-22.8234 Y23.7503 
G01 X-22.8866 Y23.5977 
G01 X-22.9784 Y23.4603 
G01 X-29.6411 Y16.7975 
G01 X-29.6411 Y6.5435 
G01 X-29.5790 Y6.4506 
G01 X-29.5024 Y6.2655 
G01 X-29.4633 Y6.0691 
G01 X-29.4633 Y4.0909 
G01 X-29.5024 Y3.8944 
G01 X-29.5790 Y3.7094 
G01 X-29.6903 Y3.5429 
G01 X-29.8319 Y3.4013 
G01 X-29.9984 Y3.2900 
G01 X-30.1835 Y3.2134 
G01 X-30.3799 Y3.1743 
G01 X-30.5801 Y3.1743 
G01 X-30.7765 Y3.2134 
G01 X-30.9616 Y3.2900 
G01 X-31.1281 Y3.4013 
G01 X-31.2697 Y3.5429 
G01 X-31.3810 Y3.7094 
G01 X-31.4576 Y3.8944 
G01 X-31.4967 Y4.0909 
G01 X-31.4967 Y6.0691 
G01 X-31.4576 Y6.2655 
G01 X-31.3810 Y6.4506 
G01 X-31.3189 Y6.5435 
G01 X-31.3189 Y17.2276 
G01 X-31.2866 Y17.3897 
G01 X-31.2234 Y17.5423 
G01 X-31.1316 Y17.6797 
G01 X-31.0147 Y17.7966 
G01 X-24.4689 Y24.3425 
G01 X-24.4689 Y24.5219 
G01 X-24.4859 Y24.5475 
G01 X-24.5587 Y24.7233 
G01 X-24.5959 Y24.9099 
G00 Z2.5400 
G00 X-4.9363 Y2.7593 
G01 Z-0.2000 F180.00 
G01 X-4.2055 Y2.4566 F300.00 
G01 X-3.4145 Y2.4566 
G01 X-2.6837 Y2.7593 
G01 X-2.1243 Y3.3187 
G01 X-1.8216 Y4.0495 
G01 X-1.8216 Y4.8405 
G01 X-2.1243 Y5.5713 
G01 X-2.6837 Y6.1306 
G01 X-3.4145 Y6.4334 
G01 X-4.2055 Y6.4334 
G01 X-4.9363 Y6.1306 
G01 X-5.4956 Y5.5713 
G01 X-5.7984 Y4.8405 
G01 X-5.7984 Y4.0495 
G01 X-5.4956 Y3.3187 
G01 X-4.9363 Y2.7593 
G00 Z2.5400 
G00 X-91.2963 Y16.7293 
G01 Z-0.2000 F180.00 
G01 X-90.5655 Y16.4266 F300.00 
G01 X-89.7745 Y16.4266 
G01 X-89.0437 Y16.7293 
G01 X-88.4843 Y17.2887 
G01 X-88.1816 Y18.0195 
G01 X-88.1816 Y18.8105 
G01 X-88.4843 Y19.5413 
G01 X-89.0437 Y20.1006 
G01 X-89.7745 Y20.4034 
G01 X-90.5655 Y20.4034 
G01 X-91.2963 Y20.1006 
G01 X-91.8556 Y19.5413 
G01 X-92.1584 Y18.8105 
G01 X-92.1584 Y18.0195 
G01 X-91.8556 Y17.2887 
G01 X-91.2963 Y16.7293 
G00 Z12.7000 
M05
M02
