%
O01001 (POST TEST FILE)
(T1 D=3. CR=0. - ZMIN=-1. - flat end mill)
N10 G90 G94 G17
N15 G21
N20 G53 G0 Z0.

(2D Pocket1)
N30 T1 M6
N35 S1000 M3
N40 G54
N45 M8
N60 G0 X49.688 Y-50.535
N65 G43 Z15. H1
N70 G0 Z5.
N75 G1 Z1.2 F1000.
N80 Z0.1
N85 G18 G2 X49.988 Z-0.2 I0.3 K0.
N90 G1 X50.
N95 X80.216
N100 G17 G3 X80.535 Y-50.216 I0. J0.319
N105 G1 Y-49.784
N110 G3 X80.216 Y-49.465 I-0.319 J0.
N115 G1 X49.78
N120 G3 X49.465 Y-49.78 I0. J-0.315
N125 G1 Y-50.216
N130 G3 X49.784 Y-50.535 I0.319 J0.
N135 G1 X50.
N140 G2 X50.823 Y-51.084 I0. J-0.891
N145 G3 X51.645 Y-51.632 I0.823 J0.343
N150 G1 X81.313
N155 G3 X81.632 Y-51.313 I0. J0.319
N160 G1 Y-48.687
N165 G3 X81.313 Y-48.368 I-0.319 J0.
N170 G1 X48.683
N175 G3 X48.368 Y-48.683 I0. J-0.315
N180 G1 Y-51.313
N185 G3 X48.687 Y-51.632 I0.319 J0.
N190 G1 X51.645
N195 G2 X53.443 Y-52.83 I0. J-1.947
N200 G3 X55.24 Y-54.029 I1.797 J0.749
N205 G1 X83.709
N210 G3 X84.029 Y-53.709 I0. J0.319
N215 G1 Y-46.291
N220 G3 X83.709 Y-45.971 I-0.319 J0.
N225 G1 X46.287
N230 G3 X45.971 Y-46.287 I0. J-0.315
N235 G1 Y-53.709
N240 G3 X46.291 Y-54.029 I0.319 J0.
N245 G1 X55.24
N250 G2 X57.038 Y-55.227 I0. J-1.947
N255 G3 X58.835 Y-56.425 I1.797 J0.749
N260 G1 X86.106
N265 G3 X86.425 Y-56.106 I0. J0.319
N270 G1 Y-43.894
N275 G3 X86.106 Y-43.575 I-0.319 J0.
N280 G1 X43.89
N285 G3 X43.575 Y-43.89 I0. J-0.315
N290 G1 Y-56.106
N295 G3 X43.894 Y-56.425 I0.319 J0.
N300 G1 X58.835
N305 G2 X60.633 Y-57.624 I0. J-1.947
N310 G3 X62.43 Y-58.822 I1.797 J0.749
N315 G1 X88.503
N320 G3 X88.822 Y-58.502 I0. J0.319
N325 G1 Y-41.498
N330 G3 X88.503 Y-41.178 I-0.319 J0.
N335 G1 X41.494
N340 G3 X41.178 Y-41.494 I0. J-0.315
N345 G1 Y-58.502
N350 G3 X41.498 Y-58.822 I0.319 J0.
N355 G1 X62.43
N360 G2 X64.227 Y-60.02 I0. J-1.947
N365 G3 X66.025 Y-61.218 I1.797 J0.749
N370 G1 X90.899
N375 G3 X91.218 Y-60.899 I0. J0.319
N380 G1 Y-39.101
N385 G3 X90.899 Y-38.782 I-0.319 J0.
N390 G1 X39.097
N395 G3 X38.782 Y-39.097 I0. J-0.315
N400 G1 Y-60.899
N405 G3 X39.101 Y-61.218 I0.319 J0.
N410 G1 X66.025
N415 G2 X67.822 Y-62.417 I0. J-1.947
N420 G3 X69.62 Y-63.615 I1.797 J0.749
N425 G1 X93.296
N430 G3 X93.615 Y-63.296 I0. J0.319
N435 G1 Y-36.704
N440 G3 X93.296 Y-36.385 I-0.319 J0.
N445 G1 X36.7
N450 G3 X36.385 Y-36.7 I0. J-0.315
N455 G1 Y-63.296
N460 G3 X36.704 Y-63.615 I0.319 J0.
N465 G1 X69.62
N470 G2 X71.417 Y-64.813 I0. J-1.947
N475 G3 X73.215 Y-66.012 I1.797 J0.749
N480 G1 X95.692
N485 G3 X96.012 Y-65.692 I0. J0.319
N490 G1 Y-34.308
N495 G3 X95.692 Y-33.988 I-0.319 J0.
N500 G1 X34.304
N505 G3 X33.988 Y-34.304 I0. J-0.315
N510 G1 Y-65.692
N515 G3 X34.308 Y-66.012 I0.319 J0.
N520 G1 X73.215
N525 G2 X75.012 Y-67.21 I0. J-1.947
N530 G3 X76.81 Y-68.408 I1.797 J0.749
N535 G1 X98.089
N540 G3 X98.408 Y-68.089 I0. J0.319
N545 G1 Y-31.911
N550 G3 X98.089 Y-31.592 I-0.319 J0.
N555 G1 X31.907
N560 G3 X31.592 Y-31.907 I0. J-0.315
N565 G1 Y-68.089
N570 G3 X31.911 Y-68.408 I0.319 J0.
N575 G1 X76.81
N580 G2 X78.607 Y-69.607 I0. J-1.947
N585 G3 X80.405 Y-70.805 I1.797 J0.749
N590 G1 X100.486
N595 G3 X100.805 Y-70.486 I0. J0.319
N600 G1 Y-29.514
N605 G3 X100.486 Y-29.195 I-0.319 J0.
N610 G1 X29.51
N615 G3 X29.195 Y-29.51 I0. J-0.315
N620 G1 Y-70.486
N625 G3 X29.514 Y-70.805 I0.319 J0.
N630 G1 X80.405
N635 G2 X82.202 Y-72.003 I0. J-1.947
N640 G3 X84. Y-73.202 I1.797 J0.749
N645 G1 X102.882
N650 G3 X103.202 Y-72.882 I0. J0.319
N655 G1 Y-27.118
N660 G3 X102.882 Y-26.798 I-0.319 J0.
N665 G1 X27.114
N670 G3 X26.798 Y-27.114 I0. J-0.315
N675 G1 Y-72.882
N680 G3 X27.118 Y-73.202 I0.319 J0.
N685 G1 X84.
N690 G2 X85.797 Y-74.4 I0. J-1.947
N695 G3 X87.595 Y-75.598 I1.797 J0.749
N700 G1 X105.279
N705 G3 X105.598 Y-75.279 I0. J0.319
N710 G1 Y-24.721
N715 G3 X105.279 Y-24.402 I-0.319 J0.
N720 G1 X24.717
N725 G3 X24.402 Y-24.717 I0. J-0.315
N730 G1 Y-75.279
N735 G3 X24.721 Y-75.598 I0.319 J0.
N740 G1 X87.595
N745 G2 X89.396 Y-76.799 I0. J-1.951
N750 G3 X91.197 Y-78. I1.801 J0.751
N755 G1 X108.
N760 Y-22.
N765 X22.
N770 Y-78.
N775 X91.197
N780 G3 X91.244 Y-77.996 I0. J0.3
N785 G1 X92.726 Y-77.762
N790 X92.792 Y-77.751 Z-0.192
N795 X92.854 Y-77.741 Z-0.17
N800 X92.91 Y-77.732 Z-0.135
N805 X92.957 Y-77.725 Z-0.087
N810 X92.993 Y-77.719 Z-0.03
N815 X93.015 Y-77.716 Z0.033
N820 X93.022 Y-77.715 Z0.1
N825 G0 Z5.
N830 G1 X49.688 Y-50.535 F5000.
N835 Z1. F1000.
N840 Z-0.1
N845 G18 G2 X49.988 Z-0.4 I0.3 K0.
N850 G1 X50.
N855 X80.216
N860 G17 G3 X80.535 Y-50.216 I0. J0.319
N865 G1 Y-49.784
N870 G3 X80.216 Y-49.465 I-0.319 J0.
N875 G1 X49.78
N880 G3 X49.465 Y-49.78 I0. J-0.315
N885 G1 Y-50.216
N890 G3 X49.784 Y-50.535 I0.319 J0.
N895 G1 X50.
N900 G2 X50.823 Y-51.084 I0. J-0.891
N905 G3 X51.645 Y-51.632 I0.823 J0.343
N910 G1 X81.313
N915 G3 X81.632 Y-51.313 I0. J0.319
N920 G1 Y-48.687
N925 G3 X81.313 Y-48.368 I-0.319 J0.
N930 G1 X48.683
N935 G3 X48.368 Y-48.683 I0. J-0.315
N940 G1 Y-51.313
N945 G3 X48.687 Y-51.632 I0.319 J0.
N950 G1 X51.645
N955 G2 X53.443 Y-52.83 I0. J-1.947
N960 G3 X55.24 Y-54.029 I1.797 J0.749
N965 G1 X83.709
N970 G3 X84.029 Y-53.709 I0. J0.319
N975 G1 Y-46.291
N980 G3 X83.709 Y-45.971 I-0.319 J0.
N985 G1 X46.287
N990 G3 X45.971 Y-46.287 I0. J-0.315
N995 G1 Y-53.709
N1000 G3 X46.291 Y-54.029 I0.319 J0.
N1005 G1 X55.24
N1010 G2 X57.038 Y-55.227 I0. J-1.947
N1015 G3 X58.835 Y-56.425 I1.797 J0.749
N1020 G1 X86.106
N1025 G3 X86.425 Y-56.106 I0. J0.319
N1030 G1 Y-43.894
N1035 G3 X86.106 Y-43.575 I-0.319 J0.
N1040 G1 X43.89
N1045 G3 X43.575 Y-43.89 I0. J-0.315
N1050 G1 Y-56.106
N1055 G3 X43.894 Y-56.425 I0.319 J0.
N1060 G1 X58.835
N1065 G2 X60.633 Y-57.624 I0. J-1.947
N1070 G3 X62.43 Y-58.822 I1.797 J0.749
N1075 G1 X88.503
N1080 G3 X88.822 Y-58.502 I0. J0.319
N1085 G1 Y-41.498
N1090 G3 X88.503 Y-41.178 I-0.319 J0.
N1095 G1 X41.494
N1100 G3 X41.178 Y-41.494 I0. J-0.315
N1105 G1 Y-58.502
N1110 G3 X41.498 Y-58.822 I0.319 J0.
N1115 G1 X62.43
N1120 G2 X64.227 Y-60.02 I0. J-1.947
N1125 G3 X66.025 Y-61.218 I1.797 J0.749
N1130 G1 X90.899
N1135 G3 X91.218 Y-60.899 I0. J0.319
N1140 G1 Y-39.101
N1145 G3 X90.899 Y-38.782 I-0.319 J0.
N1150 G1 X39.097
N1155 G3 X38.782 Y-39.097 I0. J-0.315
N1160 G1 Y-60.899
N1165 G3 X39.101 Y-61.218 I0.319 J0.
N1170 G1 X66.025
N1175 G2 X67.822 Y-62.417 I0. J-1.947
N1180 G3 X69.62 Y-63.615 I1.797 J0.749
N1185 G1 X93.296
N1190 G3 X93.615 Y-63.296 I0. J0.319
N1195 G1 Y-36.704
N1200 G3 X93.296 Y-36.385 I-0.319 J0.
N1205 G1 X36.7
N1210 G3 X36.385 Y-36.7 I0. J-0.315
N1215 G1 Y-63.296
N1220 G3 X36.704 Y-63.615 I0.319 J0.
N1225 G1 X69.62
N1230 G2 X71.417 Y-64.813 I0. J-1.947
N1235 G3 X73.215 Y-66.012 I1.797 J0.749
N1240 G1 X95.692
N1245 G3 X96.012 Y-65.692 I0. J0.319
N1250 G1 Y-34.308
N1255 G3 X95.692 Y-33.988 I-0.319 J0.
N1260 G1 X34.304
N1265 G3 X33.988 Y-34.304 I0. J-0.315
N1270 G1 Y-65.692
N1275 G3 X34.308 Y-66.012 I0.319 J0.
N1280 G1 X73.215
N1285 G2 X75.012 Y-67.21 I0. J-1.947
N1290 G3 X76.81 Y-68.408 I1.797 J0.749
N1295 G1 X98.089
N1300 G3 X98.408 Y-68.089 I0. J0.319
N1305 G1 Y-31.911
N1310 G3 X98.089 Y-31.592 I-0.319 J0.
N1315 G1 X31.907
N1320 G3 X31.592 Y-31.907 I0. J-0.315
N1325 G1 Y-68.089
N1330 G3 X31.911 Y-68.408 I0.319 J0.
N1335 G1 X76.81
N1340 G2 X78.607 Y-69.607 I0. J-1.947
N1345 G3 X80.405 Y-70.805 I1.797 J0.749
N1350 G1 X100.486
N1355 G3 X100.805 Y-70.486 I0. J0.319
N1360 G1 Y-29.514
N1365 G3 X100.486 Y-29.195 I-0.319 J0.
N1370 G1 X29.51
N1375 G3 X29.195 Y-29.51 I0. J-0.315
N1380 G1 Y-70.486
N1385 G3 X29.514 Y-70.805 I0.319 J0.
N1390 G1 X80.405
N1395 G2 X82.202 Y-72.003 I0. J-1.947
N1400 G3 X84. Y-73.202 I1.797 J0.749
N1405 G1 X102.882
N1410 G3 X103.202 Y-72.882 I0. J0.319
N1415 G1 Y-27.118
N1420 G3 X102.882 Y-26.798 I-0.319 J0.
N1425 G1 X27.114
N1430 G3 X26.798 Y-27.114 I0. J-0.315
N1435 G1 Y-72.882
N1440 G3 X27.118 Y-73.202 I0.319 J0.
N1445 G1 X84.
N1450 G2 X85.797 Y-74.4 I0. J-1.947
N1455 G3 X87.595 Y-75.598 I1.797 J0.749
N1460 G1 X105.279
N1465 G3 X105.598 Y-75.279 I0. J0.319
N1470 G1 Y-24.721
N1475 G3 X105.279 Y-24.402 I-0.319 J0.
N1480 G1 X24.717
N1485 G3 X24.402 Y-24.717 I0. J-0.315
N1490 G1 Y-75.279
N1495 G3 X24.721 Y-75.598 I0.319 J0.
N1500 G1 X87.595
N1505 G2 X89.396 Y-76.799 I0. J-1.951
N1510 G3 X91.197 Y-78. I1.801 J0.751
N1515 G1 X108.
N1520 Y-22.
N1525 X22.
N1530 Y-78.
N1535 X91.197
N1540 G3 X91.244 Y-77.996 I0. J0.3
N1545 G1 X92.726 Y-77.762
N1550 X92.792 Y-77.751 Z-0.392
N1555 X92.854 Y-77.741 Z-0.37
N1560 X92.91 Y-77.732 Z-0.335
N1565 X92.957 Y-77.725 Z-0.287
N1570 X92.993 Y-77.719 Z-0.23
N1575 X93.015 Y-77.716 Z-0.167
N1580 X93.022 Y-77.715 Z-0.1
N1585 G0 Z5.
N1590 G1 X49.688 Y-50.535 F5000.
N1595 Z0.8 F1000.
N1600 Z-0.3
N1605 G18 G2 X49.988 Z-0.6 I0.3 K0.
N1610 G1 X50.
N1615 X80.216
N1620 G17 G3 X80.535 Y-50.216 I0. J0.319
N1625 G1 Y-49.784
N1630 G3 X80.216 Y-49.465 I-0.319 J0.
N1635 G1 X49.78
N1640 G3 X49.465 Y-49.78 I0. J-0.315
N1645 G1 Y-50.216
N1650 G3 X49.784 Y-50.535 I0.319 J0.
N1655 G1 X50.
N1660 G2 X50.823 Y-51.084 I0. J-0.891
N1665 G3 X51.645 Y-51.632 I0.823 J0.343
N1670 G1 X81.313
N1675 G3 X81.632 Y-51.313 I0. J0.319
N1680 G1 Y-48.687
N1685 G3 X81.313 Y-48.368 I-0.319 J0.
N1690 G1 X48.683
N1695 G3 X48.368 Y-48.683 I0. J-0.315
N1700 G1 Y-51.313
N1705 G3 X48.687 Y-51.632 I0.319 J0.
N1710 G1 X51.645
N1715 G2 X53.443 Y-52.83 I0. J-1.947
N1720 G3 X55.24 Y-54.029 I1.797 J0.749
N1725 G1 X83.709
N1730 G3 X84.029 Y-53.709 I0. J0.319
N1735 G1 Y-46.291
N1740 G3 X83.709 Y-45.971 I-0.319 J0.
N1745 G1 X46.287
N1750 G3 X45.971 Y-46.287 I0. J-0.315
N1755 G1 Y-53.709
N1760 G3 X46.291 Y-54.029 I0.319 J0.
N1765 G1 X55.24
N1770 G2 X57.038 Y-55.227 I0. J-1.947
N1775 G3 X58.835 Y-56.425 I1.797 J0.749
N1780 G1 X86.106
N1785 G3 X86.425 Y-56.106 I0. J0.319
N1790 G1 Y-43.894
N1795 G3 X86.106 Y-43.575 I-0.319 J0.
N1800 G1 X43.89
N1805 G3 X43.575 Y-43.89 I0. J-0.315
N1810 G1 Y-56.106
N1815 G3 X43.894 Y-56.425 I0.319 J0.
N1820 G1 X58.835
N1825 G2 X60.633 Y-57.624 I0. J-1.947
N1830 G3 X62.43 Y-58.822 I1.797 J0.749
N1835 G1 X88.503
N1840 G3 X88.822 Y-58.502 I0. J0.319
N1845 G1 Y-41.498
N1850 G3 X88.503 Y-41.178 I-0.319 J0.
N1855 G1 X41.494
N1860 G3 X41.178 Y-41.494 I0. J-0.315
N1865 G1 Y-58.502
N1870 G3 X41.498 Y-58.822 I0.319 J0.
N1875 G1 X62.43
N1880 G2 X64.227 Y-60.02 I0. J-1.947
N1885 G3 X66.025 Y-61.218 I1.797 J0.749
N1890 G1 X90.899
N1895 G3 X91.218 Y-60.899 I0. J0.319
N1900 G1 Y-39.101
N1905 G3 X90.899 Y-38.782 I-0.319 J0.
N1910 G1 X39.097
N1915 G3 X38.782 Y-39.097 I0. J-0.315
N1920 G1 Y-60.899
N1925 G3 X39.101 Y-61.218 I0.319 J0.
N1930 G1 X66.025
N1935 G2 X67.822 Y-62.417 I0. J-1.947
N1940 G3 X69.62 Y-63.615 I1.797 J0.749
N1945 G1 X93.296
N1950 G3 X93.615 Y-63.296 I0. J0.319
N1955 G1 Y-36.704
N1960 G3 X93.296 Y-36.385 I-0.319 J0.
N1965 G1 X36.7
N1970 G3 X36.385 Y-36.7 I0. J-0.315
N1975 G1 Y-63.296
N1980 G3 X36.704 Y-63.615 I0.319 J0.
N1985 G1 X69.62
N1990 G2 X71.417 Y-64.813 I0. J-1.947
N1995 G3 X73.215 Y-66.012 I1.797 J0.749
N2000 G1 X95.692
N2005 G3 X96.012 Y-65.692 I0. J0.319
N2010 G1 Y-34.308
N2015 G3 X95.692 Y-33.988 I-0.319 J0.
N2020 G1 X34.304
N2025 G3 X33.988 Y-34.304 I0. J-0.315
N2030 G1 Y-65.692
N2035 G3 X34.308 Y-66.012 I0.319 J0.
N2040 G1 X73.215
N2045 G2 X75.012 Y-67.21 I0. J-1.947
N2050 G3 X76.81 Y-68.408 I1.797 J0.749
N2055 G1 X98.089
N2060 G3 X98.408 Y-68.089 I0. J0.319
N2065 G1 Y-31.911
N2070 G3 X98.089 Y-31.592 I-0.319 J0.
N2075 G1 X31.907
N2080 G3 X31.592 Y-31.907 I0. J-0.315
N2085 G1 Y-68.089
N2090 G3 X31.911 Y-68.408 I0.319 J0.
N2095 G1 X76.81
N2100 G2 X78.607 Y-69.607 I0. J-1.947
N2105 G3 X80.405 Y-70.805 I1.797 J0.749
N2110 G1 X100.486
N2115 G3 X100.805 Y-70.486 I0. J0.319
N2120 G1 Y-29.514
N2125 G3 X100.486 Y-29.195 I-0.319 J0.
N2130 G1 X29.51
N2135 G3 X29.195 Y-29.51 I0. J-0.315
N2140 G1 Y-70.486
N2145 G3 X29.514 Y-70.805 I0.319 J0.
N2150 G1 X80.405
N2155 G2 X82.202 Y-72.003 I0. J-1.947
N2160 G3 X84. Y-73.202 I1.797 J0.749
N2165 G1 X102.882
N2170 G3 X103.202 Y-72.882 I0. J0.319
N2175 G1 Y-27.118
N2180 G3 X102.882 Y-26.798 I-0.319 J0.
N2185 G1 X27.114
N2190 G3 X26.798 Y-27.114 I0. J-0.315
N2195 G1 Y-72.882
N2200 G3 X27.118 Y-73.202 I0.319 J0.
N2205 G1 X84.
N2210 G2 X85.797 Y-74.4 I0. J-1.947
N2215 G3 X87.595 Y-75.598 I1.797 J0.749
N2220 G1 X105.279
N2225 G3 X105.598 Y-75.279 I0. J0.319
N2230 G1 Y-24.721
N2235 G3 X105.279 Y-24.402 I-0.319 J0.
N2240 G1 X24.717
N2245 G3 X24.402 Y-24.717 I0. J-0.315
N2250 G1 Y-75.279
N2255 G3 X24.721 Y-75.598 I0.319 J0.
N2260 G1 X87.595
N2265 G2 X89.396 Y-76.799 I0. J-1.951
N2270 G3 X91.197 Y-78. I1.801 J0.751
N2275 G1 X108.
N2280 Y-22.
N2285 X22.
N2290 Y-78.
N2295 X91.197
N2300 G3 X91.244 Y-77.996 I0. J0.3
N2305 G1 X92.726 Y-77.762
N2310 X92.792 Y-77.751 Z-0.592
N2315 X92.854 Y-77.741 Z-0.57
N2320 X92.91 Y-77.732 Z-0.535
N2325 X92.957 Y-77.725 Z-0.487
N2330 X92.993 Y-77.719 Z-0.43
N2335 X93.015 Y-77.716 Z-0.367
N2340 X93.022 Y-77.715 Z-0.3
N2345 G0 Z5.
N2350 G1 X49.688 Y-50.535 F5000.
N2355 Z0.6 F1000.
N2360 Z-0.5
N2365 G18 G2 X49.988 Z-0.8 I0.3 K0.
N2370 G1 X50.
N2375 X80.216
N2380 G17 G3 X80.535 Y-50.216 I0. J0.319
N2385 G1 Y-49.784
N2390 G3 X80.216 Y-49.465 I-0.319 J0.
N2395 G1 X49.78
N2400 G3 X49.465 Y-49.78 I0. J-0.315
N2405 G1 Y-50.216
N2410 G3 X49.784 Y-50.535 I0.319 J0.
N2415 G1 X50.
N2420 G2 X50.823 Y-51.084 I0. J-0.891
N2425 G3 X51.645 Y-51.632 I0.823 J0.343
N2430 G1 X81.313
N2435 G3 X81.632 Y-51.313 I0. J0.319
N2440 G1 Y-48.687
N2445 G3 X81.313 Y-48.368 I-0.319 J0.
N2450 G1 X48.683
N2455 G3 X48.368 Y-48.683 I0. J-0.315
N2460 G1 Y-51.313
N2465 G3 X48.687 Y-51.632 I0.319 J0.
N2470 G1 X51.645
N2475 G2 X53.443 Y-52.83 I0. J-1.947
N2480 G3 X55.24 Y-54.029 I1.797 J0.749
N2485 G1 X83.709
N2490 G3 X84.029 Y-53.709 I0. J0.319
N2495 G1 Y-46.291
N2500 G3 X83.709 Y-45.971 I-0.319 J0.
N2505 G1 X46.287
N2510 G3 X45.971 Y-46.287 I0. J-0.315
N2515 G1 Y-53.709
N2520 G3 X46.291 Y-54.029 I0.319 J0.
N2525 G1 X55.24
N2530 G2 X57.038 Y-55.227 I0. J-1.947
N2535 G3 X58.835 Y-56.425 I1.797 J0.749
N2540 G1 X86.106
N2545 G3 X86.425 Y-56.106 I0. J0.319
N2550 G1 Y-43.894
N2555 G3 X86.106 Y-43.575 I-0.319 J0.
N2560 G1 X43.89
N2565 G3 X43.575 Y-43.89 I0. J-0.315
N2570 G1 Y-56.106
N2575 G3 X43.894 Y-56.425 I0.319 J0.
N2580 G1 X58.835
N2585 G2 X60.633 Y-57.624 I0. J-1.947
N2590 G3 X62.43 Y-58.822 I1.797 J0.749
N2595 G1 X88.503
N2600 G3 X88.822 Y-58.502 I0. J0.319
N2605 G1 Y-41.498
N2610 G3 X88.503 Y-41.178 I-0.319 J0.
N2615 G1 X41.494
N2620 G3 X41.178 Y-41.494 I0. J-0.315
N2625 G1 Y-58.502
N2630 G3 X41.498 Y-58.822 I0.319 J0.
N2635 G1 X62.43
N2640 G2 X64.227 Y-60.02 I0. J-1.947
N2645 G3 X66.025 Y-61.218 I1.797 J0.749
N2650 G1 X90.899
N2655 G3 X91.218 Y-60.899 I0. J0.319
N2660 G1 Y-39.101
N2665 G3 X90.899 Y-38.782 I-0.319 J0.
N2670 G1 X39.097
N2675 G3 X38.782 Y-39.097 I0. J-0.315
N2680 G1 Y-60.899
N2685 G3 X39.101 Y-61.218 I0.319 J0.
N2690 G1 X66.025
N2695 G2 X67.822 Y-62.417 I0. J-1.947
N2700 G3 X69.62 Y-63.615 I1.797 J0.749
N2705 G1 X93.296
N2710 G3 X93.615 Y-63.296 I0. J0.319
N2715 G1 Y-36.704
N2720 G3 X93.296 Y-36.385 I-0.319 J0.
N2725 G1 X36.7
N2730 G3 X36.385 Y-36.7 I0. J-0.315
N2735 G1 Y-63.296
N2740 G3 X36.704 Y-63.615 I0.319 J0.
N2745 G1 X69.62
N2750 G2 X71.417 Y-64.813 I0. J-1.947
N2755 G3 X73.215 Y-66.012 I1.797 J0.749
N2760 G1 X95.692
N2765 G3 X96.012 Y-65.692 I0. J0.319
N2770 G1 Y-34.308
N2775 G3 X95.692 Y-33.988 I-0.319 J0.
N2780 G1 X34.304
N2785 G3 X33.988 Y-34.304 I0. J-0.315
N2790 G1 Y-65.692
N2795 G3 X34.308 Y-66.012 I0.319 J0.
N2800 G1 X73.215
N2805 G2 X75.012 Y-67.21 I0. J-1.947
N2810 G3 X76.81 Y-68.408 I1.797 J0.749
N2815 G1 X98.089
N2820 G3 X98.408 Y-68.089 I0. J0.319
N2825 G1 Y-31.911
N2830 G3 X98.089 Y-31.592 I-0.319 J0.
N2835 G1 X31.907
N2840 G3 X31.592 Y-31.907 I0. J-0.315
N2845 G1 Y-68.089
N2850 G3 X31.911 Y-68.408 I0.319 J0.
N2855 G1 X76.81
N2860 G2 X78.607 Y-69.607 I0. J-1.947
N2865 G3 X80.405 Y-70.805 I1.797 J0.749
N2870 G1 X100.486
N2875 G3 X100.805 Y-70.486 I0. J0.319
N2880 G1 Y-29.514
N2885 G3 X100.486 Y-29.195 I-0.319 J0.
N2890 G1 X29.51
N2895 G3 X29.195 Y-29.51 I0. J-0.315
N2900 G1 Y-70.486
N2905 G3 X29.514 Y-70.805 I0.319 J0.
N2910 G1 X80.405
N2915 G2 X82.202 Y-72.003 I0. J-1.947
N2920 G3 X84. Y-73.202 I1.797 J0.749
N2925 G1 X102.882
N2930 G3 X103.202 Y-72.882 I0. J0.319
N2935 G1 Y-27.118
N2940 G3 X102.882 Y-26.798 I-0.319 J0.
N2945 G1 X27.114
N2950 G3 X26.798 Y-27.114 I0. J-0.315
N2955 G1 Y-72.882
N2960 G3 X27.118 Y-73.202 I0.319 J0.
N2965 G1 X84.
N2970 G2 X85.797 Y-74.4 I0. J-1.947
N2975 G3 X87.595 Y-75.598 I1.797 J0.749
N2980 G1 X105.279
N2985 G3 X105.598 Y-75.279 I0. J0.319
N2990 G1 Y-24.721
N2995 G3 X105.279 Y-24.402 I-0.319 J0.
N3000 G1 X24.717
N3005 G3 X24.402 Y-24.717 I0. J-0.315
N3010 G1 Y-75.279
N3015 G3 X24.721 Y-75.598 I0.319 J0.
N3020 G1 X87.595
N3025 G2 X89.396 Y-76.799 I0. J-1.951
N3030 G3 X91.197 Y-78. I1.801 J0.751
N3035 G1 X108.
N3040 Y-22.
N3045 X22.
N3050 Y-78.
N3055 X91.197
N3060 G3 X91.244 Y-77.996 I0. J0.3
N3065 G1 X92.726 Y-77.762
N3070 X92.792 Y-77.751 Z-0.792
N3075 X92.854 Y-77.741 Z-0.77
N3080 X92.91 Y-77.732 Z-0.735
N3085 X92.957 Y-77.725 Z-0.687
N3090 X92.993 Y-77.719 Z-0.63
N3095 X93.015 Y-77.716 Z-0.567
N3100 X93.022 Y-77.715 Z-0.5
N3105 G0 Z5.
N3110 G1 X49.688 Y-50.535 F5000.
N3115 Z0.4 F1000.
N3120 Z-0.7
N3125 G18 G2 X49.988 Z-1. I0.3 K0.
N3130 G1 X50.
N3135 X80.216
N3140 G17 G3 X80.535 Y-50.216 I0. J0.319
N3145 G1 Y-49.784
N3150 G3 X80.216 Y-49.465 I-0.319 J0.
N3155 G1 X49.78
N3160 G3 X49.465 Y-49.78 I0. J-0.315
N3165 G1 Y-50.216
N3170 G3 X49.784 Y-50.535 I0.319 J0.
N3175 G1 X50.
N3180 G2 X50.823 Y-51.084 I0. J-0.891
N3185 G3 X51.645 Y-51.632 I0.823 J0.343
N3190 G1 X81.313
N3195 G3 X81.632 Y-51.313 I0. J0.319
N3200 G1 Y-48.687
N3205 G3 X81.313 Y-48.368 I-0.319 J0.
N3210 G1 X48.683
N3215 G3 X48.368 Y-48.683 I0. J-0.315
N3220 G1 Y-51.313
N3225 G3 X48.687 Y-51.632 I0.319 J0.
N3230 G1 X51.645
N3235 G2 X53.443 Y-52.83 I0. J-1.947
N3240 G3 X55.24 Y-54.029 I1.797 J0.749
N3245 G1 X83.709
N3250 G3 X84.029 Y-53.709 I0. J0.319
N3255 G1 Y-46.291
N3260 G3 X83.709 Y-45.971 I-0.319 J0.
N3265 G1 X46.287
N3270 G3 X45.971 Y-46.287 I0. J-0.315
N3275 G1 Y-53.709
N3280 G3 X46.291 Y-54.029 I0.319 J0.
N3285 G1 X55.24
N3290 G2 X57.038 Y-55.227 I0. J-1.947
N3295 G3 X58.835 Y-56.425 I1.797 J0.749
N3300 G1 X86.106
N3305 G3 X86.425 Y-56.106 I0. J0.319
N3310 G1 Y-43.894
N3315 G3 X86.106 Y-43.575 I-0.319 J0.
N3320 G1 X43.89
N3325 G3 X43.575 Y-43.89 I0. J-0.315
N3330 G1 Y-56.106
N3335 G3 X43.894 Y-56.425 I0.319 J0.
N3340 G1 X58.835
N3345 G2 X60.633 Y-57.624 I0. J-1.947
N3350 G3 X62.43 Y-58.822 I1.797 J0.749
N3355 G1 X88.503
N3360 G3 X88.822 Y-58.502 I0. J0.319
N3365 G1 Y-41.498
N3370 G3 X88.503 Y-41.178 I-0.319 J0.
N3375 G1 X41.494
N3380 G3 X41.178 Y-41.494 I0. J-0.315
N3385 G1 Y-58.502
N3390 G3 X41.498 Y-58.822 I0.319 J0.
N3395 G1 X62.43
N3400 G2 X64.227 Y-60.02 I0. J-1.947
N3405 G3 X66.025 Y-61.218 I1.797 J0.749
N3410 G1 X90.899
N3415 G3 X91.218 Y-60.899 I0. J0.319
N3420 G1 Y-39.101
N3425 G3 X90.899 Y-38.782 I-0.319 J0.
N3430 G1 X39.097
N3435 G3 X38.782 Y-39.097 I0. J-0.315
N3440 G1 Y-60.899
N3445 G3 X39.101 Y-61.218 I0.319 J0.
N3450 G1 X66.025
N3455 G2 X67.822 Y-62.417 I0. J-1.947
N3460 G3 X69.62 Y-63.615 I1.797 J0.749
N3465 G1 X93.296
N3470 G3 X93.615 Y-63.296 I0. J0.319
N3475 G1 Y-36.704
N3480 G3 X93.296 Y-36.385 I-0.319 J0.
N3485 G1 X36.7
N3490 G3 X36.385 Y-36.7 I0. J-0.315
N3495 G1 Y-63.296
N3500 G3 X36.704 Y-63.615 I0.319 J0.
N3505 G1 X69.62
N3510 G2 X71.417 Y-64.813 I0. J-1.947
N3515 G3 X73.215 Y-66.012 I1.797 J0.749
N3520 G1 X95.692
N3525 G3 X96.012 Y-65.692 I0. J0.319
N3530 G1 Y-34.308
N3535 G3 X95.692 Y-33.988 I-0.319 J0.
N3540 G1 X34.304
N3545 G3 X33.988 Y-34.304 I0. J-0.315
N3550 G1 Y-65.692
N3555 G3 X34.308 Y-66.012 I0.319 J0.
N3560 G1 X73.215
N3565 G2 X75.012 Y-67.21 I0. J-1.947
N3570 G3 X76.81 Y-68.408 I1.797 J0.749
N3575 G1 X98.089
N3580 G3 X98.408 Y-68.089 I0. J0.319
N3585 G1 Y-31.911
N3590 G3 X98.089 Y-31.592 I-0.319 J0.
N3595 G1 X31.907
N3600 G3 X31.592 Y-31.907 I0. J-0.315
N3605 G1 Y-68.089
N3610 G3 X31.911 Y-68.408 I0.319 J0.
N3615 G1 X76.81
N3620 G2 X78.607 Y-69.607 I0. J-1.947
N3625 G3 X80.405 Y-70.805 I1.797 J0.749
N3630 G1 X100.486
N3635 G3 X100.805 Y-70.486 I0. J0.319
N3640 G1 Y-29.514
N3645 G3 X100.486 Y-29.195 I-0.319 J0.
N3650 G1 X29.51
N3655 G3 X29.195 Y-29.51 I0. J-0.315
N3660 G1 Y-70.486
N3665 G3 X29.514 Y-70.805 I0.319 J0.
N3670 G1 X80.405
N3675 G2 X82.202 Y-72.003 I0. J-1.947
N3680 G3 X84. Y-73.202 I1.797 J0.749
N3685 G1 X102.882
N3690 G3 X103.202 Y-72.882 I0. J0.319
N3695 G1 Y-27.118
N3700 G3 X102.882 Y-26.798 I-0.319 J0.
N3705 G1 X27.114
N3710 G3 X26.798 Y-27.114 I0. J-0.315
N3715 G1 Y-72.882
N3720 G3 X27.118 Y-73.202 I0.319 J0.
N3725 G1 X84.
N3730 G2 X85.797 Y-74.4 I0. J-1.947
N3735 G3 X87.595 Y-75.598 I1.797 J0.749
N3740 G1 X105.279
N3745 G3 X105.598 Y-75.279 I0. J0.319
N3750 G1 Y-24.721
N3755 G3 X105.279 Y-24.402 I-0.319 J0.
N3760 G1 X24.717
N3765 G3 X24.402 Y-24.717 I0. J-0.315
N3770 G1 Y-75.279
N3775 G3 X24.721 Y-75.598 I0.319 J0.
N3780 G1 X87.595
N3785 G2 X89.396 Y-76.799 I0. J-1.951
N3790 G3 X91.197 Y-78. I1.801 J0.751
N3795 G1 X108.
N3800 Y-22.
N3805 X22.
N3810 Y-78.
N3815 X91.197
N3820 G3 X91.244 Y-77.996 I0. J0.3
N3825 G1 X92.726 Y-77.762
N3830 X92.792 Y-77.751 Z-0.992
N3835 X92.854 Y-77.741 Z-0.97
N3840 X92.91 Y-77.732 Z-0.935
N3845 X92.957 Y-77.725 Z-0.887
N3850 X92.993 Y-77.719 Z-0.83
N3855 X93.015 Y-77.716 Z-0.767
N3860 X93.022 Y-77.715 Z-0.7
N3865 G0 Z15.

N3870 M5
N3875 M9
N3890 M30

%
