(.../administrador/eagle/pcb-gcode/pcb-gcode.ulp)
(Copyright 2005 - 2012 by John Johnson)
(See readme.txt for licensing terms.)
(This file generated from the board:)
(.../administrador/eagle/Arduino_reduced.brd)
(Current profile is .../eagle/pcb-gcode/profiles/emc.pp  )
(This file generated 15/09/15 12:23)
(Settings from pcb-machine.h)
(  Tool Size)
(0.1397 )
(Z Axis Settings)
(  High     Up        Down     Drill)
(12.7000 	2.5400 	-0.2000 	-2.0000 )
(spindle on time = 3.0000)
(milling depth = -0.2540)
(text depth = -0.1270)
(tool change at 0.0000 0.0000 0.0000 )
(feed rate xy = F300.00 )
(feed rate z  = F180.00 )
(Settings from pcb-defaults.h)
(isolate min = 0.0578)
(isolate max = 0.3556)
(isolate step = 0.1270)
(Generated top outlines, bottom outlines, bottom drill, )
(Unit of measure: mm)
(Metric Mode)
G21
(Absolute Coordinates)
G90
G00 X50.0000 Y-25.0000 
M03
G04 P3.000000
G00 Z2.5400 
G00 X46.5772 Y-34.1370 
G01 Z-0.1500 F180.00 
G01 X46.9877 Y-33.9669 F300.00 
G01 X50.1627 Y-30.7919 
G01 X50.4769 Y-30.4777 
G01 X50.6470 Y-30.0672 
G01 X50.6470 Y-25.8128 
G01 X50.4769 Y-25.4023 
G01 X50.1627 Y-25.0881 
G01 X49.8442 Y-24.9562 
G01 X49.2158 Y-24.9562 
G01 X48.8973 Y-25.0881 
G01 X48.5831 Y-25.4023 
G01 X48.4130 Y-25.8128 
G01 X48.4130 Y-29.3549 
G01 X48.3936 Y-29.4018 
G01 X45.9118 Y-31.8836 
G01 X45.8649 Y-31.9030 
G01 X13.1128 Y-31.9030 
G01 X12.7023 Y-32.0731 
G01 X12.3881 Y-32.3873 
G01 X12.2180 Y-32.7978 
G01 X12.2180 Y-33.2422 
G01 X12.3881 Y-33.6527 
G01 X12.7023 Y-33.9669 
G01 X13.1128 Y-34.1370 
G01 X46.1328 Y-34.1370 
G01 X46.5772 Y-34.1370 
G00 Z2.5400 
G00 X10.3639 Y-34.5192 
G01 Z-0.1500 F180.00 
G01 X9.7542 Y-35.1289 F300.00 
G01 X9.7542 Y-35.9911 
G01 X10.3639 Y-36.6008 
G01 X11.2261 Y-36.6008 
G01 X11.8358 Y-35.9911 
G01 X11.8358 Y-35.1289 
G01 X11.2261 Y-34.5192 
G01 X10.3639 Y-34.5192 
G00 Z2.5400 
G00 X10.3639 Y-37.0592 
G01 Z-0.1500 F180.00 
G01 X9.7542 Y-37.6689 F300.00 
G01 X9.7542 Y-38.5311 
G01 X10.3639 Y-39.1408 
G01 X11.2261 Y-39.1408 
G01 X11.8358 Y-38.5311 
G01 X11.8358 Y-37.6689 
G01 X11.2261 Y-37.0592 
G01 X10.3639 Y-37.0592 
G00 Z2.5400 
G00 X12.9039 Y-37.0592 
G01 Z-0.1500 F180.00 
G01 X12.2942 Y-37.6689 F300.00 
G01 X12.2942 Y-38.5311 
G01 X12.9039 Y-39.1408 
G01 X13.7661 Y-39.1408 
G01 X14.3758 Y-38.5311 
G01 X14.3758 Y-37.6689 
G01 X13.7661 Y-37.0592 
G01 X12.9039 Y-37.0592 
G00 Z2.5400 
G00 X64.5093 Y-29.7995 
G01 Z-0.1500 F180.00 
G01 X64.6678 Y-29.4170 F300.00 
G01 X64.6678 Y-29.0030 
G01 X64.5093 Y-28.6205 
G01 X64.2165 Y-28.3277 
G01 X63.8340 Y-28.1692 
G01 X61.8960 Y-28.1692 
G01 X61.5135 Y-28.3277 
G01 X61.2207 Y-28.6205 
G01 X61.0622 Y-29.0030 
G01 X61.0622 Y-29.4170 
G01 X61.2207 Y-29.7995 
G01 X61.5135 Y-30.0923 
G01 X61.8960 Y-30.2508 
G01 X63.8340 Y-30.2508 
G01 X64.2165 Y-30.0923 
G01 X64.5093 Y-29.7995 
G00 Z2.5400 
G00 X64.5093 Y-32.3395 
G01 Z-0.1500 F180.00 
G01 X64.6678 Y-31.9570 F300.00 
G01 X64.6678 Y-31.5430 
G01 X64.5093 Y-31.1605 
G01 X64.2165 Y-30.8677 
G01 X63.8340 Y-30.7092 
G01 X61.8960 Y-30.7092 
G01 X61.5135 Y-30.8677 
G01 X61.2207 Y-31.1605 
G01 X61.0622 Y-31.5430 
G01 X61.0622 Y-31.9570 
G01 X61.2207 Y-32.3395 
G01 X61.5135 Y-32.6323 
G01 X61.8960 Y-32.7908 
G01 X63.8340 Y-32.7908 
G01 X64.2165 Y-32.6323 
G01 X64.5093 Y-32.3395 
G00 Z2.5400 
G00 X64.5093 Y-34.8795 
G01 Z-0.1500 F180.00 
G01 X64.6678 Y-34.4970 F300.00 
G01 X64.6678 Y-34.0830 
G01 X64.5093 Y-33.7005 
G01 X64.2165 Y-33.4077 
G01 X63.8340 Y-33.2492 
G01 X61.8960 Y-33.2492 
G01 X61.5135 Y-33.4077 
G01 X61.2207 Y-33.7005 
G01 X61.0622 Y-34.0830 
G01 X61.0622 Y-34.4970 
G01 X61.2207 Y-34.8795 
G01 X61.5135 Y-35.1723 
G01 X61.8960 Y-35.3308 
G01 X63.8340 Y-35.3308 
G01 X64.2165 Y-35.1723 
G01 X64.5093 Y-34.8795 
G00 Z2.5400 
G00 X64.5093 Y-37.4195 
G01 Z-0.1500 F180.00 
G01 X64.6678 Y-37.0370 F300.00 
G01 X64.6678 Y-36.6230 
G01 X64.5093 Y-36.2405 
G01 X64.2165 Y-35.9477 
G01 X63.8340 Y-35.7892 
G01 X61.8960 Y-35.7892 
G01 X61.5135 Y-35.9477 
G01 X61.2207 Y-36.2405 
G01 X61.0622 Y-36.6230 
G01 X61.0622 Y-37.0370 
G01 X61.2207 Y-37.4195 
G01 X61.5135 Y-37.7123 
G01 X61.8960 Y-37.8708 
G01 X63.8340 Y-37.8708 
G01 X64.2165 Y-37.7123 
G01 X64.5093 Y-37.4195 
G00 Z2.5400 
G00 X64.5093 Y-39.9595 
G01 Z-0.1500 F180.00 
G01 X64.6678 Y-39.5770 F300.00 
G01 X64.6678 Y-39.1630 
G01 X64.5093 Y-38.7805 
G01 X64.2165 Y-38.4877 
G01 X63.8340 Y-38.3292 
G01 X61.8960 Y-38.3292 
G01 X61.5135 Y-38.4877 
G01 X61.2207 Y-38.7805 
G01 X61.0622 Y-39.1630 
G01 X61.0622 Y-39.5770 
G01 X61.2207 Y-39.9595 
G01 X61.5135 Y-40.2523 
G01 X61.8960 Y-40.4108 
G01 X63.8340 Y-40.4108 
G01 X64.2165 Y-40.2523 
G01 X64.5093 Y-39.9595 
G00 Z2.5400 
G00 X64.5093 Y-42.4995 
G01 Z-0.1500 F180.00 
G01 X64.6678 Y-42.1170 F300.00 
G01 X64.6678 Y-41.7030 
G01 X64.5093 Y-41.3205 
G01 X64.2165 Y-41.0277 
G01 X63.8340 Y-40.8692 
G01 X61.8960 Y-40.8692 
G01 X61.5135 Y-41.0277 
G01 X61.2207 Y-41.3205 
G01 X61.0622 Y-41.7030 
G01 X61.0622 Y-42.1170 
G01 X61.2207 Y-42.4995 
G01 X61.5135 Y-42.7923 
G01 X61.8960 Y-42.9508 
G01 X63.8340 Y-42.9508 
G01 X64.2165 Y-42.7923 
G01 X64.5093 Y-42.4995 
G00 Z2.5400 
G00 X23.5980 Y-28.1266 
G01 Z-0.1500 F180.00 
G01 X23.9432 Y-28.2696 F300.00 
G01 X24.3168 Y-28.2696 
G01 X24.6620 Y-28.1266 
G01 X24.9262 Y-27.8624 
G01 X25.0692 Y-27.5172 
G01 X25.0692 Y-25.8228 
G01 X24.9262 Y-25.4776 
G01 X24.6620 Y-25.2134 
G01 X24.3168 Y-25.0704 
G01 X23.9432 Y-25.0704 
G01 X23.5980 Y-25.2134 
G01 X23.3338 Y-25.4776 
G01 X23.1908 Y-25.8228 
G01 X23.1908 Y-27.5172 
G01 X23.3338 Y-27.8624 
G01 X23.5980 Y-28.1266 
G00 Z2.5400 
G00 X26.1380 Y-28.1266 
G01 Z-0.1500 F180.00 
G01 X26.4832 Y-28.2696 F300.00 
G01 X26.8568 Y-28.2696 
G01 X27.2020 Y-28.1266 
G01 X27.4662 Y-27.8624 
G01 X27.6092 Y-27.5172 
G01 X27.6092 Y-25.8228 
G01 X27.4662 Y-25.4776 
G01 X27.2020 Y-25.2134 
G01 X26.8568 Y-25.0704 
G01 X26.4832 Y-25.0704 
G01 X26.1380 Y-25.2134 
G01 X25.8738 Y-25.4776 
G01 X25.7308 Y-25.8228 
G01 X25.7308 Y-27.5172 
G01 X25.8738 Y-27.8624 
G01 X26.1380 Y-28.1266 
G00 Z2.5400 
G00 X28.6780 Y-28.1266 
G01 Z-0.1500 F180.00 
G01 X29.0232 Y-28.2696 F300.00 
G01 X29.3968 Y-28.2696 
G01 X29.7420 Y-28.1266 
G01 X30.0062 Y-27.8624 
G01 X30.1492 Y-27.5172 
G01 X30.1492 Y-25.8228 
G01 X30.0062 Y-25.4776 
G01 X29.7420 Y-25.2134 
G01 X29.3968 Y-25.0704 
G01 X29.0232 Y-25.0704 
G01 X28.6780 Y-25.2134 
G01 X28.4138 Y-25.4776 
G01 X28.2708 Y-25.8228 
G01 X28.2708 Y-27.5172 
G01 X28.4138 Y-27.8624 
G01 X28.6780 Y-28.1266 
G00 Z2.5400 
G00 X31.2180 Y-28.1266 
G01 Z-0.1500 F180.00 
G01 X31.5632 Y-28.2696 F300.00 
G01 X31.9368 Y-28.2696 
G01 X32.2820 Y-28.1266 
G01 X32.5462 Y-27.8624 
G01 X32.6892 Y-27.5172 
G01 X32.6892 Y-25.8228 
G01 X32.5462 Y-25.4776 
G01 X32.2820 Y-25.2134 
G01 X31.9368 Y-25.0704 
G01 X31.5632 Y-25.0704 
G01 X31.2180 Y-25.2134 
G01 X30.9538 Y-25.4776 
G01 X30.8108 Y-25.8228 
G01 X30.8108 Y-27.5172 
G01 X30.9538 Y-27.8624 
G01 X31.2180 Y-28.1266 
G00 Z2.5400 
G00 X33.7580 Y-28.1266 
G01 Z-0.1500 F180.00 
G01 X34.1032 Y-28.2696 F300.00 
G01 X34.4768 Y-28.2696 
G01 X34.8220 Y-28.1266 
G01 X35.0862 Y-27.8624 
G01 X35.2292 Y-27.5172 
G01 X35.2292 Y-25.8228 
G01 X35.0862 Y-25.4776 
G01 X34.8220 Y-25.2134 
G01 X34.4768 Y-25.0704 
G01 X34.1032 Y-25.0704 
G01 X33.7580 Y-25.2134 
G01 X33.4938 Y-25.4776 
G01 X33.3508 Y-25.8228 
G01 X33.3508 Y-27.5172 
G01 X33.4938 Y-27.8624 
G01 X33.7580 Y-28.1266 
G00 Z2.5400 
G00 X36.2980 Y-28.1266 
G01 Z-0.1500 F180.00 
G01 X36.6432 Y-28.2696 F300.00 
G01 X37.0168 Y-28.2696 
G01 X37.3620 Y-28.1266 
G01 X37.6262 Y-27.8624 
G01 X37.7692 Y-27.5172 
G01 X37.7692 Y-25.8228 
G01 X37.6262 Y-25.4776 
G01 X37.3620 Y-25.2134 
G01 X37.0168 Y-25.0704 
G01 X36.6432 Y-25.0704 
G01 X36.2980 Y-25.2134 
G01 X36.0338 Y-25.4776 
G01 X35.8908 Y-25.8228 
G01 X35.8908 Y-27.5172 
G01 X36.0338 Y-27.8624 
G01 X36.2980 Y-28.1266 
G00 Z2.5400 
G00 X32.7159 Y-19.7801 
G01 Z-0.1500 F180.00 
G01 X32.6787 Y-19.9667 F300.00 
G01 X32.6059 Y-20.1425 
G01 X32.5002 Y-20.3007 
G01 X32.3657 Y-20.4352 
G01 X32.2075 Y-20.5409 
G01 X32.0317 Y-20.6137 
G01 X31.8451 Y-20.6509 
G01 X31.6549 Y-20.6509 
G01 X31.4683 Y-20.6137 
G01 X31.2925 Y-20.5409 
G01 X31.1343 Y-20.4352 
G01 X30.9998 Y-20.3007 
G01 X30.8941 Y-20.1425 
G01 X30.8213 Y-19.9667 
G01 X30.7841 Y-19.7801 
G01 X30.7841 Y-11.3349 
G01 X30.8213 Y-11.1483 
G01 X30.8941 Y-10.9725 
G01 X30.9998 Y-10.8143 
G01 X38.6198 Y-3.1943 
G01 X38.7543 Y-3.0598 
G01 X38.9125 Y-2.9541 
G01 X39.0883 Y-2.8813 
G01 X39.2749 Y-2.8441 
G01 X63.5951 Y-2.8441 
G01 X63.7817 Y-2.8813 
G01 X63.9575 Y-2.9541 
G01 X64.1157 Y-3.0598 
G01 X64.1361 Y-3.0802 
G01 X64.1941 Y-3.1190 
G01 X64.3180 Y-3.2429 
G01 X64.4154 Y-3.3886 
G01 X64.4825 Y-3.5505 
G01 X64.5167 Y-3.7224 
G01 X64.5167 Y-3.8976 
G01 X64.4825 Y-4.0695 
G01 X64.4154 Y-4.2314 
G01 X64.3180 Y-4.3771 
G01 X64.1941 Y-4.5010 
G01 X64.1361 Y-4.5398 
G01 X64.1157 Y-4.5602 
G01 X63.9575 Y-4.6659 
G01 X63.7817 Y-4.7387 
G01 X63.5951 Y-4.7759 
G01 X39.7701 Y-4.7759 
G01 X32.7159 Y-11.8301 
G01 X32.7159 Y-19.7801 
G00 Z2.5400 
G00 X35.2559 Y-19.7801 
G01 Z-0.1500 F180.00 
G01 X35.2187 Y-19.9667 F300.00 
G01 X35.1459 Y-20.1425 
G01 X35.0402 Y-20.3007 
G01 X34.9057 Y-20.4352 
G01 X34.7475 Y-20.5409 
G01 X34.5717 Y-20.6137 
G01 X34.3851 Y-20.6509 
G01 X34.1949 Y-20.6509 
G01 X34.0083 Y-20.6137 
G01 X33.8325 Y-20.5409 
G01 X33.6743 Y-20.4352 
G01 X33.5398 Y-20.3007 
G01 X33.4341 Y-20.1425 
G01 X33.3613 Y-19.9667 
G01 X33.3241 Y-19.7801 
G01 X33.3241 Y-11.9699 
G01 X33.3613 Y-11.7833 
G01 X33.4341 Y-11.6075 
G01 X33.5398 Y-11.4493 
G01 X39.2548 Y-5.7343 
G01 X39.3893 Y-5.5998 
G01 X39.5475 Y-5.4941 
G01 X39.7233 Y-5.4213 
G01 X39.9099 Y-5.3841 
G01 X63.5951 Y-5.3841 
G01 X63.7817 Y-5.4213 
G01 X63.9575 Y-5.4941 
G01 X64.1157 Y-5.5998 
G01 X64.1361 Y-5.6202 
G01 X64.1941 Y-5.6590 
G01 X64.3180 Y-5.7829 
G01 X64.4154 Y-5.9286 
G01 X64.4825 Y-6.0905 
G01 X64.5167 Y-6.2624 
G01 X64.5167 Y-6.4376 
G01 X64.4825 Y-6.6095 
G01 X64.4154 Y-6.7714 
G01 X64.3180 Y-6.9171 
G01 X64.1941 Y-7.0410 
G01 X64.1361 Y-7.0798 
G01 X64.1157 Y-7.1002 
G01 X63.9575 Y-7.2059 
G01 X63.7817 Y-7.2787 
G01 X63.5951 Y-7.3159 
G01 X40.4051 Y-7.3159 
G01 X35.2559 Y-12.4651 
G01 X35.2559 Y-19.7801 
G00 Z2.5400 
G00 X37.7959 Y-19.7801 
G01 Z-0.1500 F180.00 
G01 X37.7587 Y-19.9667 F300.00 
G01 X37.6859 Y-20.1425 
G01 X37.5802 Y-20.3007 
G01 X37.4457 Y-20.4352 
G01 X37.2875 Y-20.5409 
G01 X37.1117 Y-20.6137 
G01 X36.9251 Y-20.6509 
G01 X36.7349 Y-20.6509 
G01 X36.5483 Y-20.6137 
G01 X36.3725 Y-20.5409 
G01 X36.2143 Y-20.4352 
G01 X36.0798 Y-20.3007 
G01 X35.9741 Y-20.1425 
G01 X35.9013 Y-19.9667 
G01 X35.8641 Y-19.7801 
G01 X35.8641 Y-12.6049 
G01 X35.9013 Y-12.4183 
G01 X35.9741 Y-12.2425 
G01 X36.0798 Y-12.0843 
G01 X39.8898 Y-8.2743 
G01 X40.0243 Y-8.1398 
G01 X40.1825 Y-8.0341 
G01 X40.3583 Y-7.9613 
G01 X40.5449 Y-7.9241 
G01 X63.5951 Y-7.9241 
G01 X63.7817 Y-7.9613 
G01 X63.9575 Y-8.0341 
G01 X64.1157 Y-8.1398 
G01 X64.1361 Y-8.1602 
G01 X64.1941 Y-8.1990 
G01 X64.3180 Y-8.3229 
G01 X64.4154 Y-8.4686 
G01 X64.4825 Y-8.6305 
G01 X64.5167 Y-8.8024 
G01 X64.5167 Y-8.9776 
G01 X64.4825 Y-9.1495 
G01 X64.4154 Y-9.3114 
G01 X64.3180 Y-9.4571 
G01 X64.1941 Y-9.5810 
G01 X64.1361 Y-9.6198 
G01 X64.1157 Y-9.6402 
G01 X63.9575 Y-9.7459 
G01 X63.7817 Y-9.8187 
G01 X63.5951 Y-9.8559 
G01 X41.0401 Y-9.8559 
G01 X37.7959 Y-13.1001 
G01 X37.7959 Y-19.7801 
G00 Z2.5400 
G00 X9.8291 Y-20.8599 
G01 Z-0.1500 F180.00 
G01 X9.8663 Y-20.6733 F300.00 
G01 X9.9391 Y-20.4975 
G01 X10.0448 Y-20.3393 
G01 X10.1793 Y-20.2048 
G01 X10.3375 Y-20.0991 
G01 X10.5133 Y-20.0263 
G01 X10.6999 Y-19.9891 
G01 X10.8901 Y-19.9891 
G01 X11.0767 Y-20.0263 
G01 X11.2525 Y-20.0991 
G01 X11.4107 Y-20.2048 
G01 X11.5452 Y-20.3393 
G01 X11.6509 Y-20.4975 
G01 X11.7237 Y-20.6733 
G01 X11.7609 Y-20.8599 
G01 X11.7609 Y-26.9049 
G01 X14.3701 Y-29.5141 
G01 X44.6849 Y-29.5141 
G01 X46.0241 Y-28.1749 
G01 X46.0241 Y-25.9399 
G01 X46.0613 Y-25.7533 
G01 X46.1341 Y-25.5775 
G01 X46.2398 Y-25.4193 
G01 X46.3743 Y-25.2848 
G01 X46.5325 Y-25.1791 
G01 X46.7083 Y-25.1063 
G01 X46.8949 Y-25.0691 
G01 X47.0851 Y-25.0691 
G01 X47.2717 Y-25.1063 
G01 X47.4475 Y-25.1791 
G01 X47.6057 Y-25.2848 
G01 X47.7402 Y-25.4193 
G01 X47.8459 Y-25.5775 
G01 X47.9187 Y-25.7533 
G01 X47.9559 Y-25.9399 
G01 X47.9559 Y-28.6701 
G01 X47.9187 Y-28.8567 
G01 X47.8459 Y-29.0325 
G01 X47.7402 Y-29.1907 
G01 X47.6057 Y-29.3252 
G01 X45.7007 Y-31.2302 
G01 X45.5425 Y-31.3359 
G01 X45.3667 Y-31.4087 
G01 X45.1801 Y-31.4459 
G01 X13.8749 Y-31.4459 
G01 X13.6883 Y-31.4087 
G01 X13.5125 Y-31.3359 
G01 X13.3543 Y-31.2302 
G01 X13.2198 Y-31.0957 
G01 X10.0448 Y-27.9207 
G01 X9.9391 Y-27.7625 
G01 X9.8663 Y-27.5867 
G01 X9.8291 Y-27.4001 
G01 X9.8291 Y-27.2099 
G01 X9.8291 Y-20.8599
G00 Z2.5400
G00 X15.0106 Y-29.5141 
G01 Z-0.1500 F180.00 
G01 X14.9583 Y-29.5037 F300.00 
G01 X14.7825 Y-29.4309 
G01 X14.6243 Y-29.3252 
G01 X14.4898 Y-29.1907 
G01 X14.3841 Y-29.0325 
G01 X14.3113 Y-28.8567 
G01 X14.2741 Y-28.6701 
G01 X14.2741 Y-17.0499 
G01 X14.3113 Y-16.8633 
G01 X14.3841 Y-16.6875 
G01 X14.4898 Y-16.5293 
G01 X18.2998 Y-12.7193 
G01 X18.4343 Y-12.5848 
G01 X18.5925 Y-12.4791 
G01 X18.7683 Y-12.4063 
G01 X18.9549 Y-12.3691 
G01 X26.7651 Y-12.3691 
G01 X26.9517 Y-12.4063 
G01 X27.1275 Y-12.4791 
G01 X27.2857 Y-12.5848 
G01 X29.8257 Y-15.1248 
G01 X29.9602 Y-15.2593 
G01 X30.0659 Y-15.4175 
G01 X30.1387 Y-15.5933 
G01 X30.1759 Y-15.7799 
G01 X30.1759 Y-19.7801 
G01 X30.1387 Y-19.9667 
G01 X30.0659 Y-20.1425 
G01 X29.9602 Y-20.3007 
G01 X29.8257 Y-20.4352 
G01 X29.6675 Y-20.5409 
G01 X29.4917 Y-20.6137 
G01 X29.3051 Y-20.6509 
G01 X29.1149 Y-20.6509 
G01 X28.9283 Y-20.6137 
G01 X28.7525 Y-20.5409 
G01 X28.5943 Y-20.4352 
G01 X28.4598 Y-20.3007 
G01 X28.3541 Y-20.1425 
G01 X28.2813 Y-19.9667 
G01 X28.2441 Y-19.7801 
G01 X28.2441 Y-16.2751 
G01 X26.2699 Y-14.3009 
G01 X19.4501 Y-14.3009 
G01 X16.2059 Y-17.5451 
G01 X16.2059 Y-28.6701 
G01 X16.1687 Y-28.8567 
G01 X16.0959 Y-29.0325 
G01 X15.9902 Y-29.1907 
G01 X15.8557 Y-29.3252 
G01 X15.6975 Y-29.4309 
G01 X15.5217 Y-29.5037 
G01 X15.4694 Y-29.5141 
G01 X17.5506 Y-29.5141 
G01 X17.4983 Y-29.5037 
G01 X17.3225 Y-29.4309 
G01 X17.1643 Y-29.3252 
G01 X17.0298 Y-29.1907 
G01 X16.9241 Y-29.0325 
G01 X16.8513 Y-28.8567 
G01 X16.8141 Y-28.6701 
G01 X16.8141 Y-18.3199 
G01 X16.8513 Y-18.1333 
G01 X16.9241 Y-17.9575 
G01 X17.0298 Y-17.7993 
G01 X19.5698 Y-15.2593 
G01 X19.7043 Y-15.1248 
G01 X19.8625 Y-15.0191 
G01 X20.0383 Y-14.9463 
G01 X20.2249 Y-14.9091 
G01 X25.4951 Y-14.9091 
G01 X25.6817 Y-14.9463 
G01 X25.8575 Y-15.0191 
G01 X26.0157 Y-15.1248 
G01 X27.2857 Y-16.3948 
G01 X27.4202 Y-16.5293 
G01 X27.5259 Y-16.6875 
G01 X27.5987 Y-16.8633 
G01 X27.6359 Y-17.0499 
G01 X27.6359 Y-19.7801 
G01 X27.5987 Y-19.9667 
G01 X27.5259 Y-20.1425 
G01 X27.4202 Y-20.3007 
G01 X27.2857 Y-20.4352 
G01 X27.1275 Y-20.5409 
G01 X26.9517 Y-20.6137 
G01 X26.7651 Y-20.6509 
G01 X26.5749 Y-20.6509 
G01 X26.3883 Y-20.6137 
G01 X26.2125 Y-20.5409 
G01 X26.0543 Y-20.4352 
G01 X25.9198 Y-20.3007 
G01 X25.8141 Y-20.1425 
G01 X25.7413 Y-19.9667 
G01 X25.7041 Y-19.7801 
G01 X25.7041 Y-17.5451 
G01 X24.9999 Y-16.8409 
G01 X20.7201 Y-16.8409 
G01 X18.7459 Y-18.8151 
G01 X18.7459 Y-28.6701 
G01 X18.7087 Y-28.8567 
G01 X18.6359 Y-29.0325 
G01 X18.5302 Y-29.1907 
G01 X18.3957 Y-29.3252 
G01 X18.2375 Y-29.4309 
G01 X18.0617 Y-29.5037 
G01 X18.0094 Y-29.5141 
G00 Z2.5400 
G00 X23.3722 Y-18.1597 
G01 Z-0.1500 F180.00 
G01 X23.4316 Y-18.0163 F300.00 
G01 X23.5179 Y-17.8872 
G01 X23.6276 Y-17.7775 
G01 X23.7567 Y-17.6912 
G01 X23.9001 Y-17.6318 
G01 X24.0524 Y-17.6015 
G01 X24.2076 Y-17.6015 
G01 X24.3599 Y-17.6318 
G01 X24.5033 Y-17.6912 
G01 X24.6324 Y-17.7775 
G01 X24.7421 Y-17.8872 
G01 X24.8284 Y-18.0163 
G01 X24.8878 Y-18.1597 
G01 X24.9181 Y-18.3120 
G01 X24.9181 Y-19.7880 
G01 X24.8878 Y-19.9403 
G01 X24.8284 Y-20.0837 
G01 X24.7421 Y-20.2128 
G01 X24.6324 Y-20.3225 
G01 X24.5033 Y-20.4088 
G01 X24.3599 Y-20.4682 
G01 X24.2076 Y-20.4985 
G01 X24.0524 Y-20.4985 
G01 X23.9001 Y-20.4682 
G01 X23.7567 Y-20.4088 
G01 X23.6276 Y-20.3225 
G01 X23.5179 Y-20.2128 
G01 X23.4316 Y-20.0837 
G01 X23.3722 Y-19.9403 
G01 X23.3468 Y-19.8127 
G01 X20.6718 Y-19.8127 
G01 X20.6464 Y-19.8381 
G01 X19.9936 Y-19.8381 
G01 X19.5319 Y-19.3764 
G01 X19.5319 Y-18.7236 
G01 X19.9936 Y-18.2619 
G01 X20.6464 Y-18.2619 
G01 X20.6718 Y-18.2873 
G01 X23.3468 Y-18.2873 
G01 X23.3722 Y-18.1597 
G00 Z2.5400 
G00 X51.5380 Y-28.1266 
G01 Z-0.1500 F180.00 
G01 X51.8832 Y-28.2696 F300.00 
G01 X52.2568 Y-28.2696 
G01 X52.6020 Y-28.1266 
G01 X52.8662 Y-27.8624 
G01 X53.0092 Y-27.5172 
G01 X53.0092 Y-25.8228 
G01 X52.8662 Y-25.4776 
G01 X52.6020 Y-25.2134 
G01 X52.2568 Y-25.0704 
G01 X51.8832 Y-25.0704 
G01 X51.5380 Y-25.2134 
G01 X51.2738 Y-25.4776 
G01 X51.1308 Y-25.8228 
G01 X51.1308 Y-27.5172 
G01 X51.2738 Y-27.8624 
G01 X51.5380 Y-28.1266 
G00 Z2.5400 
G00 X54.0780 Y-28.1266 
G01 Z-0.1500 F180.00 
G01 X54.4232 Y-28.2696 F300.00 
G01 X54.7968 Y-28.2696 
G01 X55.1420 Y-28.1266 
G01 X55.4062 Y-27.8624 
G01 X55.5492 Y-27.5172 
G01 X55.5492 Y-25.8228 
G01 X55.4062 Y-25.4776 
G01 X55.1420 Y-25.2134 
G01 X54.7968 Y-25.0704 
G01 X54.4232 Y-25.0704 
G01 X54.0780 Y-25.2134 
G01 X53.8138 Y-25.4776 
G01 X53.6708 Y-25.8228 
G01 X53.6708 Y-27.5172 
G01 X53.8138 Y-27.8624 
G01 X54.0780 Y-28.1266 
G00 Z2.5400 
G00 X56.6180 Y-28.1266 
G01 Z-0.1500 F180.00 
G01 X56.9632 Y-28.2696 F300.00 
G01 X57.3368 Y-28.2696 
G01 X57.6820 Y-28.1266 
G01 X57.9462 Y-27.8624 
G01 X58.0892 Y-27.5172 
G01 X58.0892 Y-25.8228 
G01 X57.9462 Y-25.4776 
G01 X57.6820 Y-25.2134 
G01 X57.3368 Y-25.0704 
G01 X56.9632 Y-25.0704 
G01 X56.6180 Y-25.2134 
G01 X56.3538 Y-25.4776 
G01 X56.2108 Y-25.8228 
G01 X56.2108 Y-27.5172 
G01 X56.3538 Y-27.8624 
G01 X56.6180 Y-28.1266 
G00 Z2.5400 
G00 X41.3780 Y-28.1266 
G01 Z-0.1500 F180.00 
G01 X41.7232 Y-28.2696 F300.00 
G01 X42.0968 Y-28.2696 
G01 X42.4420 Y-28.1266 
G01 X42.7062 Y-27.8624 
G01 X42.8492 Y-27.5172 
G01 X42.8492 Y-25.8228 
G01 X42.7062 Y-25.4776 
G01 X42.4420 Y-25.2134 
G01 X42.0968 Y-25.0704 
G01 X41.7232 Y-25.0704 
G01 X41.3780 Y-25.2134 
G01 X41.1138 Y-25.4776 
G01 X40.9708 Y-25.8228 
G01 X40.9708 Y-27.5172 
G01 X41.1138 Y-27.8624 
G01 X41.3780 Y-28.1266 
G00 Z2.5400 
G00 X9.7542 Y-12.4961 
G01 Z-0.1500 F180.00 
G01 X10.3639 Y-13.1058 F300.00 
G01 X11.2261 Y-13.1058 
G01 X11.8358 Y-12.4961 
G01 X11.8358 Y-11.6339 
G01 X11.2261 Y-11.0242 
G01 X10.3639 Y-11.0242 
G01 X9.7542 Y-11.6339 
G01 X9.7542 Y-12.4961 
G00 Z2.5400 
G00 X12.9039 Y-11.0242 
G01 Z-0.1500 F180.00 
G01 X12.2942 Y-11.6339 F300.00 
G01 X12.2942 Y-12.4961 
G01 X12.9039 Y-13.1058 
G01 X13.7661 Y-13.1058 
G01 X14.3758 Y-12.4961 
G01 X14.3758 Y-11.6339 
G01 X13.7661 Y-11.0242 
G01 X12.9039 Y-11.0242 
G00 Z2.5400 
G00 X12.9039 Y-8.4842 
G01 Z-0.1500 F180.00 
G01 X12.2942 Y-9.0939 F300.00 
G01 X12.2942 Y-9.9561 
G01 X12.9039 Y-10.5658 
G01 X13.7661 Y-10.5658 
G01 X14.3758 Y-9.9561 
G01 X14.3758 Y-9.0939 
G01 X13.7661 Y-8.4842 
G01 X12.9039 Y-8.4842 
G00 Z2.5400 
G00 X10.3639 Y-8.4842 
G01 Z-0.1500 F180.00 
G01 X9.7542 Y-9.0939 F300.00 
G01 X9.7542 Y-9.9561 
G01 X10.3639 Y-10.5658 
G01 X11.2261 Y-10.5658 
G01 X11.8358 Y-9.9561 
G01 X11.8358 Y-9.0939 
G01 X11.2261 Y-8.4842 
G01 X10.3639 Y-8.4842 
G00 Z2.5400 
G00 X10.3639 Y-5.9442 
G01 Z-0.1500 F180.00 
G01 X9.7542 Y-6.5539 F300.00 
G01 X9.7542 Y-7.4161 
G01 X10.3639 Y-8.0258 
G01 X11.2261 Y-8.0258 
G01 X11.8358 Y-7.4161 
G01 X11.8358 Y-6.5539 
G01 X11.2261 Y-5.9442 
G01 X10.3639 Y-5.9442 
G00 Z2.5400 
G00 X43.9180 Y-20.5066 
G01 Z-0.1500 F180.00 
G01 X44.2632 Y-20.6496 F300.00 
G01 X44.6368 Y-20.6496 
G01 X44.9820 Y-20.5066 
G01 X45.2462 Y-20.2424 
G01 X45.3892 Y-19.8972 
G01 X45.3892 Y-18.2028 
G01 X45.3832 Y-18.1884 
G01 X45.3655 Y-18.1457 
G01 X45.3638 Y-18.1415 
G01 X45.3638 Y-17.5982 
G01 X45.2246 Y-17.2624 
G01 X44.9556 Y-16.9933 
G01 X42.8686 Y-14.9063 
G01 X42.8492 Y-14.8594 
G01 X42.8492 Y-14.8510 
G01 X42.2990 Y-14.3008 
G01 X41.5210 Y-14.3008 
G01 X40.9708 Y-14.8510 
G01 X40.9708 Y-15.6290 
G01 X41.5210 Y-16.1792 
G01 X41.5294 Y-16.1792 
G01 X41.5763 Y-16.1986 
G01 X41.6123 Y-16.2345 
G01 X43.4914 Y-18.1137 
G01 X43.5108 Y-18.1606 
G01 X43.5108 Y-19.8972 
G01 X43.6538 Y-20.2424 
G01 X43.9180 Y-20.5066 
G00 Z2.5400 
G00 X46.4580 Y-20.5066 
G01 Z-0.1500 F180.00 
G01 X46.8032 Y-20.6496 F300.00 
G01 X47.1768 Y-20.6496 
G01 X47.5220 Y-20.5066 
G01 X47.7862 Y-20.2424 
G01 X47.9292 Y-19.8972 
G01 X47.9292 Y-18.2028 
G01 X47.9232 Y-18.1884 
G01 X47.9055 Y-18.1457 
G01 X47.9038 Y-18.1415 
G01 X47.9038 Y-15.6819 
G01 X47.9232 Y-15.6350 
G01 X47.9292 Y-15.6290 
G01 X47.9292 Y-14.8510 
G01 X47.3790 Y-14.3008 
G01 X46.6010 Y-14.3008 
G01 X46.0508 Y-14.8510 
G01 X46.0508 Y-15.6290 
G01 X46.0568 Y-15.6350 
G01 X46.0762 Y-15.6819 
G01 X46.0762 Y-18.1415 
G01 X46.0508 Y-18.2028 
G01 X46.0508 Y-19.8972 
G01 X46.1938 Y-20.2424 
G01 X46.4580 Y-20.5066 
G00 Z2.5400 
G00 X50.4959 Y-19.7801 
G01 Z-0.1500 F180.00 
G01 X50.4587 Y-19.9667 F300.00 
G01 X50.3859 Y-20.1425 
G01 X50.2802 Y-20.3007 
G01 X50.1457 Y-20.4352 
G01 X49.9875 Y-20.5409 
G01 X49.8117 Y-20.6137 
G01 X49.6251 Y-20.6509 
G01 X49.4349 Y-20.6509 
G01 X49.2483 Y-20.6137 
G01 X49.0725 Y-20.5409 
G01 X48.9143 Y-20.4352 
G01 X48.7798 Y-20.3007 
G01 X48.6741 Y-20.1425 
G01 X48.6013 Y-19.9667 
G01 X48.5641 Y-19.7801 
G01 X48.5641 Y-15.7799 
G01 X48.6013 Y-15.5933 
G01 X48.6741 Y-15.4175 
G01 X48.7798 Y-15.2593 
G01 X53.2248 Y-10.8143 
G01 X53.3593 Y-10.6798 
G01 X53.5175 Y-10.5741 
G01 X53.6933 Y-10.5013 
G01 X53.8799 Y-10.4641 
G01 X63.5951 Y-10.4641 
G01 X63.7817 Y-10.5013 
G01 X63.9575 Y-10.5741 
G01 X64.1157 Y-10.6798 
G01 X64.1362 Y-10.7002 
G01 X64.1941 Y-10.7390 
G01 X64.3180 Y-10.8629 
G01 X64.4154 Y-11.0086 
G01 X64.4825 Y-11.1705 
G01 X64.5167 Y-11.3424 
G01 X64.5167 Y-11.5176 
G01 X64.4825 Y-11.6895 
G01 X64.4154 Y-11.8514 
G01 X64.3180 Y-11.9971 
G01 X64.1941 Y-12.1210 
G01 X64.1362 Y-12.1598 
G01 X64.1157 Y-12.1802 
G01 X63.9575 Y-12.2859 
G01 X63.7817 Y-12.3587 
G01 X63.5951 Y-12.3959 
G01 X54.3751 Y-12.3959 
G01 X50.4959 Y-16.2751 
G01 X50.4959 Y-19.7801 
G00 Z2.5400 
G00 X53.0359 Y-19.7801 
G01 Z-0.1500 F180.00 
G01 X52.9987 Y-19.9667 F300.00 
G01 X52.9259 Y-20.1425 
G01 X52.8202 Y-20.3007 
G01 X52.6857 Y-20.4352 
G01 X52.5275 Y-20.5409 
G01 X52.3517 Y-20.6137 
G01 X52.1651 Y-20.6509 
G01 X51.9749 Y-20.6509 
G01 X51.7883 Y-20.6137 
G01 X51.6125 Y-20.5409 
G01 X51.4543 Y-20.4352 
G01 X51.3198 Y-20.3007 
G01 X51.2141 Y-20.1425 
G01 X51.1413 Y-19.9667 
G01 X51.1041 Y-19.7801 
G01 X51.1041 Y-16.4149 
G01 X51.1413 Y-16.2283 
G01 X51.2141 Y-16.0525 
G01 X51.3198 Y-15.8943 
G01 X53.8598 Y-13.3543 
G01 X53.9943 Y-13.2198 
G01 X54.1525 Y-13.1141 
G01 X54.3283 Y-13.0413 
G01 X54.5149 Y-13.0041 
G01 X63.5951 Y-13.0041 
G01 X63.7817 Y-13.0413 
G01 X63.9575 Y-13.1141 
G01 X64.1157 Y-13.2198 
G01 X64.1361 Y-13.2402 
G01 X64.1941 Y-13.2790 
G01 X64.3180 Y-13.4029 
G01 X64.4154 Y-13.5486 
G01 X64.4825 Y-13.7105 
G01 X64.5167 Y-13.8824 
G01 X64.5167 Y-14.0576 
G01 X64.4825 Y-14.2295 
G01 X64.4154 Y-14.3914 
G01 X64.3180 Y-14.5371 
G01 X64.1941 Y-14.6610 
G01 X64.1361 Y-14.6998 
G01 X64.1157 Y-14.7202 
G01 X63.9575 Y-14.8259 
G01 X63.7817 Y-14.8987 
G01 X63.5951 Y-14.9359 
G01 X55.0101 Y-14.9359 
G01 X53.0359 Y-16.9101 
G01 X53.0359 Y-19.7801 
G00 Z2.5400 
G00 X55.5759 Y-19.7801 
G01 Z-0.1500 F180.00 
G01 X55.5387 Y-19.9667 F300.00 
G01 X55.4659 Y-20.1425 
G01 X55.3602 Y-20.3007 
G01 X55.2257 Y-20.4352 
G01 X55.0675 Y-20.5409 
G01 X54.8917 Y-20.6137 
G01 X54.7051 Y-20.6509 
G01 X54.5149 Y-20.6509 
G01 X54.3283 Y-20.6137 
G01 X54.1525 Y-20.5409 
G01 X53.9943 Y-20.4352 
G01 X53.8598 Y-20.3007 
G01 X53.7541 Y-20.1425 
G01 X53.6813 Y-19.9667 
G01 X53.6441 Y-19.7801 
G01 X53.6441 Y-17.6849 
G01 X53.6813 Y-17.4983 
G01 X53.7541 Y-17.3225 
G01 X53.8598 Y-17.1643 
G01 X55.1298 Y-15.8943 
G01 X55.2643 Y-15.7598 
G01 X55.4225 Y-15.6541 
G01 X55.5983 Y-15.5813 
G01 X55.7849 Y-15.5441 
G01 X63.5951 Y-15.5441 
G01 X63.7817 Y-15.5813 
G01 X63.9575 Y-15.6541 
G01 X64.1157 Y-15.7598 
G01 X64.1361 Y-15.7802 
G01 X64.1941 Y-15.8190 
G01 X64.3180 Y-15.9429 
G01 X64.4154 Y-16.0886 
G01 X64.4825 Y-16.2505 
G01 X64.5167 Y-16.4224 
G01 X64.5167 Y-16.5976 
G01 X64.4825 Y-16.7695 
G01 X64.4154 Y-16.9314 
G01 X64.3180 Y-17.0771 
G01 X64.1941 Y-17.2010 
G01 X64.1361 Y-17.2398 
G01 X64.1157 Y-17.2602 
G01 X63.9575 Y-17.3659 
G01 X63.7817 Y-17.4387 
G01 X63.5951 Y-17.4759 
G01 X56.2801 Y-17.4759 
G01 X55.5759 Y-18.1801 
G01 X55.5759 Y-19.7801 
G00 Z2.5400 
G00 X56.3619 Y-19.7880 
G01 Z-0.1500 F180.00 
G01 X56.3619 Y-18.3120 F300.00 
G01 X56.3922 Y-18.1597 
G01 X56.4516 Y-18.0163 
G01 X56.5379 Y-17.8872 
G01 X56.6476 Y-17.7775 
G01 X56.7767 Y-17.6912 
G01 X56.9201 Y-17.6318 
G01 X57.0724 Y-17.6015 
G01 X57.2276 Y-17.6015 
G01 X57.3799 Y-17.6318 
G01 X57.5233 Y-17.6912 
G01 X57.6524 Y-17.7775 
G01 X57.7621 Y-17.8872 
G01 X57.8484 Y-18.0163 
G01 X57.9078 Y-18.1597 
G01 X57.9381 Y-18.3120 
G01 X57.9381 Y-19.7880 
G01 X57.9078 Y-19.9403 
G01 X57.8484 Y-20.0837 
G01 X57.7621 Y-20.2128 
G01 X57.6524 Y-20.3225 
G01 X57.5233 Y-20.4088 
G01 X57.3799 Y-20.4682 
G01 X57.2276 Y-20.4985 
G01 X57.0724 Y-20.4985 
G01 X56.9201 Y-20.4682 
G01 X56.7767 Y-20.4088 
G01 X56.6476 Y-20.3225 
G01 X56.5379 Y-20.2128 
G01 X56.4516 Y-20.0837 
G01 X56.3922 Y-19.9403 
G01 X56.3619 Y-19.7880 
G00 Z2.5400 
G00 X22.5841 Y-24.4282 
G01 Z-0.1500 F180.00 
G01 X22.6310 Y-24.4088 F300.00 
G01 X38.6767 Y-24.4088 
G01 X38.7236 Y-24.4282 
G01 X38.7373 Y-24.4419 
G01 X39.1478 Y-24.6120 
G01 X39.5922 Y-24.6120 
G01 X40.0027 Y-24.4419 
G01 X40.0164 Y-24.4282 
G01 X40.0476 Y-24.4153 
G01 X40.0633 Y-24.4088 
G01 X40.0884 Y-24.4088 
G01 X40.1141 Y-24.4088 
G01 X43.4340 Y-24.4088 
G01 X43.4809 Y-24.4282 
G01 X43.5168 Y-24.4641 
G01 X43.5362 Y-24.5110 
G01 X43.5362 Y-25.7615 
G01 X43.5168 Y-25.8084 
G01 X43.5108 Y-25.8228 
G01 X43.5108 Y-27.5172 
G01 X43.6538 Y-27.8624 
G01 X43.9180 Y-28.1266 
G01 X44.2632 Y-28.2696 
G01 X44.6368 Y-28.2696 
G01 X44.9820 Y-28.1266 
G01 X45.2462 Y-27.8624 
G01 X45.3892 Y-27.5172 
G01 X45.3892 Y-25.8228 
G01 X45.3832 Y-25.8084 
G01 X45.3655 Y-25.7657 
G01 X45.3638 Y-25.7615 
G01 X45.3638 Y-24.5110 
G01 X45.3832 Y-24.4641 
G01 X45.4191 Y-24.4282 
G01 X45.4660 Y-24.4088 
G01 X59.3090 Y-24.4088 
G01 X59.3559 Y-24.4282 
G01 X59.3918 Y-24.4641 
G01 X59.4112 Y-24.5110 
G01 X59.4112 Y-26.8518 
G01 X59.5504 Y-27.1876 
G01 X59.8074 Y-27.4446 
G01 X60.1432 Y-27.5838 
G01 X61.5894 Y-27.5838 
G01 X61.6363 Y-27.6032 
G01 X61.8960 Y-27.7108 
G01 X63.8340 Y-27.7108 
G01 X64.2165 Y-27.5523 
G01 X64.5093 Y-27.2595 
G01 X64.6678 Y-26.8770 
G01 X64.6678 Y-26.4630 
G01 X64.5093 Y-26.0805 
G01 X64.2165 Y-25.7877 
G01 X63.8340 Y-25.6292 
G01 X61.8960 Y-25.6292 
G01 X61.6363 Y-25.7368 
G01 X61.5954 Y-25.7538 
G01 X61.5894 Y-25.7562 
G01 X61.3410 Y-25.7562 
G01 X61.2941 Y-25.7368 
G01 X61.2582 Y-25.7009 
G01 X61.2388 Y-20.9151 
G01 X61.2388 Y-20.0660 
G01 X61.2582 Y-20.0191 
G01 X61.2941 Y-19.9832 
G01 X61.3410 Y-19.9638 
G01 X61.5894 Y-19.9638 
G01 X61.6363 Y-19.9832 
G01 X61.8960 Y-20.0908 
G01 X63.8340 Y-20.0908 
G01 X64.2165 Y-19.9323 
G01 X64.5093 Y-19.6395 
G01 X64.6678 Y-19.2570 
G01 X64.6678 Y-18.8430 
G01 X64.5093 Y-18.4605 
G01 X64.2165 Y-18.1677 
G01 X63.8340 Y-18.0092 
G01 X61.8960 Y-18.0092 
G01 X61.6363 Y-18.1168 
G01 X61.6042 Y-18.1301 
G01 X61.5894 Y-18.1362 
G01 X60.1432 Y-18.1362 
G01 X59.8074 Y-18.2753 
G01 X59.5503 Y-18.5324 
G01 X59.4112 Y-18.8682 
G01 X59.4112 Y-22.4790 
G01 X59.3918 Y-22.5259 
G01 X59.3559 Y-22.5618 
G01 X59.3090 Y-22.5812 
G01 X40.5892 Y-22.5812 
G01 X40.5423 Y-22.5618 
G01 X40.5064 Y-22.5259 
G01 X40.4870 Y-22.4790 
G01 X40.4870 Y-18.1928 
G01 X40.3169 Y-17.7823 
G01 X40.0027 Y-17.4681 
G01 X39.5922 Y-17.2980 
G01 X39.1478 Y-17.2980 
G01 X38.7373 Y-17.4681 
G01 X38.4231 Y-17.7823 
G01 X38.2530 Y-18.1928 
G01 X38.2530 Y-22.4790 
G01 X38.2336 Y-22.5259 
G01 X38.1977 Y-22.5618 
G01 X38.1508 Y-22.5812 
G01 X22.0432 Y-22.5812 
G01 X21.7074 Y-22.7203 
G01 X19.8024 Y-24.6254 
G01 X19.5454 Y-24.8824 
G01 X19.4062 Y-25.2182 
G01 X19.4062 Y-26.2281 
G01 X19.3868 Y-26.2750 
G01 X19.3808 Y-26.2810 
G01 X19.3808 Y-27.0590 
G01 X19.9310 Y-27.6092 
G01 X20.7090 Y-27.6092 
G01 X21.2592 Y-27.0590 
G01 X21.2592 Y-26.2810 
G01 X21.2532 Y-26.2750 
G01 X21.2338 Y-26.2281 
G01 X21.2338 Y-25.8060 
G01 X21.2532 Y-25.7591 
G01 X21.2891 Y-25.7231 
G01 X22.5841 Y-24.4282 
G00 Z12.7000 
M05
M02
