(.../administrador/eagle/pcb-gcode/pcb-gcode.ulp)
(Copyright 2005 - 2012 by John Johnson)
(See readme.txt for licensing terms.)
(This file generated from the board:)
(.../administrador/eagle/Arduino_reduced.brd)
(Current profile is .../eagle/pcb-gcode/profiles/emc.pp  )
(This file generated 15/09/15 12:22)
(Settings from pcb-machine.h)
(  Tool Size)
(0.1397 )
(Z Axis Settings)
(  High     Up        Down     Drill)
(12.7000 	2.5400 	-0.2000 	-2.0000 )
(spindle on time = 3.0000)
(milling depth = -0.2540)
(text depth = -0.1270)
(tool change at 0.0000 0.0000 0.0000 )
(feed rate xy = F300.00 )
(feed rate z  = F180.00 )
(Settings from pcb-defaults.h)
(isolate min = 0.0578)
(isolate max = 0.3556)
(isolate step = 0.1270)
(Generated top outlines, bottom outlines, bottom drill, )
(Unit of measure: mm)
(Metric Mode)
G21
(Absolute Coordinates)
G90
G00 X35.0000 Y25.0000 
M03
G04 P3.000000
G00 Z5.0000 
G00 X56.6756 Y20.4204 
G01 Z-0.1500 F180.00 
G01 X56.9834 Y20.5480 F280.00 
G01 X57.3166 Y20.5480 
G01 X57.6244 Y20.4204 
G01 X57.8600 Y20.1848 
G01 X57.9876 Y19.8770 
G01 X57.9876 Y18.2230 
G01 X57.8600 Y17.9152 
G01 X57.6244 Y17.6796 
G01 X57.3166 Y17.5520 
G01 X56.9834 Y17.5520 
G01 X56.6756 Y17.6796 
G01 X56.4400 Y17.9152 
G01 X56.3124 Y18.2230 
G01 X56.3124 Y19.8770 
G01 X56.4400 Y20.1848 
G01 X56.6756 Y20.4204 
G00 Z2.5400 
G00 X64.4232 Y17.0420 
G01 Z-0.1500 F180.00 
G01 X64.5662 Y16.6968 F280.00 
G01 X64.5662 Y16.3232 
G01 X64.4232 Y15.9780 
G01 X64.1590 Y15.7138 
G01 X63.8138 Y15.5708 
G01 X61.9162 Y15.5708 
G01 X61.5710 Y15.7138 
G01 X61.3068 Y15.9780 
G01 X61.1638 Y16.3232 
G01 X61.1638 Y16.6968 
G01 X61.3068 Y17.0420 
G01 X61.5710 Y17.3062 
G01 X61.9162 Y17.4492 
G01 X63.8138 Y17.4492 
G01 X64.1590 Y17.3062 
G01 X64.4232 Y17.0420 
G00 Z2.5400 
G00 X64.4232 Y14.5020 
G01 Z-0.1500 F180.00 
G01 X64.5662 Y14.1568 F300.00 
G01 X64.5662 Y13.7832 
G01 X64.4232 Y13.4380 
G01 X64.1590 Y13.1738 
G01 X63.8138 Y13.0308 
G01 X61.9162 Y13.0308 
G01 X61.5710 Y13.1738 
G01 X61.3068 Y13.4380 
G01 X61.1638 Y13.7832 
G01 X61.1638 Y14.1568 
G01 X61.3068 Y14.5020 
G01 X61.5710 Y14.7662 
G01 X61.9162 Y14.9092 
G01 X63.8138 Y14.9092 
G01 X64.1590 Y14.7662 
G01 X64.4232 Y14.5020 
G00 Z2.5400 
G00 X64.4232 Y11.9620 
G01 Z-0.1500 F180.00 
G01 X64.5662 Y11.6168 F280.00 
G01 X64.5662 Y11.2432 
G01 X64.4232 Y10.8980 
G01 X64.1590 Y10.6338 
G01 X63.8138 Y10.4908 
G01 X61.9162 Y10.4908 
G01 X61.5710 Y10.6338 
G01 X61.3068 Y10.8980 
G01 X61.1638 Y11.2432 
G01 X61.1638 Y11.6168 
G01 X61.3068 Y11.9620 
G01 X61.5710 Y12.2262 
G01 X61.9162 Y12.3692 
G01 X63.8138 Y12.3692 
G01 X64.1590 Y12.2262 
G01 X64.4232 Y11.9620 
G00 Z2.5400 
G00 X64.4232 Y9.4220 
G01 Z-0.1500 F180.00 
G01 X64.5662 Y9.0768 F300.00 
G01 X64.5662 Y8.7032 
G01 X64.4232 Y8.3580 
G01 X64.1590 Y8.0938 
G01 X63.8138 Y7.9508 
G01 X61.9162 Y7.9508 
G01 X61.5710 Y8.0938 
G01 X61.3068 Y8.3580 
G01 X61.1638 Y8.7032 
G01 X61.1638 Y9.0768 
G01 X61.3068 Y9.4220 
G01 X61.5710 Y9.6862 
G01 X61.9162 Y9.8292 
G01 X63.8138 Y9.8292 
G01 X64.1590 Y9.6862 
G01 X64.4232 Y9.4220 
G00 Z2.5400 
G00 X64.4232 Y6.8820 
G01 Z-0.1500 F180.00 
G01 X64.5662 Y6.5368 F280.00 
G01 X64.5662 Y6.1632 
G01 X64.4232 Y5.8180 
G01 X64.1590 Y5.5538 
G01 X63.8138 Y5.4108 
G01 X61.9162 Y5.4108 
G01 X61.5710 Y5.5538 
G01 X61.3068 Y5.8180 
G01 X61.1638 Y6.1632 
G01 X61.1638 Y6.5368 
G01 X61.3068 Y6.8820 
G01 X61.5710 Y7.1462 
G01 X61.9162 Y7.2892 
G01 X63.8138 Y7.2892 
G01 X64.1590 Y7.1462 
G01 X64.4232 Y6.8820 
G00 Z2.5400 
G00 X64.4232 Y4.3420 
G01 Z-0.1500 F180.00 
G01 X64.5662 Y3.9968 F300.00 
G01 X64.5662 Y3.6232 
G01 X64.4232 Y3.2780 
G01 X64.1590 Y3.0138 
G01 X63.8138 Y2.8708 
G01 X61.9162 Y2.8708 
G01 X61.5710 Y3.0138 
G01 X61.3068 Y3.2780 
G01 X61.1638 Y3.6232 
G01 X61.1638 Y3.9968 
G01 X61.3068 Y4.3420 
G01 X61.5710 Y4.6062 
G01 X61.9162 Y4.7492 
G01 X63.8138 Y4.7492 
G01 X64.1590 Y4.6062 
G01 X64.4232 Y4.3420 
G00 Z2.5400 
G00 X46.6431 Y14.4024 
G01 Z-0.1500 F180.00 
G01 X46.1524 Y14.8931 F300.00 
G01 X46.1524 Y15.5869 
G01 X46.6431 Y16.0776 
G01 X47.3369 Y16.0776 
G01 X47.8276 Y15.5869 
G01 X47.8276 Y14.8931 
G01 X47.3369 Y14.4024 
G01 X46.6431 Y14.4024 
G00 Z2.5400 
G00 X41.5631 Y14.4024 
G01 Z-0.1500 F180.00 
G01 X41.0724 Y14.8931 F280.00 
G01 X41.0724 Y15.5869 
G01 X41.5631 Y16.0776 
G01 X42.2569 Y16.0776 
G01 X42.7476 Y15.5869 
G01 X42.7476 Y14.8931 
G01 X42.2569 Y14.4024 
G01 X41.5631 Y14.4024 
G00 Z2.5400 
G00 X35.8641 Y25.9399 
G01 Z-0.1500 F180.00 
G01 X35.9013 Y25.7533 F300.00 
G01 X35.9741 Y25.5775 
G01 X36.0798 Y25.4193 
G01 X36.2143 Y25.2848 
G01 X36.3725 Y25.1791 
G01 X36.5483 Y25.1063 
G01 X36.7349 Y25.0691 
G01 X36.9251 Y25.0691 
G01 X37.1117 Y25.1063 
G01 X37.2875 Y25.1791 
G01 X37.4457 Y25.2848 
G01 X37.5802 Y25.4193 
G01 X37.6859 Y25.5775 
G01 X37.7587 Y25.7533 
G01 X37.7959 Y25.9399 
G01 X37.7959 Y27.5399 
G01 X38.5001 Y28.2441 
G01 X51.8406 Y28.2441 
G01 X52.2994 Y28.2441 
G01 X63.5951 Y28.2441 
G01 X63.7817 Y28.2813 
G01 X63.9575 Y28.3541 
G01 X64.1157 Y28.4598 
G01 X64.1361 Y28.4802 
G01 X64.1941 Y28.5190 
G01 X64.3180 Y28.6429 
G01 X64.4154 Y28.7886 
G01 X64.4825 Y28.9505 
G01 X64.5167 Y29.1224 
G01 X64.5167 Y29.2976 
G01 X64.4825 Y29.4695 
G01 X64.4154 Y29.6314 
G01 X64.3180 Y29.7771 
G01 X64.1941 Y29.9010 
G01 X64.1361 Y29.9398 
G01 X64.1157 Y29.9602 
G01 X63.9575 Y30.0659 
G01 X63.7817 Y30.1387 
G01 X63.5951 Y30.1759 
G01 X38.0049 Y30.1759 
G01 X37.8183 Y30.1387 
G01 X37.6425 Y30.0659 
G01 X37.4843 Y29.9602 
G01 X37.3498 Y29.8257 
G01 X36.0798 Y28.5557 
G01 X35.9741 Y28.3975 
G01 X35.9013 Y28.2217 
G01 X35.8641 Y28.0351 
G01 X35.8641 Y27.8449 
G01 X35.8641 Y25.9399 
G00 Z2.5400
G00 X51.7883 Y28.2337 
G01 Z-0.1500 F180.00 
G01 X51.6125 Y28.1609 F280.00
G01 X51.4543 Y28.0552 
G01 X51.3198 Y27.9207 
G01 X51.2141 Y27.7625 
G01 X51.1413 Y27.5867 
G01 X51.1041 Y27.4001 
G01 X51.1041 Y26.4351 
G01 X49.1299 Y24.4609 
G01 X8.1599 Y24.4609 
G01 X7.9733 Y24.4237 
G01 X7.7975 Y24.3509 
G01 X7.6393 Y24.2452 
G01 X7.5048 Y24.1107 
G01 X7.3991 Y23.9525 
G01 X7.3263 Y23.7767 
G01 X7.2891 Y23.5901 
G01 X7.2891 Y10.8293 
G01 X7.2848 Y10.7686 
G01 X7.2891 Y10.7344 
G01 X7.2891 Y10.6999 
G01 X7.3010 Y10.6402 
G01 X7.3086 Y10.5798 
G01 X7.3195 Y10.5471 
G01 X7.3263 Y10.5133 
G01 X7.3495 Y10.4571 
G01 X7.3688 Y10.3993 
G01 X7.3859 Y10.3694 
G01 X7.3991 Y10.3375 
G01 X7.4329 Y10.2869 
G01 X7.4630 Y10.2340 
G01 X7.4856 Y10.2080 
G01 X7.5048 Y10.1793 
G01 X7.5478 Y10.1363 
G01 X7.5877 Y10.0903 
G01 X7.6149 Y10.0691 
G01 X7.6393 Y10.0448 
G01 X7.6899 Y10.0110 
G01 X7.7380 Y9.9737 
G01 X7.7688 Y9.9582 
G01 X7.7975 Y9.9391 
G01 X7.8537 Y9.9158 
G01 X10.4481 Y8.6186 
G01 X10.6316 Y8.5683 
G01 X10.8214 Y8.5548 
G01 X11.0102 Y8.5786 
G01 X11.1907 Y8.6388 
G01 X11.3560 Y8.7330 
G01 X11.4997 Y8.8577 
G01 X11.6163 Y9.0080 
G01 X11.7014 Y9.1781 
G01 X11.7517 Y9.3616 
G01 X11.7652 Y9.5514 
G01 X11.7414 Y9.7402 
G01 X11.6812 Y9.9207 
G01 X11.5870 Y10.0860 
G01 X11.4623 Y10.2297 
G01 X11.3120 Y10.3463 
G01 X9.2209 Y11.3919 
G01 X9.2209 Y22.5291 
G01 X49.6251 Y22.5291 
G01 X49.8117 Y22.5663 
G01 X49.9875 Y22.6391 
G01 X50.1457 Y22.7448 
G01 X52.6857 Y25.2848 
G01 X52.8202 Y25.4193 
G01 X52.9259 Y25.5775 
G01 X52.9987 Y25.7533 
G01 X53.0359 Y25.9399 
G01 X53.0359 Y27.4001 
G01 X52.9987 Y27.5867 
G01 X52.9259 Y27.7625 
G01 X52.8202 Y27.9207 
G01 X52.6857 Y28.0552 
G01 X52.5275 Y28.1609 
G01 X52.3517 Y28.2337 
G00 Z2.5400 
G00 X16.8259 Y20.8273 
G01 Z-0.1500 F180.00 
G01 X52.1451 Y20.8273 F300.00 
G01 X52.2925 Y20.8567 
G01 X52.4313 Y20.9141 
G01 X52.5562 Y20.9976 
G01 X55.0962 Y23.5376 
G01 X55.2024 Y23.6438 
G01 X55.2859 Y23.7687 
G01 X55.3433 Y23.9075 
G01 X55.3727 Y24.0549 
G01 X55.3727 Y25.8043 
G01 X55.3981 Y25.9320 
G01 X55.3981 Y27.4080 
G01 X55.3678 Y27.5603 
G01 X55.3084 Y27.7037 
G01 X55.2221 Y27.8328 
G01 X55.1124 Y27.9425 
G01 X54.9833 Y28.0288 
G01 X54.8399 Y28.0882 
G01 X54.6876 Y28.1185 
G01 X54.5324 Y28.1185 
G01 X54.3801 Y28.0882 
G01 X54.2367 Y28.0288 
G01 X54.1076 Y27.9425 
G01 X53.9979 Y27.8328 
G01 X53.9116 Y27.7037 
G01 X53.8522 Y27.5603 
G01 X53.8219 Y27.4080 
G01 X53.8219 Y25.9320 
G01 X53.8473 Y25.8043 
G01 X53.8473 Y24.4459 
G01 X51.7541 Y22.3527 
G01 X16.4349 Y22.3527 
G01 X16.2875 Y22.3233 
G01 X16.1487 Y22.2659 
G01 X16.0238 Y22.1824 
G01 X15.9176 Y22.0762 
G01 X13.2179 Y19.3765 
G01 X13.0533 Y19.3437 
G01 X12.8775 Y19.2709 
G01 X12.7193 Y19.1652 
G01 X12.5848 Y19.0307 
G01 X12.4791 Y18.8725 
G01 X12.4063 Y18.6967 
G01 X12.3691 Y18.5101 
G01 X12.3691 Y11.9699 
G01 X12.4063 Y11.7833 
G01 X12.4791 Y11.6075 
G01 X12.5848 Y11.4493 
G01 X12.7193 Y11.3148 
G01 X12.8775 Y11.2091 
G01 X13.0533 Y11.1363 
G01 X13.2399 Y11.0991 
G01 X13.4301 Y11.0991 
G01 X13.6167 Y11.1363 
G01 X13.7925 Y11.2091 
G01 X13.9507 Y11.3148 
G01 X14.0852 Y11.4493 
G01 X14.1909 Y11.6075 
G01 X14.2637 Y11.7833 
G01 X14.3009 Y11.9699 
G01 X14.3009 Y18.3023 
G01 X16.8259 Y20.8273 
G00 Z2.5400 
G00 X41.1219 Y27.4080 
G01 Z-0.1500 F180.00 
G01 X41.1219 Y25.9320 F300.00 
G01 X41.1522 Y25.7797 
G01 X41.2116 Y25.6363 
G01 X41.2979 Y25.5072 
G01 X41.4076 Y25.3975 
G01 X41.5367 Y25.3112 
G01 X41.6801 Y25.2518 
G01 X41.8324 Y25.2215 
G01 X41.9876 Y25.2215 
G01 X42.1399 Y25.2518 
G01 X42.2833 Y25.3112 
G01 X42.4124 Y25.3975 
G01 X42.5221 Y25.5072 
G01 X42.6084 Y25.6363 
G01 X42.6678 Y25.7797 
G01 X42.6981 Y25.9320 
G01 X42.6981 Y27.4080 
G01 X42.6678 Y27.5603 
G01 X42.6084 Y27.7037 
G01 X42.5221 Y27.8328 
G01 X42.4124 Y27.9425 
G01 X42.2833 Y28.0288 
G01 X42.1399 Y28.0882 
G01 X41.9876 Y28.1185 
G01 X41.8324 Y28.1185 
G01 X41.6801 Y28.0882 
G01 X41.5367 Y28.0288 
G01 X41.4076 Y27.9425 
G01 X41.2979 Y27.8328 
G01 X41.2116 Y27.7037 
G01 X41.1522 Y27.5603 
G01 X41.1219 Y27.4080 
G00 Z2.5400 
G00 X43.6619 Y27.4080 
G01 Z-0.1500 F180.00 
G01 X43.6619 Y25.9320 F300.00 
G01 X43.6922 Y25.7797 
G01 X43.7516 Y25.6363 
G01 X43.8379 Y25.5072 
G01 X43.9476 Y25.3975 
G01 X44.0767 Y25.3112 
G01 X44.2201 Y25.2518 
G01 X44.3724 Y25.2215 
G01 X44.5276 Y25.2215 
G01 X44.6799 Y25.2518 
G01 X44.8233 Y25.3112 
G01 X44.9524 Y25.3975 
G01 X45.0621 Y25.5072 
G01 X45.1484 Y25.6363 
G01 X45.2078 Y25.7797 
G01 X45.2381 Y25.9320 
G01 X45.2381 Y27.4080 
G01 X45.2078 Y27.5603 
G01 X45.1484 Y27.7037 
G01 X45.0621 Y27.8328 
G01 X44.9524 Y27.9425 
G01 X44.8233 Y28.0288 
G01 X44.6799 Y28.0882 
G01 X44.5276 Y28.1185 
G01 X44.3724 Y28.1185 
G01 X44.2201 Y28.0882 
G01 X44.0767 Y28.0288 
G01 X43.9476 Y27.9425 
G01 X43.8379 Y27.8328 
G01 X43.7516 Y27.7037 
G01 X43.6922 Y27.5603 
G01 X43.6619 Y27.4080 
G00 Z2.5400 
G00 X46.2019 Y27.4080 
G01 Z-0.1500 F180.00 
G01 X46.2019 Y25.9320 F300.00 
G01 X46.2322 Y25.7797 
G01 X46.2916 Y25.6363 
G01 X46.3779 Y25.5072 
G01 X46.4876 Y25.3975 
G01 X46.6167 Y25.3112 
G01 X46.7601 Y25.2518 
G01 X46.9124 Y25.2215 
G01 X47.0676 Y25.2215 
G01 X47.2199 Y25.2518 
G01 X47.3633 Y25.3112 
G01 X47.4924 Y25.3975 
G01 X47.6021 Y25.5072 
G01 X47.6884 Y25.6363 
G01 X47.7478 Y25.7797 
G01 X47.7781 Y25.9320 
G01 X47.7781 Y27.4080 
G01 X47.7478 Y27.5603 
G01 X47.6884 Y27.7037 
G01 X47.6021 Y27.8328 
G01 X47.4924 Y27.9425 
G01 X47.3633 Y28.0288 
G01 X47.2199 Y28.0882 
G01 X47.0676 Y28.1185 
G01 X46.9124 Y28.1185 
G01 X46.7601 Y28.0882 
G01 X46.6167 Y28.0288 
G01 X46.4876 Y27.9425 
G01 X46.3779 Y27.8328 
G01 X46.2916 Y27.7037 
G01 X46.2322 Y27.5603 
G01 X46.2019 Y27.4080 
G00 Z2.5400 
G00 X48.7419 Y27.4080 
G01 Z-0.1500 F180.00 
G01 X48.7419 Y25.9320 F300.00 
G01 X48.7722 Y25.7797 
G01 X48.8316 Y25.6363 
G01 X48.9179 Y25.5072 
G01 X49.0276 Y25.3975 
G01 X49.1567 Y25.3112 
G01 X49.3001 Y25.2518 
G01 X49.4524 Y25.2215 
G01 X49.6076 Y25.2215 
G01 X49.7599 Y25.2518 
G01 X49.9033 Y25.3112 
G01 X50.0324 Y25.3975 
G01 X50.1421 Y25.5072 
G01 X50.2284 Y25.6363 
G01 X50.2878 Y25.7797 
G01 X50.3181 Y25.9320 
G01 X50.3181 Y27.4080 
G01 X50.2878 Y27.5603 
G01 X50.2284 Y27.7037 
G01 X50.1421 Y27.8328 
G01 X50.0324 Y27.9425 
G01 X49.9033 Y28.0288 
G01 X49.7599 Y28.0882 
G01 X49.6076 Y28.1185 
G01 X49.4524 Y28.1185 
G01 X49.3001 Y28.0882 
G01 X49.1567 Y28.0288 
G01 X49.0276 Y27.9425 
G01 X48.9179 Y27.8328 
G01 X48.8316 Y27.7037 
G01 X48.7722 Y27.5603 
G01 X48.7419 Y27.4080 
G00 Z2.5400 
G00 X56.3619 Y27.4080 
G01 Z-0.1500 F180.00 
G01 X56.3619 Y25.9320 F300.00 
G01 X56.3922 Y25.7797 
G01 X56.4516 Y25.6363 
G01 X56.5379 Y25.5072 
G01 X56.6476 Y25.3975 
G01 X56.7767 Y25.3112 
G01 X56.9201 Y25.2518 
G01 X57.0724 Y25.2215 
G01 X57.2276 Y25.2215 
G01 X57.3799 Y25.2518 
G01 X57.5233 Y25.3112 
G01 X57.6524 Y25.3975 
G01 X57.7621 Y25.5072 
G01 X57.8484 Y25.6363 
G01 X57.9078 Y25.7797 
G01 X57.9381 Y25.9320 
G01 X57.9381 Y27.4080 
G01 X57.9078 Y27.5603 
G01 X57.8484 Y27.7037 
G01 X57.7621 Y27.8328 
G01 X57.6524 Y27.9425 
G01 X57.5233 Y28.0288 
G01 X57.3799 Y28.0882 
G01 X57.2276 Y28.1185 
G01 X57.0724 Y28.1185 
G01 X56.9201 Y28.0882 
G01 X56.7767 Y28.0288 
G01 X56.6476 Y27.9425 
G01 X56.5379 Y27.8328 
G01 X56.4516 Y27.7037 
G01 X56.3922 Y27.5603 
G01 X56.3619 Y27.4080 
G00 Z2.5400 
G00 X51.2819 Y19.7880 
G01 Z-0.1500 F180.00 
G01 X51.2819 Y18.3120 F300.00 
G01 X51.3122 Y18.1597 
G01 X51.3716 Y18.0163 
G01 X51.4579 Y17.8872 
G01 X51.5676 Y17.7775 
G01 X51.6967 Y17.6912 
G01 X51.8401 Y17.6318 
G01 X51.9924 Y17.6015 
G01 X52.1476 Y17.6015 
G01 X52.2999 Y17.6318 
G01 X52.4433 Y17.6912 
G01 X52.5724 Y17.7775 
G01 X52.6821 Y17.8872 
G01 X52.7684 Y18.0163 
G01 X52.8278 Y18.1597 
G01 X52.8581 Y18.3120 
G01 X52.8581 Y19.7880 
G01 X52.8278 Y19.9403 
G01 X52.7684 Y20.0837 
G01 X52.6821 Y20.2128 
G01 X52.5724 Y20.3225 
G01 X52.4433 Y20.4088 
G01 X52.2999 Y20.4682 
G01 X52.1476 Y20.4985 
G01 X51.9924 Y20.4985 
G01 X51.8401 Y20.4682 
G01 X51.6967 Y20.4088 
G01 X51.5676 Y20.3225 
G01 X51.4579 Y20.2128 
G01 X51.3716 Y20.0837 
G01 X51.3122 Y19.9403 
G01 X51.2819 Y19.7880 
G00 Z2.5400 
G00 X48.7419 Y19.7880 
G01 Z-0.1500 F180.00 
G01 X48.7419 Y18.3120 F300.00 
G01 X48.7722 Y18.1597 
G01 X48.8316 Y18.0163 
G01 X48.9179 Y17.8872 
G01 X49.0276 Y17.7775 
G01 X49.1567 Y17.6912 
G01 X49.3001 Y17.6318 
G01 X49.4524 Y17.6015 
G01 X49.6076 Y17.6015 
G01 X49.7599 Y17.6318 
G01 X49.9033 Y17.6912 
G01 X50.0324 Y17.7775 
G01 X50.1421 Y17.8872 
G01 X50.2284 Y18.0163 
G01 X50.2878 Y18.1597 
G01 X50.3181 Y18.3120 
G01 X50.3181 Y19.7880 
G01 X50.2878 Y19.9403 
G01 X50.2284 Y20.0837 
G01 X50.1421 Y20.2128 
G01 X50.0324 Y20.3225 
G01 X49.9033 Y20.4088 
G01 X49.7599 Y20.4682 
G01 X49.6076 Y20.4985 
G01 X49.4524 Y20.4985 
G01 X49.3001 Y20.4682 
G01 X49.1567 Y20.4088 
G01 X49.0276 Y20.3225 
G01 X48.9179 Y20.2128 
G01 X48.8316 Y20.0837 
G01 X48.7722 Y19.9403 
G01 X48.7419 Y19.7880 
G00 Z2.5400 
G00 X46.2019 Y19.7880 
G01 Z-0.1500 F180.00 
G01 X46.2019 Y18.3120 F300.00 
G01 X46.2322 Y18.1597 
G01 X46.2916 Y18.0163 
G01 X46.3779 Y17.8872 
G01 X46.4876 Y17.7775 
G01 X46.6167 Y17.6912 
G01 X46.7601 Y17.6318 
G01 X46.9124 Y17.6015 
G01 X47.0676 Y17.6015 
G01 X47.2199 Y17.6318 
G01 X47.3633 Y17.6912 
G01 X47.4924 Y17.7775 
G01 X47.6021 Y17.8872 
G01 X47.6884 Y18.0163 
G01 X47.7478 Y18.1597 
G01 X47.7781 Y18.3120 
G01 X47.7781 Y19.7880 
G01 X47.7478 Y19.9403 
G01 X47.6884 Y20.0837 
G01 X47.6021 Y20.2128 
G01 X47.4924 Y20.3225 
G01 X47.3633 Y20.4088 
G01 X47.2199 Y20.4682 
G01 X47.0676 Y20.4985 
G01 X46.9124 Y20.4985 
G01 X46.7601 Y20.4682 
G01 X46.6167 Y20.4088 
G01 X46.4876 Y20.3225 
G01 X46.3779 Y20.2128 
G01 X46.2916 Y20.0837 
G01 X46.2322 Y19.9403 
G01 X46.2019 Y19.7880 
G00 Z2.5400 
G00 X43.6619 Y19.7880 
G01 Z-0.1500 F180.00 
G01 X43.6619 Y18.3120 F300.00 
G01 X43.6922 Y18.1597 
G01 X43.7516 Y18.0163 
G01 X43.8379 Y17.8872 
G01 X43.9476 Y17.7775 
G01 X44.0767 Y17.6912 
G01 X44.2201 Y17.6318 
G01 X44.3724 Y17.6015 
G01 X44.5276 Y17.6015 
G01 X44.6799 Y17.6318 
G01 X44.8233 Y17.6912 
G01 X44.9524 Y17.7775 
G01 X45.0621 Y17.8872 
G01 X45.1484 Y18.0163 
G01 X45.2078 Y18.1597 
G01 X45.2381 Y18.3120 
G01 X45.2381 Y19.7880 
G01 X45.2078 Y19.9403 
G01 X45.1484 Y20.0837 
G01 X45.0621 Y20.2128 
G01 X44.9524 Y20.3225 
G01 X44.8233 Y20.4088 
G01 X44.6799 Y20.4682 
G01 X44.5276 Y20.4985 
G01 X44.3724 Y20.4985 
G01 X44.2201 Y20.4682 
G01 X44.0767 Y20.4088 
G01 X43.9476 Y20.3225 
G01 X43.8379 Y20.2128 
G01 X43.7516 Y20.0837 
G01 X43.6922 Y19.9403 
G01 X43.6619 Y19.7880 
G00 Z2.5400 
G00 X38.5819 Y19.7880 
G01 Z-0.1500 F180.00 
G01 X38.5819 Y18.3120 F300.00 
G01 X38.6122 Y18.1597 
G01 X38.6716 Y18.0163 
G01 X38.7579 Y17.8872 
G01 X38.8676 Y17.7775 
G01 X38.9967 Y17.6912 
G01 X39.1401 Y17.6318 
G01 X39.2924 Y17.6015 
G01 X39.4476 Y17.6015 
G01 X39.5999 Y17.6318 
G01 X39.7433 Y17.6912 
G01 X39.8724 Y17.7775 
G01 X39.9821 Y17.8872 
G01 X40.0684 Y18.0163 
G01 X40.1278 Y18.1597 
G01 X40.1581 Y18.3120 
G01 X40.1581 Y19.7880 
G01 X40.1278 Y19.9403 
G01 X40.0684 Y20.0837 
G01 X39.9821 Y20.2128 
G01 X39.8724 Y20.3225 
G01 X39.7433 Y20.4088 
G01 X39.5999 Y20.4682 
G01 X39.4476 Y20.4985 
G01 X39.2924 Y20.4985 
G01 X39.1401 Y20.4682 
G01 X38.9967 Y20.4088 
G01 X38.8676 Y20.3225 
G01 X38.7579 Y20.2128 
G01 X38.6716 Y20.0837 
G01 X38.6122 Y19.9403 
G01 X38.5819 Y19.7880 
G00 Z2.5400 
G00 X36.0419 Y19.7880 
G01 Z-0.1500 F180.00 
G01 X36.0419 Y18.3120 F300.00 
G01 X36.0722 Y18.1597 
G01 X36.1316 Y18.0163 
G01 X36.2179 Y17.8872 
G01 X36.3276 Y17.7775 
G01 X36.4567 Y17.6912 
G01 X36.6001 Y17.6318 
G01 X36.7524 Y17.6015 
G01 X36.9076 Y17.6015 
G01 X37.0599 Y17.6318 
G01 X37.2033 Y17.6912 
G01 X37.3324 Y17.7775 
G01 X37.4421 Y17.8872 
G01 X37.5284 Y18.0163 
G01 X37.5878 Y18.1597 
G01 X37.6181 Y18.3120 
G01 X37.6181 Y19.7880 
G01 X37.5878 Y19.9403 
G01 X37.5284 Y20.0837 
G01 X37.4421 Y20.2128 
G01 X37.3324 Y20.3225 
G01 X37.2033 Y20.4088 
G01 X37.0599 Y20.4682 
G01 X36.9076 Y20.4985 
G01 X36.7524 Y20.4985 
G01 X36.6001 Y20.4682 
G01 X36.4567 Y20.4088 
G01 X36.3276 Y20.3225 
G01 X36.2179 Y20.2128 
G01 X36.1316 Y20.0837 
G01 X36.0722 Y19.9403 
G01 X36.0419 Y19.7880 
G00 Z2.5400 
G00 X33.5019 Y19.7880 
G01 Z-0.1500 F180.00 
G01 X33.5019 Y18.3120 F300.00 
G01 X33.5322 Y18.1597 
G01 X33.5916 Y18.0163 
G01 X33.6779 Y17.8872 
G01 X33.7876 Y17.7775 
G01 X33.9167 Y17.6912 
G01 X34.0601 Y17.6318 
G01 X34.2124 Y17.6015 
G01 X34.3676 Y17.6015 
G01 X34.5199 Y17.6318 
G01 X34.6633 Y17.6912 
G01 X34.7924 Y17.7775 
G01 X34.9021 Y17.8872 
G01 X34.9884 Y18.0163 
G01 X35.0478 Y18.1597 
G01 X35.0781 Y18.3120 
G01 X35.0781 Y19.7880 
G01 X35.0478 Y19.9403 
G01 X34.9884 Y20.0837 
G01 X34.9021 Y20.2128 
G01 X34.7924 Y20.3225 
G01 X34.6633 Y20.4088 
G01 X34.5199 Y20.4682 
G01 X34.3676 Y20.4985 
G01 X34.2124 Y20.4985 
G01 X34.0601 Y20.4682 
G01 X33.9167 Y20.4088 
G01 X33.7876 Y20.3225 
G01 X33.6779 Y20.2128 
G01 X33.5916 Y20.0837 
G01 X33.5322 Y19.9403 
G01 X33.5019 Y19.7880 
G00 Z2.5400 
G00 X30.9619 Y19.7880 
G01 Z-0.1500 F180.00 
G01 X30.9619 Y18.3120 F300.00 
G01 X30.9922 Y18.1597 
G01 X31.0516 Y18.0163 
G01 X31.1379 Y17.8872 
G01 X31.2476 Y17.7775 
G01 X31.3767 Y17.6912 
G01 X31.5201 Y17.6318 
G01 X31.6724 Y17.6015 
G01 X31.8276 Y17.6015 
G01 X31.9799 Y17.6318 
G01 X32.1233 Y17.6912 
G01 X32.2524 Y17.7775 
G01 X32.3621 Y17.8872 
G01 X32.4484 Y18.0163 
G01 X32.5078 Y18.1597 
G01 X32.5381 Y18.3120 
G01 X32.5381 Y19.7880 
G01 X32.5078 Y19.9403 
G01 X32.4484 Y20.0837 
G01 X32.3621 Y20.2128 
G01 X32.2524 Y20.3225 
G01 X32.1233 Y20.4088 
G01 X31.9799 Y20.4682 
G01 X31.8276 Y20.4985 
G01 X31.6724 Y20.4985 
G01 X31.5201 Y20.4682 
G01 X31.3767 Y20.4088 
G01 X31.2476 Y20.3225 
G01 X31.1379 Y20.2128 
G01 X31.0516 Y20.0837 
G01 X30.9922 Y19.9403 
G01 X30.9619 Y19.7880 
G00 Z2.5400 
G00 X28.4219 Y19.7880 
G01 Z-0.1500 F180.00 
G01 X28.4219 Y18.3120 F300.00 
G01 X28.4522 Y18.1597 
G01 X28.5116 Y18.0163 
G01 X28.5979 Y17.8872 
G01 X28.7076 Y17.7775 
G01 X28.8367 Y17.6912 
G01 X28.9801 Y17.6318 
G01 X29.1324 Y17.6015 
G01 X29.2876 Y17.6015 
G01 X29.4399 Y17.6318 
G01 X29.5833 Y17.6912 
G01 X29.7124 Y17.7775 
G01 X29.8221 Y17.8872 
G01 X29.9084 Y18.0163 
G01 X29.9678 Y18.1597 
G01 X29.9981 Y18.3120 
G01 X29.9981 Y19.7880 
G01 X29.9678 Y19.9403 
G01 X29.9084 Y20.0837 
G01 X29.8221 Y20.2128 
G01 X29.7124 Y20.3225 
G01 X29.5833 Y20.4088 
G01 X29.4399 Y20.4682 
G01 X29.2876 Y20.4985 
G01 X29.1324 Y20.4985 
G01 X28.9801 Y20.4682 
G01 X28.8367 Y20.4088 
G01 X28.7076 Y20.3225 
G01 X28.5979 Y20.2128 
G01 X28.5116 Y20.0837 
G01 X28.4522 Y19.9403 
G01 X28.4219 Y19.7880 
G00 Z2.5400 
G00 X25.8819 Y19.7880 
G01 Z-0.1500 F180.00 
G01 X25.8819 Y18.3120 F300.00 
G01 X25.9122 Y18.1597 
G01 X25.9716 Y18.0163 
G01 X26.0579 Y17.8872 
G01 X26.1676 Y17.7775 
G01 X26.2967 Y17.6912 
G01 X26.4401 Y17.6318 
G01 X26.5924 Y17.6015 
G01 X26.7476 Y17.6015 
G01 X26.8999 Y17.6318 
G01 X27.0433 Y17.6912 
G01 X27.1724 Y17.7775 
G01 X27.2821 Y17.8872 
G01 X27.3684 Y18.0163 
G01 X27.4278 Y18.1597 
G01 X27.4581 Y18.3120 
G01 X27.4581 Y19.7880 
G01 X27.4278 Y19.9403 
G01 X27.3684 Y20.0837 
G01 X27.2821 Y20.2128 
G01 X27.1724 Y20.3225 
G01 X27.0433 Y20.4088 
G01 X26.8999 Y20.4682 
G01 X26.7476 Y20.4985 
G01 X26.5924 Y20.4985 
G01 X26.4401 Y20.4682 
G01 X26.2967 Y20.4088 
G01 X26.1676 Y20.3225 
G01 X26.0579 Y20.2128 
G01 X25.9716 Y20.0837 
G01 X25.9122 Y19.9403 
G01 X25.8819 Y19.7880 
G00 Z2.5400 
G00 X23.3419 Y19.7880 
G01 Z-0.1500 F180.00 
G01 X23.3419 Y18.3120 F300.00 
G01 X23.3722 Y18.1597 
G01 X23.4316 Y18.0163 
G01 X23.5179 Y17.8872 
G01 X23.6276 Y17.7775 
G01 X23.7567 Y17.6912 
G01 X23.9001 Y17.6318 
G01 X24.0524 Y17.6015 
G01 X24.2076 Y17.6015 
G01 X24.3599 Y17.6318 
G01 X24.5033 Y17.6912 
G01 X24.6324 Y17.7775 
G01 X24.7421 Y17.8872 
G01 X24.8284 Y18.0163 
G01 X24.8878 Y18.1597 
G01 X24.9181 Y18.3120 
G01 X24.9181 Y19.7880 
G01 X24.8878 Y19.9403 
G01 X24.8284 Y20.0837 
G01 X24.7421 Y20.2128 
G01 X24.6324 Y20.3225 
G01 X24.5033 Y20.4088 
G01 X24.3599 Y20.4682 
G01 X24.2076 Y20.4985 
G01 X24.0524 Y20.4985 
G01 X23.9001 Y20.4682 
G01 X23.7567 Y20.4088 
G01 X23.6276 Y20.3225 
G01 X23.5179 Y20.2128 
G01 X23.4316 Y20.0837 
G01 X23.3722 Y19.9403 
G01 X23.3419 Y19.7880 
G00 Z2.5400 
G00 X19.2852 Y13.1011 
G01 Z-0.1500 F180.00 
G01 X19.3046 Y13.1481 F300.00 
G01 X19.3046 Y19.2520 
G01 X19.4592 Y19.6252 
G01 X19.7448 Y19.9108 
G01 X20.1180 Y20.0654 
G01 X20.5220 Y20.0654 
G01 X20.8952 Y19.9108 
G01 X21.1808 Y19.6252 
G01 X21.3354 Y19.2520 
G01 X21.3354 Y12.4980 
G01 X21.1808 Y12.1248 
G01 X20.8592 Y11.8033 
G01 X17.7202 Y8.6642 
G01 X17.3470 Y8.5096 
G01 X13.1330 Y8.5096 
G01 X12.9960 Y8.5664 
G01 X12.9491 Y8.5858 
G01 X12.9460 Y8.5858 
G01 X12.9215 Y8.5973 
G01 X12.8969 Y8.6074 
G01 X12.7598 Y8.6642 
G01 X12.4742 Y8.9498 
G01 X12.4174 Y9.0869 
G01 X12.4076 Y9.1108 
G01 X12.3980 Y9.1338 
G01 X12.3958 Y9.1391 
G01 X12.3764 Y9.1860 
G01 X12.3196 Y9.3230 
G01 X12.3196 Y9.7270 
G01 X12.3764 Y9.8640 
G01 X12.3958 Y9.9109 
G01 X12.3958 Y9.9140 
G01 X12.4073 Y9.9385 
G01 X12.4174 Y9.9631 
G01 X12.4742 Y10.1002 
G01 X12.7598 Y10.3858 
G01 X12.8969 Y10.4425 
G01 X12.9208 Y10.4524 
G01 X12.9438 Y10.4620 
G01 X12.9491 Y10.4642 
G01 X12.9960 Y10.4836 
G01 X13.1330 Y10.5404 
G01 X16.6969 Y10.5404 
G01 X16.7439 Y10.5598 
G01 X16.7798 Y10.5957 
G01 X19.2852 Y13.1011 
G00 Z2.5400 
G00 X9.8291 Y21.0501 
G01 Z-0.1500 F180.00 
G01 X9.8291 Y11.9699 F300.00 
G01 X9.8663 Y11.7833 
G01 X9.9391 Y11.6075 
G01 X10.0448 Y11.4493 
G01 X10.1793 Y11.3148 
G01 X10.3375 Y11.2091 
G01 X10.5133 Y11.1363 
G01 X10.6999 Y11.0991 
G01 X10.8901 Y11.0991 
G01 X11.0767 Y11.1363 
G01 X11.2525 Y11.2091 
G01 X11.4107 Y11.3148 
G01 X11.5452 Y11.4493 
G01 X11.6509 Y11.6075 
G01 X11.7237 Y11.7833 
G01 X11.7609 Y11.9699 
G01 X11.7609 Y21.0501 
G01 X11.7237 Y21.2367 
G01 X11.6509 Y21.4125 
G01 X11.5452 Y21.5707 
G01 X11.4107 Y21.7052 
G01 X11.2525 Y21.8109 
G01 X11.0767 Y21.8837 
G01 X10.8901 Y21.9209 
G01 X10.6999 Y21.9209 
G01 X10.5133 Y21.8837 
G01 X10.3375 Y21.8109 
G01 X10.1793 Y21.7052 
G01 X10.0448 Y21.5707 
G01 X9.9391 Y21.4125 
G01 X9.8663 Y21.2367 
G01 X9.8291 Y21.0501 
G00 Z2.5400 
G00 X10.8901 Y34.5941 
G01 Z-0.1500 F180.00 
G01 X11.0767 Y34.6313 F280.00 
G01 X11.2525 Y34.7041 
G01 X11.4107 Y34.8098 
G01 X11.5452 Y34.9443 
G01 X11.6509 Y35.1025 
G01 X11.7237 Y35.2783 
G01 X11.7609 Y35.4649 
G01 X11.7609 Y35.6551 
G01 X11.7237 Y35.8417 
G01 X11.6509 Y36.0175 
G01 X11.5452 Y36.1757 
G01 X11.4107 Y36.3102 
G01 X11.2525 Y36.4159 
G01 X11.0767 Y36.4887 
G01 X10.8901 Y36.5259 
G01 X10.5601 Y36.5259 
G01 X9.2209 Y37.8651 
G01 X9.2209 Y40.2399 
G01 X11.1951 Y42.2141 
G01 X17.3799 Y42.2141 
G01 X19.3541 Y40.2399 
G01 X19.3541 Y26.5749 
G01 X19.3913 Y26.3883 
G01 X19.4641 Y26.2125 
G01 X19.5698 Y26.0543 
G01 X19.7043 Y25.9198 
G01 X19.8625 Y25.8141 
G01 X20.0383 Y25.7413 
G01 X20.2249 Y25.7041 
G01 X20.4151 Y25.7041 
G01 X20.6017 Y25.7413 
G01 X20.7775 Y25.8141 
G01 X20.9357 Y25.9198 
G01 X21.0702 Y26.0543 
G01 X21.1759 Y26.2125 
G01 X21.2487 Y26.3883 
G01 X21.2859 Y26.5749 
G01 X21.2859 Y40.7351 
G01 X21.2487 Y40.9217 
G01 X21.1759 Y41.0975 
G01 X21.0702 Y41.2557 
G01 X20.9357 Y41.3902 
G01 X18.3957 Y43.9302 
G01 X18.2375 Y44.0359 
G01 X18.0617 Y44.1087 
G01 X17.8751 Y44.1459 
G01 X10.6999 Y44.1459 
G01 X10.5133 Y44.1087 
G01 X10.3375 Y44.0359 
G01 X10.1793 Y43.9302 
G01 X10.0448 Y43.7957 
G01 X7.5048 Y41.2557 
G01 X7.3991 Y41.0975 
G01 X7.3263 Y40.9217 
G01 X7.2891 Y40.7351 
G01 X7.2891 Y37.3699 
G01 X7.3263 Y37.1833 
G01 X7.3991 Y37.0075 
G01 X7.5048 Y36.8493 
G01 X7.6393 Y36.7148 
G01 X9.5443 Y34.8098 
G01 X9.7025 Y34.7041 
G01 X9.8783 Y34.6313 
G01 X10.0649 Y34.5941 
G01 X10.2551 Y34.5941 
G01 X10.8901 Y34.5941 
G00 Z2.5400 
G00 X9.8291 Y38.0049 
G01 Z-0.1500 F180.00 
G01 X9.8663 Y37.8183 F300.00 
G01 X9.9391 Y37.6425 
G01 X10.0448 Y37.4843 
G01 X10.1793 Y37.3498 
G01 X10.3375 Y37.2441 
G01 X10.5133 Y37.1713 
G01 X10.6999 Y37.1341 
G01 X10.8901 Y37.1341 
G01 X11.0767 Y37.1713 
G01 X11.2525 Y37.2441 
G01 X11.4107 Y37.3498 
G01 X11.5452 Y37.4843 
G01 X11.6509 Y37.6425 
G01 X11.7237 Y37.8183 
G01 X11.7609 Y38.0049 
G01 X11.7609 Y38.9699 
G01 X12.4651 Y39.6741 
G01 X14.8399 Y39.6741 
G01 X16.8141 Y37.6999 
G01 X16.8141 Y28.4799 
G01 X16.8513 Y28.2933 
G01 X16.9241 Y28.1175 
G01 X17.0298 Y27.9593 
G01 X17.1643 Y27.8248 
G01 X17.3225 Y27.7191 
G01 X17.4983 Y27.6463 
G01 X17.6849 Y27.6091 
G01 X17.8751 Y27.6091 
G01 X18.0617 Y27.6463 
G01 X18.2375 Y27.7191 
G01 X18.3957 Y27.8248 
G01 X18.5302 Y27.9593 
G01 X18.6359 Y28.1175 
G01 X18.7087 Y28.2933 
G01 X18.7459 Y28.4799 
G01 X18.7459 Y38.1951 
G01 X18.7087 Y38.3817 
G01 X18.6359 Y38.5575 
G01 X18.5302 Y38.7157 
G01 X18.3957 Y38.8502 
G01 X15.8557 Y41.3902 
G01 X15.6975 Y41.4959 
G01 X15.5217 Y41.5687 
G01 X15.3351 Y41.6059 
G01 X11.9699 Y41.6059 
G01 X11.7833 Y41.5687 
G01 X11.6075 Y41.4959 
G01 X11.4493 Y41.3902 
G01 X11.3148 Y41.2557 
G01 X10.0448 Y39.9857 
G01 X9.9391 Y39.8275 
G01 X9.8663 Y39.6517 
G01 X9.8291 Y39.4651 
G01 X9.8291 Y39.2749 
G01 X9.8291 Y38.0049 
G00 Z2.5400 
G00 X14.7001 Y39.0659 
G01 Z-0.1500 F180.00 
G01 X14.6656 Y39.0659 F300.00 
G01 X14.6314 Y39.0702 
G01 X14.5707 Y39.0659 
G01 X13.2399 Y39.0659 
G01 X13.0533 Y39.0287 
G01 X12.8775 Y38.9559 
G01 X12.7193 Y38.8502 
G01 X12.5848 Y38.7157 
G01 X12.4791 Y38.5575 
G01 X12.4063 Y38.3817 
G01 X12.3691 Y38.1951 
G01 X12.3691 Y38.0049 
G01 X12.4063 Y37.8183 
G01 X12.4791 Y37.6425 
G01 X12.5848 Y37.4843 
G01 X12.7193 Y37.3498 
G01 X12.8775 Y37.2441 
G01 X13.0533 Y37.1713 
G01 X13.2399 Y37.1341 
G01 X14.0081 Y37.1341 
G01 X14.2741 Y36.6020 
G01 X14.2741 Y32.7906 
G01 X14.2741 Y28.4799 
G01 X14.3113 Y28.2933 
G01 X14.3841 Y28.1175 
G01 X14.4898 Y27.9593 
G01 X14.6243 Y27.8248 
G01 X14.7825 Y27.7191 
G01 X14.9583 Y27.6463 
G01 X15.1449 Y27.6091 
G01 X15.3351 Y27.6091 
G01 X15.5217 Y27.6463 
G01 X15.6975 Y27.7191 
G01 X15.8557 Y27.8248 
G01 X15.9902 Y27.9593 
G01 X16.0959 Y28.1175 
G01 X16.1687 Y28.2933 
G01 X16.2059 Y28.4799 
G01 X16.2059 Y36.7694 
G01 X16.2102 Y36.8036 
G01 X16.2059 Y36.8643 
G01 X16.2059 Y36.9251 
G01 X16.1991 Y36.9590 
G01 X16.1967 Y36.9934 
G01 X16.1806 Y37.0521 
G01 X16.1687 Y37.1117 
G01 X16.1555 Y37.1436 
G01 X16.1464 Y37.1769 
G01 X16.1192 Y37.2313 
G01 X16.0959 Y37.2875 
G01 X16.0768 Y37.3162 
G01 X15.4842 Y38.5013 
G01 X15.4609 Y38.5575 
G01 X15.4418 Y38.5862 
G01 X15.4263 Y38.6170 
G01 X15.3890 Y38.6651 
G01 X15.3552 Y38.7157 
G01 X15.3308 Y38.7401 
G01 X15.3097 Y38.7673 
G01 X15.2637 Y38.8072 
G01 X15.2207 Y38.8502 
G01 X15.1920 Y38.8694 
G01 X15.1660 Y38.8920 
G01 X15.1131 Y38.9221 
G01 X15.0625 Y38.9559 
G01 X15.0306 Y38.9691 
G01 X15.0007 Y38.9862 
G01 X14.9429 Y39.0055 
G01 X14.8867 Y39.0287 
G01 X14.8529 Y39.0355 
G01 X14.8202 Y39.0464 
G01 X14.7598 Y39.0540 
G01 X14.7001 Y39.0659 
G00 Z2.5400
G00 X14.2741 Y33.2494 
G01 Z-0.1500 F180.00 
G01 X14.2637 Y33.3017 F280.00
G01 X14.1909 Y33.4775 
G01 X14.0852 Y33.6357 
G01 X13.9507 Y33.7702 
G01 X13.7925 Y33.8759 
G01 X13.6167 Y33.9487 
G01 X13.4301 Y33.9859 
G01 X13.2399 Y33.9859 
G01 X13.0533 Y33.9487 
G01 X12.8775 Y33.8759 
G01 X12.7193 Y33.7702 
G01 X5.0993 Y26.1502 
G01 X4.9648 Y26.0157 
G01 X4.8591 Y25.8575 
G01 X4.7863 Y25.6817 
G01 X4.7491 Y25.4951 
G01 X4.7491 Y9.5593 
G01 X4.7448 Y9.4986 
G01 X4.7491 Y9.4644 
G01 X4.7491 Y9.4299 
G01 X4.7610 Y9.3702 
G01 X4.7686 Y9.3098 
G01 X4.7795 Y9.2771 
G01 X4.7863 Y9.2433 
G01 X4.8095 Y9.1871 
G01 X4.8288 Y9.1293 
G01 X4.8459 Y9.0994 
G01 X4.8591 Y9.0675 
G01 X4.8929 Y9.0169 
G01 X4.9230 Y8.9640 
G01 X4.9456 Y8.9380 
G01 X4.9648 Y8.9093 
G01 X5.0078 Y8.8663 
G01 X5.0477 Y8.8203 
G01 X5.0749 Y8.7991 
G01 X5.0993 Y8.7748 
G01 X5.1499 Y8.7410 
G01 X5.1980 Y8.7036 
G01 X5.2288 Y8.6882 
G01 X5.2575 Y8.6691 
G01 X5.3137 Y8.6458 
G01 X10.4481 Y6.0786 
G01 X10.6316 Y6.0283 
G01 X10.8214 Y6.0148 
G01 X11.0102 Y6.0386 
G01 X11.1907 Y6.0988 
G01 X11.3560 Y6.1930 
G01 X11.4997 Y6.3177 
G01 X11.6163 Y6.4680 
G01 X11.7014 Y6.6381 
G01 X11.7517 Y6.8216 
G01 X11.7652 Y7.0114 
G01 X11.7414 Y7.2002 
G01 X11.6812 Y7.3807 
G01 X11.5870 Y7.5460 
G01 X11.4623 Y7.6897 
G01 X11.3120 Y7.8063 
G01 X6.6809 Y10.1219 
G01 X6.6809 Y24.9999 
G01 X14.0852 Y32.4043 
G01 X14.1909 Y32.5625 
G01 X14.2637 Y32.7383 
G00 Z2.5400 
G00 X25.7041 Y25.9399 
G01 Z-0.1500 F180.00 
G01 X25.7413 Y25.7533 F300.00 
G01 X25.8141 Y25.5775 
G01 X25.9198 Y25.4193 
G01 X26.0543 Y25.2848 
G01 X26.2125 Y25.1791 
G01 X26.3883 Y25.1063 
G01 X26.5749 Y25.0691 
G01 X26.7651 Y25.0691 
G01 X26.9517 Y25.1063 
G01 X27.1275 Y25.1791 
G01 X27.2857 Y25.2848 
G01 X27.4202 Y25.4193 
G01 X27.5259 Y25.5775 
G01 X27.5987 Y25.7533 
G01 X27.6359 Y25.9399 
G01 X27.6359 Y31.3499 
G01 X34.6901 Y38.4041 
G01 X63.5951 Y38.4041 
G01 X63.7817 Y38.4413 
G01 X63.9575 Y38.5141 
G01 X64.1157 Y38.6198 
G01 X64.1361 Y38.6402 
G01 X64.1941 Y38.6790 
G01 X64.3180 Y38.8029 
G01 X64.4154 Y38.9486 
G01 X64.4825 Y39.1105 
G01 X64.5167 Y39.2824 
G01 X64.5167 Y39.4576 
G01 X64.4825 Y39.6295 
G01 X64.4154 Y39.7914 
G01 X64.3180 Y39.9371 
G01 X64.1941 Y40.0610 
G01 X64.1361 Y40.0998 
G01 X64.1157 Y40.1202 
G01 X63.9575 Y40.2259 
G01 X63.7817 Y40.2987 
G01 X63.5951 Y40.3359 
G01 X34.1949 Y40.3359 
G01 X34.0083 Y40.2987 
G01 X33.8325 Y40.2259 
G01 X33.6743 Y40.1202 
G01 X33.5398 Y39.9857 
G01 X25.9198 Y32.3657 
G01 X25.8141 Y32.2075 
G01 X25.7413 Y32.0317 
G01 X25.7041 Y31.8451 
G01 X25.7041 Y31.6549 
G01 X25.7041 Y25.9399 
G00 Z2.5400 
G00 X35.4649 Y35.2559 
G01 Z-0.1500 F180.00 
G01 X35.2783 Y35.2187 F300.00 
G01 X35.1025 Y35.1459 
G01 X34.9443 Y35.0402 
G01 X34.8098 Y34.9057 
G01 X30.9998 Y31.0957 
G01 X30.8941 Y30.9375 
G01 X30.8213 Y30.7617 
G01 X30.7841 Y30.5751 
G01 X30.7841 Y25.9399 
G01 X30.8213 Y25.7533 
G01 X30.8941 Y25.5775 
G01 X30.9998 Y25.4193 
G01 X31.1343 Y25.2848 
G01 X31.2925 Y25.1791 
G01 X31.4683 Y25.1063 
G01 X31.6549 Y25.0691 
G01 X31.8451 Y25.0691 
G01 X32.0317 Y25.1063 
G01 X32.2075 Y25.1791 
G01 X32.3657 Y25.2848 
G01 X32.5002 Y25.4193 
G01 X32.6059 Y25.5775 
G01 X32.6787 Y25.7533 
G01 X32.7159 Y25.9399 
G01 X32.7159 Y30.0799 
G01 X35.9601 Y33.3241 
G01 X63.5951 Y33.3241 
G01 X63.7817 Y33.3613 
G01 X63.9575 Y33.4341 
G01 X64.1157 Y33.5398 
G01 X64.1361 Y33.5602 
G01 X64.1941 Y33.5990 
G01 X64.3180 Y33.7229 
G01 X64.4154 Y33.8686 
G01 X64.4825 Y34.0305 
G01 X64.5167 Y34.2024 
G01 X64.5167 Y34.3776 
G01 X64.4825 Y34.5495 
G01 X64.4154 Y34.7114 
G01 X64.3180 Y34.8571 
G01 X64.1941 Y34.9810 
G01 X64.1361 Y35.0198 
G01 X64.1157 Y35.0402 
G01 X63.9575 Y35.1459 
G01 X63.7817 Y35.2187 
G01 X63.5951 Y35.2559 
G01 X62.7699 Y35.2559 
G01 X35.4649 Y35.2559 
G00 Z2.5400 
G00 X33.3241 Y25.9399 
G01 Z-0.1500 F180.00 
G01 X33.3613 Y25.7533 F300.00 
G01 X33.4341 Y25.5775 
G01 X33.5398 Y25.4193 
G01 X33.6743 Y25.2848 
G01 X33.8325 Y25.1791 
G01 X34.0083 Y25.1063 
G01 X34.1949 Y25.0691 
G01 X34.3851 Y25.0691 
G01 X34.5717 Y25.1063 
G01 X34.7475 Y25.1791 
G01 X34.9057 Y25.2848 
G01 X35.0402 Y25.4193 
G01 X35.1459 Y25.5775 
G01 X35.2187 Y25.7533 
G01 X35.2559 Y25.9399 
G01 X35.2559 Y29.4449 
G01 X36.5951 Y30.7841 
G01 X63.5951 Y30.7841 
G01 X63.7817 Y30.8213 
G01 X63.9575 Y30.8941 
G01 X64.1157 Y30.9998 
G01 X64.1361 Y31.0202 
G01 X64.1941 Y31.0590 
G01 X64.3180 Y31.1829 
G01 X64.4154 Y31.3286 
G01 X64.4825 Y31.4905 
G01 X64.5167 Y31.6624 
G01 X64.5167 Y31.8376 
G01 X64.4825 Y32.0095 
G01 X64.4154 Y32.1714 
G01 X64.3180 Y32.3171 
G01 X64.1941 Y32.4410 
G01 X64.1361 Y32.4798 
G01 X64.1157 Y32.5002 
G01 X63.9575 Y32.6059 
G01 X63.7817 Y32.6787 
G01 X63.5951 Y32.7159 
G01 X36.0999 Y32.7159 
G01 X35.9133 Y32.6787 
G01 X35.7375 Y32.6059 
G01 X35.5793 Y32.5002 
G01 X35.4448 Y32.3657 
G01 X33.5398 Y30.4607 
G01 X33.4341 Y30.3025 
G01 X33.3613 Y30.1267 
G01 X33.3241 Y29.9401 
G01 X33.3241 Y29.7499 
G01 X33.3241 Y25.9399 
G00 Z2.5400 
G00 X28.2441 Y25.9399 
G01 Z-0.1500 F180.00 
G01 X28.2813 Y25.7533 F300.00 
G01 X28.3541 Y25.5775 
G01 X28.4598 Y25.4193 
G01 X28.5943 Y25.2848 
G01 X28.7525 Y25.1791 
G01 X28.9283 Y25.1063 
G01 X29.1149 Y25.0691 
G01 X29.3051 Y25.0691 
G01 X29.4917 Y25.1063 
G01 X29.6675 Y25.1791 
G01 X29.8257 Y25.2848 
G01 X29.9602 Y25.4193 
G01 X30.0659 Y25.5775 
G01 X30.1387 Y25.7533 
G01 X30.1759 Y25.9399 
G01 X30.1759 Y30.7149 
G01 X35.3251 Y35.8641 
G01 X63.5951 Y35.8641 
G01 X63.7817 Y35.9013 
G01 X63.9575 Y35.9741 
G01 X64.1157 Y36.0798 
G01 X64.1361 Y36.1002 
G01 X64.1941 Y36.1390 
G01 X64.3180 Y36.2629 
G01 X64.4154 Y36.4086 
G01 X64.4825 Y36.5705 
G01 X64.5167 Y36.7424 
G01 X64.5167 Y36.9176 
G01 X64.4825 Y37.0895 
G01 X64.4154 Y37.2514 
G01 X64.3180 Y37.3971 
G01 X64.1941 Y37.5210 
G01 X64.1361 Y37.5598 
G01 X64.1157 Y37.5802 
G01 X63.9575 Y37.6859 
G01 X63.7817 Y37.7587 
G01 X63.5951 Y37.7959 
G01 X34.8299 Y37.7959 
G01 X34.6433 Y37.7587 
G01 X34.4675 Y37.6859 
G01 X34.3093 Y37.5802 
G01 X34.1748 Y37.4457 
G01 X28.4598 Y31.7307 
G01 X28.3541 Y31.5725 
G01 X28.2813 Y31.3967 
G01 X28.2441 Y31.2101 
G01 X28.2441 Y31.0199 
G01 X28.2441 Y25.9399 
G00 Z2.5400 
G00 X23.1641 Y25.9399 
G01 Z-0.1500 F180.00 
G01 X23.2013 Y25.7533 F300.00 
G01 X23.2741 Y25.5775 
G01 X23.3798 Y25.4193 
G01 X23.5143 Y25.2848 
G01 X23.6725 Y25.1791 
G01 X23.8483 Y25.1063 
G01 X24.0349 Y25.0691 
G01 X24.2251 Y25.0691 
G01 X24.4117 Y25.1063 
G01 X24.5875 Y25.1791 
G01 X24.7457 Y25.2848 
G01 X24.8802 Y25.4193 
G01 X24.9859 Y25.5775 
G01 X25.0587 Y25.7533 
G01 X25.0959 Y25.9399 
G01 X25.0959 Y31.9849 
G01 X34.0551 Y40.9441 
G01 X63.5951 Y40.9441 
G01 X63.7817 Y40.9813 
G01 X63.9575 Y41.0541 
G01 X64.1157 Y41.1598 
G01 X64.1361 Y41.1802 
G01 X64.1941 Y41.2190 
G01 X64.3180 Y41.3429 
G01 X64.4154 Y41.4886 
G01 X64.4825 Y41.6505 
G01 X64.5167 Y41.8224 
G01 X64.5167 Y41.9976 
G01 X64.4825 Y42.1695 
G01 X64.4154 Y42.3314 
G01 X64.3180 Y42.4771 
G01 X64.1941 Y42.6010 
G01 X64.1361 Y42.6398 
G01 X64.1157 Y42.6602 
G01 X63.9575 Y42.7659 
G01 X63.7817 Y42.8387 
G01 X63.5951 Y42.8759 
G01 X33.5599 Y42.8759 
G01 X33.3733 Y42.8387 
G01 X33.1975 Y42.7659 
G01 X33.0393 Y42.6602 
G01 X23.3798 Y33.0007 
G01 X23.2741 Y32.8425 
G01 X23.2013 Y32.6667 
G01 X23.1641 Y32.4801 
G01 X23.1641 Y32.2899 
G01 X23.1641 Y25.9399 
G00 Z2.5400 
G00 X63.7020 Y20.0654 
G01 Z-0.1500 F180.00 
G01 X64.0752 Y19.9108 F300.00 
G01 X64.1261 Y19.8598 
G01 X64.1561 Y19.8474 
G01 X64.1590 Y19.8462 
G01 X64.4232 Y19.5820 
G01 X64.5662 Y19.2368 
G01 X64.5662 Y18.8632 
G01 X64.4232 Y18.5180 
G01 X64.1590 Y18.2538 
G01 X64.1261 Y18.2402 
G01 X64.0902 Y18.2043 
G01 X64.0752 Y18.1892 
G01 X63.7020 Y18.0346 
G01 X60.1230 Y18.0346 
G01 X59.7498 Y18.1892 
G01 X59.4642 Y18.4748 
G01 X59.3096 Y18.8480 
G01 X59.3096 Y19.2520 
G01 X59.4642 Y19.6252 
G01 X59.4934 Y19.6543 
G01 X59.5128 Y19.7013 
G01 X59.5128 Y26.0187 
G01 X59.4934 Y26.0657 
G01 X59.4642 Y26.0948 
G01 X59.3096 Y26.4680 
G01 X59.3096 Y26.8720 
G01 X59.4642 Y27.2451 
G01 X59.7498 Y27.5308 
G01 X60.1230 Y27.6854 
G01 X63.7020 Y27.6854 
G01 X64.0751 Y27.5308 
G01 X64.0902 Y27.5157 
G01 X64.1004 Y27.5056 
G01 X64.1261 Y27.4798 
G01 X64.1522 Y27.4690 
G01 X64.1590 Y27.4662 
G01 X64.4232 Y27.2020 
G01 X64.5662 Y26.8568 
G01 X64.5662 Y26.4832 
G01 X64.4232 Y26.1380 
G01 X64.1590 Y25.8738 
G01 X64.1526 Y25.8712 
G01 X64.1262 Y25.8602 
G01 X64.1011 Y25.8352 
G01 X64.0902 Y25.8243 
G01 X64.0751 Y25.8092 
G01 X63.7020 Y25.6546 
G01 X61.2394 Y25.6546 
G01 X61.1925 Y25.6352 
G01 X61.1566 Y25.5993 
G01 X61.1372 Y25.5524 
G01 X61.1372 Y21.0031 
G01 X61.1372 Y20.1676 
G01 X61.1566 Y20.1207 
G01 X61.1925 Y20.0848 
G01 X61.2394 Y20.0654 
G01 X61.2902 Y20.0654 
G01 X63.7020 Y20.0654 

G00 Z2.5400 
G00 X54.1356 Y20.4204 
G01 Z-0.1500 F180.00 
G01 X54.4434 Y20.5480 F300.00 
G01 X54.7766 Y20.5480 
G01 X55.0844 Y20.4204 
G01 X55.3200 Y20.1848 
G01 X55.4476 Y19.8770 
G01 X55.4476 Y18.2230 
G01 X55.3200 Y17.9152 
G01 X55.0844 Y17.6795 
G01 X54.7766 Y17.5520 
G01 X54.4434 Y17.5520 
G01 X54.1356 Y17.6795 
G01 X53.9000 Y17.9152 
G01 X53.7724 Y18.2230 
G01 X53.7724 Y19.8770 
G01 X53.9000 Y20.1848 
G01 X54.1356 Y20.4204 
G00 Z12.7000 
M05
M02