(.../administrador/eagle/pcb-gcode/pcb-gcode.ulp)
(Copyright 2005 - 2012 by John Johnson)
(See readme.txt for licensing terms.)
(This file generated from the board:)
(.../administrador/eagle/Arduino_reduced.brd)
(Current profile is .../eagle/pcb-gcode/profiles/emc.pp  )
(This file generated 15/09/15 12:23)
(Settings from pcb-machine.h)
(  Tool Size)
(0.1397 )
(Z Axis Settings)
(  High     Up        Down     Drill)
(12.7000 	2.5400 	-0.2000 	-2.0000 )
(spindle on time = 3.0000)
(milling depth = -0.2540)
(text depth = -0.1270)
(tool change at 0.0000 0.0000 0.0000 )
(feed rate xy = F300.00 )
(feed rate z  = F180.00 )
(Settings from pcb-defaults.h)
(isolate min = 0.0578)
(isolate max = 0.3556)
(isolate step = 0.1270)
(Generated top outlines, bottom outlines, bottom drill, )
(Unit of measure: mm)
(Metric Mode)
G21
(Absolute Coordinates)
G90
G00 X0.0000 Y0.0000 
M03
G04 P3.000000
(Ethernet)
G00 Z5.0000
G00 X52.0000 Y8.5000 F500.00
G01 Z-0.3000 F180.00 
G01 X66.0000 Y8.5000
G01 X66.0000 Y19.5000
G01 X52.0000 Y19.5000
G01 X52.0000 Y8.5000
G01 Z-0.6000 F180.00 
G01 X66.0000 Y8.5000
G01 X66.0000 Y19.5000
G01 X52.0000 Y19.5000
G01 X52.0000 Y8.5000
G01 Z-0.9000 F180.00 
G01 X66.0000 Y8.5000
G01 X66.0000 Y19.5000
G01 X52.0000 Y19.5000
G01 X52.0000 Y8.5000
G01 Z-1.2000 F180.00 
G01 X66.0000 Y8.5000
G01 X66.0000 Y19.5000
G01 X52.0000 Y19.5000
G01 X52.0000 Y8.5000
G01 Z-1.5000 F180.00 
G01 X66.0000 Y8.5000
G01 X66.0000 Y19.5000
G01 X52.0000 Y19.5000
G01 X52.0000 Y8.5000
G01 Z-1.8000 F180.00 
G01 X66.0000 Y8.5000
G01 X66.0000 Y19.5000
G01 X52.0000 Y19.5000
G01 X52.0000 Y8.5000
G01 Z-2.1000 F180.00 
G01 X66.0000 Y8.5000
G01 X66.0000 Y19.5000
G01 X52.0000 Y19.5000
G01 X52.0000 Y8.5000
G01 Z-2.4000 F180.00 
G01 X66.0000 Y8.5000
G01 X66.0000 Y19.5000
G01 X52.0000 Y19.5000
G01 X52.0000 Y8.5000
G00 Z5.0000
(RanuraUSB)
G00 X41.0000 Y4.5000 
G01 Z-0.3000 F180.00 
G01 X47.0000 Y4.5000 F500.00 
G01 Z-0.6000 F180.00
G00 X41.0000 Y4.5000 
G01 Z-0.9000 F180.00
G01 X47.0000 Y4.5000
G01 Z-1.2000 F180.00
G00 X41.0000 Y4.5000
G01 Z-1.5000 F180.00
G01 X47.0000 Y4.5000
G01 Z-1.8000 F180.00
G00 X41.0000 Y4.5000
G01 Z-2.1000 F180.00
G01 X47.0000 Y4.5000
G01 Z-2.4000 F180.00
G00 X41.0000 Y4.5000
G00 Z5.0000
(Drill)
G00 X34.0000 Y10.5000 
G01 Z-2.4000 F50.00 
G00 Z5.0000
(Borde Externo)
G00 Z5.0000
G00 X0.0000 Y0.0000 
G01 Z-0.3000 F180.00 
G01 X103.0000 Y0.0000 F500.00 
G01 X103.0000 Y53.0000 
G01 X0.0000 Y53.0000 
G01 X0.0000 Y0.0000
G01 Z-0.6000 F180.00  
G01 X103.0000 Y0.0000 F500.00 
G01 X103.0000 Y53.0000 
G01 X0.0000 Y53.0000 
G01 X0.0000 Y0.0000
G01 Z-0.9000 F180.00  
G01 X103.0000 Y0.0000 F500.00 
G01 X103.0000 Y53.0000 
G01 X0.0000 Y53.0000 
G01 X0.0000 Y0.0000
G01 Z-1.2000 F180.00  
G01 X103.0000 Y0.0000 F500.00 
G01 X103.0000 Y53.0000 
G01 X0.0000 Y53.0000 
G01 X0.0000 Y0.0000
G01 Z-1.5000 F180.00  
G01 X103.0000 Y0.0000 F500.00 
G01 X103.0000 Y53.0000 
G01 X0.0000 Y53.0000 
G01 X0.0000 Y0.0000
G01 Z-1.8000 F180.00  
G01 X103.0000 Y0.0000 F500.00 
G01 X103.0000 Y53.0000 
G01 X0.0000 Y53.0000 
G01 X0.0000 Y0.0000
G01 Z-2.1000 F180.00  
G01 X103.0000 Y0.0000 F500.00 
G01 X103.0000 Y53.0000 
G01 X0.0000 Y53.0000 
G01 X0.0000 Y0.0000
G01 Z-2.4000 F180.00  
G01 X103.0000 Y0.0000 F500.00 
G01 X103.0000 Y53.0000 
G01 X0.0000 Y53.0000 
G01 X0.0000 Y0.0000
G01 Z-2.7000 F180.00  
G01 X103.0000 Y0.0000 F500.00 
G01 X103.0000 Y53.0000 
G01 X0.0000 Y53.0000 
G01 X0.0000 Y0.0000
G01 Z-3.0000 F180.00  
G01 X103.0000 Y0.0000 F500.00 
G01 X103.0000 Y53.0000 
G01 X0.0000 Y53.0000 
G01 X0.0000 Y0.0000
G00 Z12.7000 
M05
M02
